P3
442 210
255
40 32 49 34 25 44 28 23 38 28 24 37 30 27 39 23 22 29 21 21 26 21 21 25 
15 15 21 15 16 25 16 17 30 4 4 22 4 4 24 8 8 29 3 3 19 1 1 10 
1 1 4 3 4 1 6 6 1 8 7 1 9 7 1 10 6 1 10 4 2 10 3 8 
10 2 12 10 2 14 8 2 10 14 8 13 19 14 17 18 13 13 22 17 14 28 24 18 
38 33 24 47 41 32 55 49 39 61 54 44 56 49 40 51 44 35 49 41 36 49 41 39 
50 42 43 51 42 46 53 43 49 54 44 51 53 42 50 50 39 46 45 35 41 40 30 33 
36 26 29 32 26 27 28 34 27 27 32 25 26 30 23 24 29 20 24 28 21 25 27 25 
29 29 34 32 31 36 33 31 34 31 30 27 28 27 20 24 24 14 20 20 7 26 26 13 
28 28 15 23 22 12 21 21 12 21 22 12 23 25 13 12 15 5 4 6 1 1 1 2 
8 9 14 18 15 20 29 17 21 29 19 22 28 20 23 26 21 24 24 21 24 23 22 24 
21 24 26 21 24 25 22 25 24 25 26 23 26 27 21 27 26 18 28 24 15 31 24 15 
33 24 15 36 24 16 36 24 17 36 24 20 36 25 24 35 25 26 34 24 28 33 23 31 
32 23 32 32 24 29 34 26 25 37 29 28 38 30 29 36 28 27 31 24 22 27 20 18 
24 18 16 25 18 17 23 16 15 19 13 11 14 9 6 8 4 3 4 1 0 7 3 1 
6 2 1 3 0 0 5 2 0 7 5 2 7 7 4 4 3 1 7 6 3 10 9 5 
4 4 1 9 7 4 16 12 9 18 14 11 21 17 15 25 21 18 27 23 20 26 22 19 
25 21 18 24 20 17 24 20 17 24 20 17 22 18 15 20 16 13 18 14 12 20 16 13 
20 16 13 20 16 13 21 17 14 24 20 17 27 22 20 29 25 22 29 24 22 27 23 20 
25 21 19 27 29 24 30 37 29 32 39 32 34 41 33 36 43 35 39 46 38 40 46 38 
41 46 39 43 47 40 38 43 36 34 39 32 32 37 30 28 33 26 25 29 22 22 26 20 
19 24 17 18 23 16 19 24 17 21 26 19 21 26 19 20 24 17 14 17 11 8 11 6 
2 5 0 7 2 0 11 0 0 12 1 0 13 1 1 13 1 1 14 1 1 15 1 2 
18 2 2 20 2 2 21 2 2 23 2 2 24 2 2 26 4 1 28 7 1 32 10 2 
37 16 2 42 23 3 48 29 5 53 35 6 58 40 8 62 45 9 65 49 10 67 52 11 
68 53 12 71 52 13 73 52 15 74 53 17 76 53 19 77 54 21 77 54 22 77 53 23 
77 52 22 76 50 21 74 48 19 73 47 18 72 46 15 69 43 11 68 41 9 67 40 8 
66 39 8 65 38 8 65 37 7 65 36 7 66 36 7 67 36 8 68 37 9 69 37 11 
70 40 13 71 49 13 62 40 9 52 31 5 56 35 6 61 41 12 64 45 17 64 45 19 
61 42 18 55 38 14 46 30 6 56 40 15 65 50 22 63 48 19 64 49 18 63 49 16 
60 46 11 59 44 9 58 42 8 57 41 8 58 42 8 60 43 9 65 46 12 64 45 11 
61 43 9 56 39 7 60 43 9 64 48 10 66 49 11 64 48 10 63 46 9 63 45 9 
63 45 9 64 46 9 65 47 10 63 45 9 62 43 9 62 42 8 67 47 10 70 50 11 
69 49 11 66 46 10 62 42 8 58 37 7 61 39 7 61 38 7 56 35 6 56 34 6 
54 35 6 49 38 6 49 38 6 48 37 6 46 35 5 49 39 7 50 39 7 47 37 6 
48 38 7 48 38 7 47 37 8 47 36 7 51 39 11 57 44 16 61 47 18 64 49 19 
66 51 19 67 51 18 67 50 16 65 48 13 65 46 10 65 46 10 67 46 10 68 47 10 
67 46 12 66 45 13 66 45 13 66 45 13 67 46 12 68 47 13 70 49 15 73 51 16 
73 51 16 72 50 15 70 48 13 69 47 11 70 48 13 73 51 15 76 53 18 78 56 21 
81 58 24 83 60 27 84 62 28 83 61 29 81 57 27 78 55 24 75 53 22 73 49 21 
68 47 22 64 46 24 62 45 24 61 45 22 59 44 20 57 43 20 55 43 18 53 43 17 
53 43 17 52 43 16 51 44 16 52 45 14 49 41 10 47 38 6 49 39 7 55 44 11 
58 47 13 55 42 8 61 45 10 68 48 14 72 52 17 65 43 12 60 38 7 68 43 9 
62 40 8 59 38 7 63 42 8 66 45 9 69 47 11 73 49 12 76 52 15 78 54 17 
79 55 17 78 54 17 78 54 16 77 52 15 79 54 17 81 56 19 83 56 20 83 56 20 
83 55 19 83 55 19 82 53 17 80 51 16 77 48 13 76 47 12 75 46 11 72 44 10 
63 39 8 60 39 7 63 42 8 67 46 11 70 49 14 71 50 15 71 50 15 71 51 15 
71 52 15 68 50 12 64 47 10 59 42 8 45 31 5 37 25 3 33 23 3 25 17 2 
18 12 1 12 7 1 9 6 1 8 6 1 10 9 1 16 15 6 22 22 14 28 27 22 
32 21 19 33 18 17 32 17 17 31 16 16 33 17 18 36 19 21 34 17 20 32 15 19 
30 14 19 32 16 21 33 17 22 32 18 23 32 19 24 33 21 24 35 23 25 34 23 25 
33 24 24 32 24 23 30 22 20 29 20 19 29 20 17 31 22 19 34 25 21 37 28 24 
38 29 26 40 31 28 40 31 30 37 29 29 31 25 27 25 20 24 21 16 20 17 13 17 
15 10 13 12 5 8 9 2 3 8 0 0 9 0 0 11 0 0 14 1 0 16 2 0 
17 3 1 15 3 1 11 2 0 8 3 0 6 4 0 5 6 0 5 7 1 10 11 5 
25 21 16 25 20 16 23 19 16 24 20 17 27 23 21 30 25 26 31 26 28 29 24 26 
26 21 22 24 19 19 
53 44 61 47 36 56 24 18 31 17 12 23 18 14 24 10 8 13 7 6 10 7 7 11 
5 4 9 6 6 14 9 8 19 2 2 16 1 1 16 3 3 18 8 7 18 10 8 14 
11 9 8 13 12 3 17 15 2 20 17 3 19 14 2 20 14 4 23 15 10 28 18 19 
29 18 25 28 16 26 20 10 18 19 9 17 19 10 16 17 8 10 20 11 10 24 15 12 
29 20 14 32 22 15 35 25 17 41 30 22 41 30 21 41 29 22 45 33 27 43 30 26 
41 28 25 42 29 28 44 30 31 45 31 33 44 30 32 42 28 31 39 25 27 32 20 21 
32 19 20 29 18 18 21 16 14 18 14 11 16 12 8 15 10 6 16 10 7 17 9 10 
17 9 17 19 9 18 20 9 16 20 9 9 21 9 7 20 9 4 16 6 2 21 10 4 
22 11 5 15 7 4 14 6 3 15 6 3 17 7 4 13 4 2 9 2 0 7 1 1 
16 8 13 25 14 20 34 20 20 32 20 20 31 20 21 30 22 21 29 23 22 28 24 22 
26 25 21 25 25 21 26 26 20 28 28 19 32 29 20 31 25 16 26 17 9 29 17 9 
31 17 10 34 17 11 34 16 13 34 16 16 33 17 19 32 16 21 30 16 24 29 16 26 
28 16 26 29 19 25 33 24 23 36 26 26 36 27 26 34 25 25 28 20 19 24 17 15 
21 14 13 21 13 12 19 11 10 15 8 7 9 4 3 6 1 1 4 1 0 8 4 2 
6 3 2 3 0 0 3 1 0 3 1 1 3 2 1 2 1 0 6 5 3 9 8 5 
5 4 1 7 4 2 10 6 3 11 7 4 14 10 7 17 13 11 19 15 13 19 15 12 
18 14 11 16 12 9 15 11 8 15 11 8 17 13 10 16 12 10 15 10 8 13 7 5 
13 8 5 15 9 7 17 11 9 20 15 12 24 17 15 26 19 17 25 19 17 25 19 17 
26 19 17 30 28 25 35 36 31 39 39 33 41 42 36 45 45 40 49 49 44 50 50 45 
52 50 46 54 53 48 51 50 45 48 46 42 47 44 40 31 27 23 20 16 12 17 13 9 
14 10 6 12 8 5 13 8 5 14 9 6 14 9 6 14 8 5 10 5 3 7 3 2 
6 2 0 18 1 0 25 1 1 25 1 1 27 2 4 29 4 6 31 7 9 35 10 13 
37 12 16 38 14 17 38 13 17 37 13 16 36 12 14 27 5 5 24 3 1 24 4 1 
27 7 1 29 11 2 32 15 2 35 19 3 38 23 3 40 26 4 41 28 4 42 29 4 
44 30 5 48 31 5 50 31 6 49 31 6 49 30 7 49 29 8 48 27 8 45 24 8 
43 22 7 41 19 6 37 15 5 35 14 4 34 14 4 34 13 2 34 12 2 33 12 2 
32 12 2 31 11 2 31 11 2 31 11 2 32 11 2 33 11 2 35 11 2 35 12 3 
35 12 3 29 14 3 25 12 2 22 10 1 28 15 2 27 15 3 24 14 4 26 16 5 
23 14 5 20 11 3 17 9 1 26 18 7 35 27 11 34 28 10 35 28 8 35 28 6 
34 27 4 35 27 4 35 27 4 35 26 3 35 25 3 36 25 4 39 27 5 40 29 5 
37 25 4 24 13 2 34 22 4 42 31 6 42 31 5 42 30 4 42 29 4 41 27 4 
40 26 4 40 26 4 42 28 4 47 32 8 48 34 9 46 31 6 45 30 5 43 27 4 
37 20 3 39 21 3 41 23 3 42 24 3 44 25 4 43 24 3 37 19 3 31 13 2 
28 13 2 30 20 2 25 15 2 22 12 1 20 10 1 24 14 2 25 15 2 22 12 1 
23 12 2 22 12 2 21 11 2 25 13 2 28 14 3 29 15 4 29 14 5 29 14 5 
28 14 5 29 15 4 29 14 4 29 14 3 30 13 2 31 13 2 31 14 2 32 14 2 
30 14 2 27 13 3 27 13 3 27 13 3 28 13 2 31 15 3 34 17 4 38 21 4 
41 23 5 41 24 5 41 24 4 41 24 4 46 29 9 52 35 15 55 37 18 57 39 21 
59 41 24 61 43 26 61 44 28 61 43 28 60 40 26 57 38 24 55 36 22 53 34 21 
41 25 14 29 16 7 28 15 7 27 15 6 25 15 6 24 14 5 22 14 5 20 14 4 
19 14 4 18 14 4 18 15 4 18 15 3 20 17 2 22 18 2 21 16 2 25 19 3 
28 20 3 25 16 2 33 22 5 42 28 10 48 33 15 40 23 8 33 15 2 35 17 2 
29 13 2 28 13 2 36 20 3 38 22 3 41 24 4 45 27 5 48 31 8 51 33 11 
53 35 14 54 36 14 56 37 15 57 38 16 54 34 12 51 31 9 50 29 8 51 29 8 
52 30 8 52 29 9 51 27 7 48 24 5 44 19 4 41 17 3 41 17 3 42 18 3 
38 14 2 35 12 2 34 13 2 38 15 3 40 16 3 38 15 3 38 15 3 39 15 3 
39 16 4 37 15 3 36 15 2 36 17 2 38 20 3 34 17 2 25 10 1 25 13 1 
22 12 1 16 8 1 12 6 1 9 4 0 7 3 1 16 13 9 23 21 17 29 26 25 
37 25 23 39 22 22 38 19 20 37 18 19 40 19 21 42 20 23 38 15 19 34 10 15 
30 7 12 36 13 19 38 17 23 39 19 24 38 21 24 37 22 24 36 22 24 35 23 24 
35 24 24 35 25 23 35 25 24 36 25 24 37 25 24 39 26 24 40 27 25 40 28 25 
36 24 23 36 24 24 37 27 26 36 27 28 33 24 27 28 21 24 23 18 20 20 15 17 
17 11 13 13 5 7 10 2 3 8 0 0 10 0 0 13 1 0 16 1 0 18 2 0 
18 3 1 16 3 1 13 3 0 9 2 0 7 3 0 5 5 0 5 6 1 8 7 2 
14 9 5 13 7 5 12 6 5 14 7 5 17 9 10 18 10 13 17 9 12 14 7 9 
12 6 6 11 5 5 
59 48 63 55 44 62 45 39 47 42 37 43 42 37 43 29 26 29 25 22 25 26 24 27 
25 23 27 28 26 32 32 30 38 25 24 33 24 23 33 26 24 33 26 23 28 26 23 23 
28 24 19 30 27 14 38 34 18 47 41 24 47 40 26 50 42 30 53 43 36 54 41 41 
50 36 40 45 32 38 44 32 40 42 30 38 39 27 34 37 25 29 40 28 29 44 31 31 
46 33 30 46 32 28 47 33 27 51 37 31 56 41 34 60 44 37 62 46 39 60 44 38 
57 40 35 52 36 31 51 35 31 51 35 32 51 35 32 51 35 33 50 34 32 45 30 28 
44 28 26 43 26 25 40 24 26 39 23 25 39 22 24 40 22 24 42 22 26 43 22 30 
43 21 36 44 21 37 45 21 35 46 22 30 47 22 26 46 21 23 44 19 21 49 24 23 
51 26 25 46 23 25 45 22 25 46 23 25 49 26 26 48 25 26 45 23 25 40 20 25 
46 23 33 48 27 34 46 30 26 46 31 27 46 32 28 46 35 30 44 35 29 42 36 29 
41 37 27 40 38 27 41 39 28 44 40 28 47 39 29 48 37 28 46 33 26 49 32 26 
51 32 28 53 32 29 53 31 32 53 31 34 52 31 36 50 30 38 48 30 40 47 30 41 
46 30 42 46 33 40 48 37 37 50 40 40 51 41 41 50 40 40 46 37 36 43 34 33 
41 32 32 41 32 32 39 31 30 36 29 27 31 25 24 29 23 22 29 24 23 38 33 31 
36 32 30 29 26 25 27 23 22 25 22 21 24 22 21 23 22 20 27 26 24 31 30 27 
27 27 23 25 23 20 24 20 17 26 22 20 30 26 23 33 29 27 35 31 28 35 31 28 
35 30 28 33 28 26 32 28 25 32 27 25 32 27 24 31 26 24 30 25 23 30 23 21 
30 23 21 31 24 22 34 27 26 37 30 28 39 31 30 40 31 30 39 31 30 39 32 30 
40 32 31 42 34 32 45 38 35 50 42 39 54 46 42 57 48 45 60 50 47 60 50 48 
61 50 48 63 51 50 62 50 48 61 48 47 60 46 45 52 38 37 47 32 31 46 29 29 
43 26 26 41 24 24 40 23 23 40 23 23 40 23 23 41 23 23 40 22 23 40 22 24 
41 22 24 50 20 20 55 20 19 56 20 20 58 22 24 60 25 28 62 28 32 65 32 36 
65 33 39 64 34 40 62 32 39 59 30 37 55 29 35 50 26 30 46 25 28 45 25 28 
45 27 27 46 29 26 46 31 26 47 33 25 48 35 24 48 37 24 49 38 23 49 38 23 
51 39 24 55 40 24 56 40 23 56 39 23 56 39 24 55 38 24 54 36 24 51 34 23 
48 31 22 46 28 21 43 25 21 41 23 20 40 23 20 40 22 20 40 22 19 39 22 19 
38 22 20 38 22 20 38 22 20 38 22 21 39 22 21 41 23 22 41 23 23 42 24 23 
40 23 23 32 21 20 31 23 22 36 28 26 46 39 34 37 31 27 27 21 19 31 27 23 
29 25 22 27 24 22 29 26 24 36 33 28 40 37 29 33 32 22 35 33 22 38 35 23 
39 36 23 41 37 23 41 37 23 41 35 21 39 32 19 39 31 18 40 32 18 42 33 19 
43 34 23 45 35 34 50 39 34 51 41 30 46 35 25 45 33 23 44 32 22 43 31 22 
43 30 22 45 31 23 47 33 23 49 35 24 50 36 24 50 35 23 52 37 26 52 36 28 
48 31 27 53 35 30 55 38 30 54 36 26 50 31 22 46 28 19 44 25 19 44 27 25 
44 27 25 43 27 19 39 23 19 37 21 19 36 21 19 41 24 21 42 25 22 41 24 23 
38 21 21 37 19 19 36 17 18 39 19 19 40 20 19 41 19 20 41 19 21 42 20 22 
42 21 23 45 24 26 48 26 28 50 27 30 51 26 29 50 25 28 48 23 26 47 22 24 
44 22 24 39 23 25 39 22 24 38 21 24 38 21 23 40 22 23 43 24 24 47 27 25 
49 30 26 50 31 26 51 31 26 51 31 26 55 35 30 60 40 34 62 42 37 64 43 39 
65 44 41 67 46 43 67 47 44 67 46 44 66 44 43 65 43 41 62 41 40 62 39 39 
51 32 31 40 24 22 39 24 22 39 24 21 38 23 21 36 24 20 34 24 20 33 24 20 
31 24 20 31 24 19 30 24 20 30 25 20 33 28 22 36 30 23 36 29 24 41 33 28 
45 35 30 41 31 29 46 34 30 52 38 34 58 43 39 50 34 32 44 26 27 45 27 28 
44 32 31 45 36 32 48 37 30 42 31 23 38 28 18 41 30 20 44 33 21 48 36 24 
50 38 28 52 39 28 53 39 28 53 39 29 51 37 26 50 35 25 50 35 26 52 35 25 
52 35 25 52 34 25 51 32 24 49 30 22 45 26 22 44 24 21 43 24 21 44 24 21 
46 19 20 46 18 20 47 19 22 51 22 23 51 22 22 49 20 20 50 21 20 52 22 21 
53 24 21 51 22 19 50 22 18 50 23 17 55 29 18 55 31 20 52 29 23 51 31 22 
45 27 19 35 19 14 40 26 22 41 29 27 40 29 30 42 33 33 42 33 34 41 32 34 
47 31 31 51 31 31 52 31 32 53 29 32 55 30 33 58 31 35 57 29 34 57 28 33 
58 28 34 58 30 36 56 29 35 52 28 33 50 29 32 48 30 31 46 30 31 45 31 31 
44 32 31 44 33 31 46 34 32 47 35 33 49 35 34 49 34 32 49 33 31 48 33 31 
46 31 33 48 33 35 50 36 38 50 39 40 48 37 40 45 35 38 41 34 36 40 32 34 
38 30 31 35 26 26 33 22 22 32 20 20 34 21 21 37 22 21 40 23 22 42 24 23 
41 25 23 40 25 23 36 25 22 33 25 21 30 25 21 28 26 20 27 27 21 29 28 21 
36 29 21 35 27 21 35 27 24 39 30 28 42 32 33 41 31 35 36 27 31 32 24 26 
30 23 23 31 24 21 
57 44 56 59 46 60 75 68 72 81 76 76 77 72 74 58 54 55 53 48 50 55 50 52 
54 50 53 59 55 59 64 60 65 53 51 56 54 50 56 56 52 56 44 40 39 42 37 32 
44 39 30 46 41 26 58 53 35 73 66 48 76 67 53 81 71 59 83 72 63 76 62 60 
65 50 51 58 43 47 68 56 61 67 54 60 62 49 55 61 48 53 65 50 54 69 53 56 
70 53 54 69 52 51 69 52 49 74 55 50 81 62 57 86 67 61 83 63 56 84 64 57 
81 62 54 69 50 43 65 46 39 63 44 38 64 45 39 66 48 42 67 49 43 63 46 41 
61 43 38 61 40 38 68 41 46 71 41 49 73 43 51 75 45 52 78 45 56 80 46 61 
81 45 68 82 44 68 83 44 66 86 46 63 84 45 58 83 43 52 81 42 46 88 48 51 
92 51 55 89 50 55 87 48 53 89 50 54 94 55 57 92 54 56 87 49 55 80 43 54 
79 42 56 72 41 49 58 39 32 60 43 35 61 45 37 61 48 39 59 48 38 56 48 36 
55 49 35 56 50 36 58 51 37 60 53 39 62 50 39 65 50 42 71 54 48 74 53 49 
76 52 51 77 52 53 77 50 55 76 50 57 75 51 59 73 50 60 71 50 61 69 49 61 
68 50 62 66 51 58 64 53 53 67 55 55 68 57 56 68 57 57 66 56 56 65 56 55 
65 56 56 66 56 56 65 56 56 63 55 54 60 52 51 58 51 50 60 54 52 76 70 68 
74 68 66 64 60 57 56 52 49 53 50 47 52 49 46 50 47 45 54 52 49 57 56 53 
54 53 50 48 45 42 44 40 37 49 45 42 53 49 46 56 52 49 56 53 50 58 53 51 
60 53 51 58 51 49 58 52 50 58 51 49 52 46 44 51 45 43 52 45 43 54 46 45 
53 45 44 53 45 44 57 49 48 58 50 49 59 50 49 58 48 48 57 48 47 57 48 47 
57 48 47 55 41 41 56 39 38 63 45 44 67 49 48 69 51 50 69 49 48 68 46 47 
67 45 46 67 45 46 69 46 47 71 46 47 70 45 46 80 53 55 85 57 60 84 55 58 
82 52 56 80 50 53 79 48 51 78 47 51 79 47 50 80 47 51 82 49 53 83 49 54 
85 50 55 88 44 45 90 42 42 90 43 44 93 46 49 94 49 53 95 52 57 95 55 61 
93 55 62 89 53 62 84 50 59 79 47 56 74 44 55 77 51 60 76 53 62 74 53 61 
72 54 59 71 54 57 69 55 55 68 55 52 67 56 50 67 56 49 67 57 48 68 58 48 
69 58 48 72 59 47 73 59 47 73 59 47 74 60 47 74 59 48 74 58 48 72 58 47 
71 56 46 69 54 46 67 52 45 65 50 44 64 49 43 63 48 43 63 48 42 62 47 42 
62 47 43 62 47 43 62 47 44 63 47 46 64 48 47 65 49 48 65 50 50 65 51 51 
64 50 50 54 46 44 57 51 50 68 62 60 84 80 77 66 63 60 47 44 42 54 53 49 
53 52 49 51 50 48 56 55 52 61 60 56 59 58 55 44 44 40 47 47 42 53 52 47 
57 54 49 58 55 48 58 54 47 57 51 44 55 49 41 53 47 38 54 47 38 54 47 39 
63 53 48 84 73 75 80 68 72 71 58 63 60 48 51 57 44 47 55 42 45 55 42 45 
57 43 46 60 44 48 62 47 49 59 43 45 58 42 44 62 46 48 71 54 56 76 58 60 
77 57 59 83 63 65 84 64 66 77 57 58 66 46 48 61 40 42 62 41 42 75 53 56 
78 55 56 70 45 41 70 46 42 71 46 43 71 46 44 75 49 47 78 51 50 78 51 52 
73 45 47 69 41 44 68 39 42 68 38 42 69 39 44 72 40 46 74 42 48 77 44 50 
80 47 53 86 52 58 91 56 63 95 58 66 95 58 66 93 55 63 89 51 59 86 47 56 
80 48 55 74 50 57 72 48 54 70 46 53 69 45 51 69 44 51 70 46 52 72 47 54 
73 48 55 74 49 55 75 50 55 75 50 56 76 50 56 78 51 57 79 52 59 80 53 61 
81 54 61 82 55 63 82 55 63 82 55 63 82 53 62 81 53 61 80 52 60 79 51 60 
74 49 53 69 48 47 69 48 47 69 48 46 68 47 45 67 48 44 65 49 43 64 49 43 
63 49 43 62 49 42 61 49 43 60 49 44 62 52 46 64 54 49 66 56 53 76 64 62 
81 68 69 77 62 65 73 58 63 73 57 63 77 60 68 72 53 62 69 48 58 71 50 62 
77 66 68 79 75 70 73 68 65 57 52 48 47 42 37 48 42 39 51 45 41 54 47 43 
56 49 47 57 49 46 56 48 45 54 46 44 58 48 45 62 51 48 65 54 53 65 53 51 
64 52 49 64 50 49 63 49 48 63 49 47 63 48 48 62 47 46 62 46 45 60 44 45 
67 39 45 73 38 46 77 42 50 81 45 52 81 45 50 79 42 44 83 45 46 86 48 47 
87 50 47 85 48 43 83 46 39 80 44 37 80 44 37 85 50 42 91 60 51 85 54 48 
73 45 41 59 33 31 74 51 49 82 61 61 84 64 66 76 58 61 66 49 54 56 40 44 
59 39 39 64 41 41 69 45 46 71 43 45 73 42 46 75 43 48 80 47 53 87 53 59 
94 58 65 86 53 59 76 45 50 66 38 42 63 38 41 60 39 40 57 39 40 55 40 40 
54 41 39 53 41 38 55 43 40 57 44 41 58 44 42 57 41 39 55 39 37 55 38 38 
61 43 46 64 46 51 66 49 53 66 52 55 65 52 55 63 52 54 61 52 53 62 53 53 
63 53 52 62 51 51 61 48 47 60 45 45 62 45 46 65 46 47 68 48 48 70 50 50 
69 51 50 67 51 50 64 51 49 61 51 46 57 51 45 55 52 44 54 53 44 57 55 45 
67 58 45 67 57 47 69 58 52 75 64 63 79 67 69 77 65 69 67 57 61 62 52 54 
60 50 49 62 54 46 
38 24 32 42 28 39 55 47 47 58 52 49 52 46 45 27 22 22 19 13 14 20 14 16 
19 14 17 22 17 21 26 21 25 18 15 18 17 14 16 20 16 16 27 23 18 30 25 16 
30 25 13 30 25 10 33 28 12 37 30 15 32 23 15 36 25 18 41 29 22 41 27 24 
40 25 24 38 22 24 34 21 24 29 17 20 25 14 16 28 14 17 32 16 19 35 18 21 
37 19 21 39 20 22 42 21 21 43 21 19 50 27 24 56 33 30 59 36 30 55 33 26 
52 29 22 51 29 21 50 28 21 50 28 21 51 30 22 52 31 24 52 31 25 49 30 23 
49 29 23 49 26 23 52 19 21 52 16 20 52 15 20 52 15 20 53 15 23 55 16 27 
57 16 32 59 16 34 61 16 33 63 17 31 66 19 30 68 20 28 66 20 22 71 24 25 
73 25 26 70 22 23 65 19 18 62 17 16 63 19 17 64 18 19 63 17 21 60 15 21 
58 15 22 51 16 18 37 18 10 36 17 10 34 17 11 31 17 11 30 17 11 30 19 11 
30 21 11 31 22 11 33 23 12 36 24 12 38 24 14 39 21 15 40 19 15 42 18 17 
43 17 19 45 16 21 44 15 22 43 16 23 42 16 25 40 15 25 37 15 25 35 14 24 
34 14 25 30 14 21 25 15 14 27 15 15 29 16 16 30 18 18 29 18 18 30 19 18 
30 19 19 30 20 20 29 20 20 29 20 19 26 18 17 30 22 21 38 31 29 56 50 48 
52 47 45 39 35 32 26 22 20 22 18 15 20 17 15 18 15 13 19 16 14 19 18 15 
16 15 14 18 16 14 22 18 15 24 20 17 26 22 19 27 23 20 29 25 23 31 26 23 
32 26 24 33 26 24 33 27 25 33 27 25 34 26 25 32 24 23 30 22 21 29 21 20 
27 19 18 27 19 18 30 21 20 32 22 22 32 23 22 32 21 21 32 22 22 33 24 23 
36 25 24 44 26 26 52 28 29 58 33 34 63 37 39 65 39 41 63 36 38 60 32 34 
58 29 31 58 28 31 60 29 33 63 30 34 66 31 36 65 29 34 64 27 32 65 27 32 
65 25 31 64 24 30 63 21 28 62 19 26 62 19 26 64 20 27 67 22 29 69 24 32 
73 26 34 81 27 29 85 28 28 84 29 30 86 32 34 86 34 38 87 36 41 85 37 43 
81 36 44 75 34 43 68 30 40 61 26 37 55 23 35 45 18 29 39 16 26 37 15 25 
34 15 24 33 15 22 31 15 20 30 15 19 29 16 18 29 17 17 30 18 18 31 19 18 
32 20 19 34 20 15 36 20 13 36 20 13 37 21 14 38 23 14 39 24 14 39 24 15 
39 24 15 38 23 16 38 23 16 37 22 16 36 21 16 34 19 16 33 18 16 32 18 17 
32 18 17 32 19 18 32 20 19 32 20 19 32 20 19 32 20 19 32 20 20 32 20 20 
31 19 19 23 15 18 33 26 29 49 42 45 66 61 62 42 38 38 17 13 12 24 21 19 
21 19 16 17 17 14 22 21 18 22 21 18 20 19 16 16 14 12 16 14 12 19 16 14 
25 21 20 28 24 21 31 25 21 32 25 22 34 26 23 36 28 24 37 28 23 41 30 26 
41 30 28 32 22 26 33 20 29 33 19 29 31 15 26 31 16 25 32 17 25 32 17 25 
33 16 25 34 16 26 36 17 27 38 19 28 43 24 33 54 34 43 52 31 40 48 26 35 
45 21 29 54 30 38 61 37 45 64 41 49 61 37 46 58 34 42 55 30 37 54 29 37 
56 29 35 60 29 28 59 27 27 59 27 27 61 29 30 65 32 33 69 35 37 72 38 41 
66 31 34 63 27 31 62 24 29 62 24 29 67 28 35 75 36 44 73 33 41 70 29 38 
68 25 35 67 24 33 67 23 33 69 24 34 72 26 37 74 27 39 75 28 40 75 29 41 
65 28 38 48 26 33 46 23 30 42 19 27 39 16 23 38 14 21 37 14 20 37 14 20 
38 14 21 38 15 20 37 15 20 37 15 20 39 15 21 42 15 23 43 16 24 43 16 24 
43 16 25 44 17 25 44 17 26 44 17 26 45 16 25 44 16 24 44 16 24 44 15 24 
42 16 20 40 18 15 40 18 15 39 18 15 39 18 15 38 19 14 36 19 14 35 20 14 
34 19 14 32 19 14 31 19 14 29 18 14 27 16 14 27 17 16 36 26 25 52 42 42 
61 51 52 51 39 42 37 25 28 27 16 19 28 16 21 26 15 20 28 14 22 35 18 30 
28 20 24 23 22 20 25 24 22 22 21 17 20 19 15 21 19 17 23 21 18 25 22 19 
26 21 20 27 22 19 28 23 20 30 25 24 32 25 23 32 24 23 33 24 24 31 22 21 
30 19 19 28 17 18 29 18 18 31 20 20 34 21 23 34 22 22 35 22 23 37 24 26 
50 20 31 58 20 35 61 22 38 64 25 38 64 25 35 62 21 30 67 25 32 70 28 33 
73 30 33 72 29 30 71 28 29 70 27 28 69 26 27 67 25 26 64 23 25 64 26 28 
61 24 28 54 20 25 58 26 31 59 30 34 59 31 36 55 29 34 54 29 35 55 31 36 
58 35 34 59 36 34 61 36 34 63 33 34 65 33 35 68 33 36 72 34 38 71 33 37 
69 30 35 69 32 36 66 32 35 61 30 32 55 29 29 48 27 27 42 26 25 37 24 22 
34 22 19 33 21 18 35 23 20 37 24 22 41 26 24 42 26 25 42 24 23 42 22 23 
42 22 27 43 23 29 43 24 30 41 24 28 37 23 25 34 22 23 34 23 23 36 25 25 
38 27 26 40 28 27 40 26 26 39 22 23 35 15 16 35 14 16 37 15 17 39 16 19 
38 17 19 36 18 18 32 17 17 28 17 14 24 17 12 21 18 12 20 17 12 23 19 13 
32 23 13 33 23 14 37 26 19 48 36 35 53 40 44 50 38 44 37 24 32 30 18 22 
27 16 16 30 20 13 
30 17 21 36 22 29 54 46 42 58 52 46 51 44 40 20 13 12 10 3 4 11 4 7 
10 3 7 12 6 10 15 9 12 9 5 6 7 3 2 7 3 1 15 10 6 18 13 6 
18 13 4 19 14 2 22 16 2 24 17 3 23 14 6 25 14 7 26 14 8 25 11 9 
26 11 11 27 12 12 23 12 12 18 7 7 15 4 3 21 7 9 23 7 10 24 7 10 
27 8 12 32 12 16 35 13 16 32 9 10 37 13 13 43 19 17 48 23 19 45 21 16 
43 19 13 46 21 14 47 23 15 47 23 15 45 22 14 44 21 14 43 21 15 42 21 15 
41 20 15 42 17 13 48 14 8 47 11 7 46 9 6 47 8 6 51 12 12 57 16 18 
63 19 25 66 21 28 69 22 29 70 21 27 72 22 26 71 21 21 65 16 12 71 21 15 
76 26 18 80 30 20 78 29 19 77 28 19 75 26 18 73 24 18 69 20 16 65 16 14 
59 12 9 49 11 6 33 13 4 30 10 2 26 8 1 22 7 1 21 7 1 21 9 1 
21 12 1 23 13 1 24 13 1 26 12 2 29 12 4 31 12 7 34 10 10 35 9 12 
37 8 14 38 7 15 38 7 16 37 7 17 35 8 17 33 7 17 30 7 16 28 7 14 
26 7 15 24 8 12 21 8 8 21 8 8 22 8 8 23 9 9 22 10 9 22 9 9 
21 9 9 19 8 8 18 8 7 16 7 6 15 6 5 22 14 12 35 28 26 55 49 46 
50 44 42 33 29 26 18 14 11 13 10 6 12 10 6 9 6 3 7 5 2 6 5 1 
2 1 0 7 5 3 13 9 6 15 11 8 15 11 8 15 11 8 16 12 9 18 13 10 
20 14 12 22 15 13 24 17 15 25 18 16 25 17 16 22 14 13 20 12 11 21 13 11 
20 12 10 20 11 9 21 11 11 23 12 12 24 13 12 24 12 12 26 15 14 27 16 16 
27 15 15 37 16 17 47 18 20 52 22 24 57 27 29 60 29 31 58 27 29 56 23 26 
54 19 23 53 17 21 56 19 23 59 20 25 62 21 26 61 18 24 61 17 23 63 18 24 
65 18 25 66 18 25 65 16 23 64 14 21 64 13 21 66 14 22 69 16 24 72 18 27 
76 21 30 81 21 23 83 21 20 83 21 22 83 23 25 83 25 28 83 27 32 81 28 34 
77 28 35 72 27 36 65 24 33 59 21 31 52 18 30 39 9 20 31 4 15 29 5 15 
27 4 15 25 4 15 23 5 14 22 5 13 22 6 12 22 8 13 24 10 14 25 11 16 
26 11 16 29 11 8 31 12 5 31 12 5 32 13 4 31 14 3 31 15 3 31 15 3 
31 15 4 30 14 4 29 14 4 29 14 5 28 13 6 27 12 7 26 12 9 26 12 10 
25 12 11 25 12 11 25 13 11 24 12 11 23 12 10 22 11 8 21 10 7 21 9 6 
20 8 6 16 5 7 30 20 23 49 40 42 66 58 58 37 31 31 8 2 1 16 11 6 
13 8 4 8 4 1 11 7 3 9 5 2 7 3 1 9 3 1 8 2 1 11 3 2 
18 9 8 21 11 9 22 11 10 25 13 10 29 16 13 32 18 15 31 16 12 35 20 16 
33 18 16 19 5 9 21 5 13 24 6 15 24 5 14 25 6 14 26 7 14 25 6 14 
27 7 14 28 7 15 29 7 16 32 10 19 38 16 23 47 23 31 44 19 27 41 16 24 
41 14 21 46 19 26 50 24 30 53 25 33 53 24 32 51 23 30 50 21 27 46 17 24 
47 15 20 52 16 14 52 15 14 53 16 15 55 17 17 58 19 19 62 22 22 66 26 26 
63 21 22 60 17 19 59 15 17 61 16 18 65 19 22 71 24 29 70 23 28 70 21 27 
69 19 26 68 18 25 68 17 25 69 17 26 71 18 28 72 19 30 74 20 31 75 21 32 
59 20 28 36 18 21 33 15 18 30 12 14 26 8 10 25 6 8 24 5 7 25 6 8 
26 6 8 26 7 9 27 8 9 27 8 9 29 9 11 32 10 14 32 10 14 33 10 13 
33 10 13 33 10 14 33 10 14 33 10 13 34 10 13 34 10 13 34 10 12 35 10 13 
32 10 8 30 11 3 30 11 3 30 11 3 29 12 3 28 12 3 26 13 4 25 13 4 
23 12 4 21 12 3 19 11 2 18 11 3 14 8 2 14 9 4 26 21 16 46 42 37 
58 53 49 44 38 36 22 17 16 6 2 2 5 1 2 7 2 3 10 5 6 19 10 15 
9 6 7 3 5 1 7 8 4 9 10 4 10 11 4 11 11 6 11 11 6 12 11 6 
13 11 6 15 12 6 17 13 8 19 15 11 19 14 9 18 12 8 18 11 8 18 10 6 
17 8 5 17 7 5 18 8 5 20 9 6 23 11 9 23 12 9 24 13 10 26 14 13 
42 13 23 51 13 30 54 15 32 56 17 31 57 17 28 55 13 23 60 17 26 64 19 27 
66 19 25 66 20 25 66 19 24 64 17 22 64 18 23 63 16 23 60 14 21 62 18 26 
61 18 27 57 16 25 54 16 23 52 16 23 49 16 22 48 17 21 50 20 24 56 26 29 
55 30 28 55 31 28 56 29 27 57 26 26 59 24 25 63 24 27 69 28 31 68 27 30 
65 23 26 64 24 27 61 24 26 56 24 25 49 22 21 41 20 18 33 17 14 27 14 11 
23 12 8 21 11 7 22 12 8 25 13 10 27 13 11 29 14 12 30 13 12 32 12 13 
36 13 20 37 14 22 36 14 21 33 14 18 28 11 14 24 10 10 23 10 10 25 12 11 
28 15 13 30 15 14 30 14 14 30 11 13 30 8 10 31 7 11 32 7 12 32 8 13 
32 9 13 30 10 12 26 10 11 22 10 8 18 10 6 15 10 4 13 9 3 14 10 2 
21 12 2 23 12 3 28 17 11 44 32 33 50 38 44 47 35 44 30 18 27 22 10 16 
19 8 8 22 12 4 
28 15 17 34 21 24 62 53 47 70 63 54 62 54 48 25 17 15 14 6 7 17 8 12 
15 7 12 16 9 13 17 11 14 14 9 8 10 6 4 7 3 0 7 2 0 8 3 0 
10 5 1 13 7 1 19 12 2 26 18 6 33 23 14 31 20 14 26 13 10 20 6 5 
20 5 5 22 8 8 26 16 13 22 12 9 19 8 5 27 14 14 26 12 14 24 9 12 
28 10 16 35 15 21 39 17 23 31 8 12 35 11 13 40 15 16 43 18 16 44 19 16 
45 20 16 46 21 15 48 24 16 48 23 16 42 18 11 40 17 10 40 16 11 40 17 13 
36 13 10 38 12 6 49 17 4 48 14 3 47 12 3 50 13 3 61 22 14 72 31 25 
83 41 34 88 44 38 91 45 40 91 43 39 90 41 35 84 34 27 73 23 13 80 31 16 
90 41 23 104 55 33 110 61 39 111 62 41 107 57 40 99 49 35 91 41 28 82 32 21 
72 23 11 58 17 6 38 16 8 34 12 4 30 10 2 24 8 1 24 9 1 23 10 1 
22 11 1 24 13 2 25 13 2 26 11 2 28 11 5 33 12 11 40 15 19 42 14 21 
43 13 22 44 13 24 44 13 25 43 13 24 41 14 23 39 14 22 37 14 20 34 14 18 
33 14 18 33 16 18 33 18 18 32 17 17 32 17 17 31 17 17 30 16 16 28 15 15 
26 13 13 23 11 10 19 8 7 16 7 5 15 6 4 25 17 15 42 34 32 63 56 54 
56 51 47 37 33 29 20 16 13 16 13 9 17 14 10 12 10 5 9 7 3 6 5 1 
3 3 1 7 5 2 12 8 5 15 11 8 14 10 7 12 8 5 11 8 4 14 9 6 
17 11 8 18 12 9 23 16 13 26 18 16 22 14 12 19 10 9 17 9 7 23 14 12 
23 14 12 22 13 11 23 12 11 24 12 11 24 13 12 27 14 13 29 17 16 30 18 17 
26 13 12 34 11 11 43 11 13 46 15 16 51 19 20 54 21 22 53 19 21 53 17 20 
53 14 18 52 12 15 54 13 17 56 13 17 57 13 17 62 15 20 66 17 23 68 18 25 
73 20 28 75 21 29 75 20 28 75 19 27 75 18 26 75 18 26 78 19 28 82 21 31 
85 23 33 85 20 22 85 18 17 83 18 18 83 19 20 83 20 23 83 22 26 81 24 30 
78 25 32 75 25 34 68 24 32 63 22 31 57 21 31 45 12 22 39 8 19 37 9 20 
35 9 21 33 9 21 32 10 21 31 11 21 32 13 21 32 15 22 34 16 24 35 17 26 
36 17 27 41 19 16 43 20 12 43 20 10 42 20 8 41 20 7 39 20 6 38 19 5 
37 18 4 35 17 3 33 17 2 32 16 3 32 15 5 32 16 9 32 16 12 32 17 13 
32 16 14 31 17 15 30 17 14 28 16 13 27 14 11 25 13 8 23 11 5 22 9 2 
20 8 2 19 7 6 37 24 25 59 46 46 73 62 59 42 33 31 11 3 1 21 13 5 
17 10 3 12 4 1 12 4 1 10 2 0 9 2 0 13 3 0 14 3 1 17 4 2 
24 10 8 25 9 8 25 8 7 27 10 7 32 14 10 35 16 11 31 10 5 34 13 8 
34 14 11 28 7 11 27 7 11 27 7 12 27 7 11 27 6 10 27 6 9 27 5 9 
29 6 10 31 7 11 33 8 12 35 10 13 38 13 15 42 16 19 42 14 18 44 16 19 
50 21 23 49 20 22 47 17 19 44 13 15 43 11 13 44 12 14 48 16 17 46 13 16 
45 10 11 46 6 3 49 8 5 50 10 6 51 10 5 52 9 5 54 11 7 59 15 12 
59 14 10 58 12 8 57 9 6 60 12 9 62 12 10 62 12 10 66 14 14 70 17 18 
75 20 22 78 22 25 80 23 27 81 24 29 80 22 29 79 20 28 78 19 26 77 18 25 
58 18 21 32 20 15 30 17 12 27 14 9 24 11 6 22 10 5 23 10 5 24 12 7 
28 13 9 29 15 11 31 16 12 31 16 12 34 18 14 37 21 17 37 20 16 37 19 16 
37 19 16 37 19 16 37 19 15 37 19 14 38 19 14 38 20 14 38 20 14 39 20 14 
35 18 9 30 15 3 30 16 3 30 16 3 30 18 4 29 18 4 27 18 4 25 18 4 
24 18 4 21 17 3 19 16 2 18 16 2 14 14 2 15 16 5 27 29 16 49 51 39 
61 63 52 47 49 39 21 24 17 2 5 0 1 3 0 4 6 1 8 10 4 14 15 10 
9 11 5 4 7 1 6 8 1 9 10 1 10 12 1 10 10 1 9 9 1 9 9 1 
11 9 1 14 11 2 16 12 2 17 14 4 15 11 2 15 9 1 16 10 1 17 9 1 
18 10 2 19 11 3 20 10 2 20 10 2 22 11 4 24 13 5 25 14 6 24 12 5 
39 11 19 49 13 28 53 15 30 55 17 28 55 16 25 54 12 20 59 15 23 62 16 24 
63 15 22 67 18 24 66 16 24 62 12 20 64 14 24 66 16 26 67 17 29 68 20 31 
66 20 30 62 16 27 56 13 22 52 12 20 51 13 19 49 13 16 51 17 19 56 22 23 
51 25 22 51 26 22 52 24 21 50 19 17 52 17 16 56 17 18 67 26 27 71 28 30 
71 26 28 63 22 24 57 20 21 51 18 18 44 18 16 36 16 12 28 13 8 21 10 5 
17 8 2 14 7 2 16 8 4 17 7 3 17 5 2 17 4 3 19 4 4 24 5 7 
35 10 19 38 12 22 37 13 21 34 13 18 29 11 14 25 9 9 24 9 7 25 10 8 
26 11 9 27 11 9 27 9 9 29 8 10 36 13 16 38 14 19 39 13 20 39 13 20 
39 14 20 37 14 20 33 16 18 30 16 16 26 16 13 22 16 9 19 15 6 19 14 4 
23 15 2 24 14 4 31 21 16 51 40 43 60 48 57 56 45 56 36 25 35 27 17 22 
23 14 14 27 19 9 
14 4 5 19 9 9 55 47 39 68 60 51 61 54 46 22 15 13 10 3 5 14 6 10 
13 5 11 12 5 11 12 7 10 12 8 7 9 5 3 4 1 0 4 1 0 7 3 0 
11 6 1 11 6 1 17 11 3 24 16 7 30 20 14 27 15 12 21 9 8 21 7 8 
19 5 7 18 6 6 23 15 7 17 9 4 11 3 2 20 9 7 19 6 6 17 3 5 
20 3 9 28 9 16 33 12 19 26 4 10 34 11 16 41 16 20 36 10 12 38 12 12 
42 15 13 44 16 13 46 19 15 46 20 16 42 17 12 41 16 13 41 17 14 42 19 17 
32 11 9 27 4 2 32 5 1 32 5 1 34 5 1 42 9 2 59 24 16 75 38 29 
88 50 40 93 54 43 96 55 44 96 53 45 96 52 44 93 48 39 87 42 29 89 44 28 
97 52 31 111 66 40 120 76 49 122 77 53 116 70 51 106 60 44 97 51 36 89 42 27 
79 32 17 63 25 12 43 19 13 36 14 6 27 8 2 17 3 1 22 7 1 24 10 1 
23 10 1 25 12 2 27 13 4 29 13 7 31 13 11 33 11 13 35 9 15 37 8 18 
38 8 19 39 7 21 39 8 21 38 8 20 35 9 18 33 10 17 31 10 14 29 11 11 
28 11 11 28 12 12 29 13 14 28 12 12 27 11 11 27 12 11 27 13 12 26 12 12 
23 10 10 19 6 5 15 3 3 13 2 1 12 2 1 20 11 10 34 26 24 56 49 47 
49 43 40 28 24 21 12 8 6 9 6 4 11 9 5 6 4 2 3 2 1 3 2 1 
8 7 4 7 5 3 7 4 2 14 10 7 10 7 4 6 2 1 5 2 1 7 2 2 
8 3 2 8 3 2 17 11 9 23 15 13 17 9 7 13 5 3 12 4 3 19 9 7 
19 8 7 19 8 6 19 8 7 20 8 7 21 9 8 23 10 10 29 16 15 30 17 17 
22 9 8 36 14 14 48 19 20 48 18 19 46 15 16 46 13 15 48 15 16 50 15 17 
53 15 18 56 17 21 53 13 17 52 10 14 54 10 14 55 9 14 58 9 15 62 12 18 
67 14 21 70 15 23 72 16 23 72 14 22 72 13 22 73 13 21 75 14 23 77 16 24 
80 17 26 86 17 21 88 18 18 87 17 18 85 17 19 83 18 20 82 18 22 79 19 24 
76 20 25 72 20 26 66 19 25 60 18 24 56 16 23 45 10 17 39 7 15 37 7 16 
35 7 17 34 8 17 33 8 17 32 8 18 33 9 19 33 10 20 34 11 21 35 12 22 
36 12 23 42 15 16 44 17 13 44 17 12 43 17 10 42 17 8 41 16 6 39 15 3 
38 14 3 36 14 3 35 14 2 34 13 3 34 13 6 33 13 9 33 13 12 33 14 14 
31 14 15 31 14 15 30 14 15 28 13 12 26 10 9 23 8 6 21 6 2 19 4 1 
17 3 1 13 2 2 32 21 21 54 43 43 65 56 53 37 29 27 9 2 0 17 10 2 
14 8 1 10 4 0 8 2 0 12 5 1 15 6 1 13 3 0 15 4 2 19 7 4 
25 10 9 23 8 8 23 6 6 27 9 9 34 15 15 38 17 16 32 11 9 34 13 9 
34 13 10 25 8 7 19 4 5 16 2 3 16 2 3 18 2 3 20 2 3 20 2 2 
19 2 3 19 2 3 21 3 3 31 9 9 39 15 13 42 17 16 36 11 9 35 9 8 
42 15 13 41 14 12 41 13 11 41 13 10 37 8 6 42 12 11 57 27 24 48 17 14 
44 11 8 47 12 7 52 17 13 51 15 12 42 5 2 43 4 2 43 5 3 43 6 4 
47 7 4 51 8 4 53 9 4 54 9 4 53 8 4 50 6 4 54 7 5 59 10 8 
65 14 13 70 18 18 74 20 22 75 21 24 73 18 23 70 15 20 65 11 16 63 9 13 
48 12 11 30 18 11 28 15 8 25 13 6 22 11 3 23 10 3 23 10 4 25 11 5 
28 13 8 30 15 9 31 16 11 32 16 11 32 16 11 32 15 10 33 15 10 33 15 10 
33 15 10 34 14 10 34 14 9 34 14 9 34 15 8 34 15 8 35 15 8 36 15 8 
33 14 5 30 13 2 30 14 4 30 15 4 30 16 4 29 16 5 27 16 4 24 15 3 
22 14 2 19 13 2 16 12 1 15 12 1 14 13 2 15 16 4 22 24 11 42 44 31 
54 57 44 42 45 33 20 23 14 4 8 1 6 10 1 7 11 1 7 12 2 5 9 3 
5 8 2 5 7 1 6 7 1 10 11 1 11 11 1 5 4 0 4 3 0 5 3 0 
7 5 0 8 4 1 12 7 2 23 17 8 23 16 7 22 14 5 21 11 3 19 9 2 
17 7 1 18 7 1 18 7 1 21 9 3 28 15 8 37 24 17 39 26 19 33 18 11 
39 13 17 45 13 22 51 17 26 53 18 25 54 18 23 54 15 19 56 15 19 59 15 19 
61 16 20 78 30 36 77 27 35 60 10 18 61 11 21 63 12 24 64 14 27 64 15 28 
62 14 26 58 11 23 55 11 20 55 14 20 57 17 21 51 13 15 49 13 13 51 16 14 
47 21 15 45 21 15 44 17 12 40 9 7 38 6 5 40 7 7 61 19 19 67 22 22 
64 20 20 60 18 18 49 13 13 38 8 6 40 15 11 36 16 12 28 15 9 18 9 3 
15 9 3 17 12 5 18 13 8 16 10 5 13 5 1 11 2 1 12 1 1 16 2 4 
29 4 14 35 8 18 36 11 19 35 13 19 34 13 17 32 14 14 31 15 14 32 16 14 
33 17 14 34 15 14 33 12 13 33 10 12 34 10 13 35 9 15 35 8 16 35 8 16 
35 8 17 34 9 17 30 11 15 27 12 13 23 12 10 19 11 5 16 10 3 15 9 2 
17 10 1 16 8 2 24 15 13 46 37 42 57 47 58 54 44 57 32 22 34 23 14 21 
20 12 12 24 19 8 
13 3 0 16 7 4 53 45 36 67 59 49 62 54 47 20 15 12 9 3 5 14 6 12 
12 5 11 10 4 10 9 5 8 12 8 7 8 5 4 9 6 5 41 38 34 50 46 40 
43 39 32 18 14 8 14 9 3 19 12 7 24 15 13 22 11 12 22 10 13 36 24 29 
51 38 43 57 46 48 38 32 21 20 15 7 9 3 2 20 12 7 22 11 8 21 8 9 
23 7 13 29 10 19 33 12 22 29 8 17 49 25 34 70 44 53 80 53 60 61 34 38 
43 16 17 40 13 13 41 14 13 42 15 13 38 13 11 42 17 15 54 30 29 81 58 58 
80 58 60 79 58 57 84 65 56 80 61 52 75 54 48 73 48 43 79 51 46 83 54 47 
84 55 44 86 55 44 88 55 45 89 54 49 96 59 55 106 68 62 120 82 73 109 70 56 
101 62 43 100 63 37 105 67 42 104 66 44 98 58 45 96 56 45 98 57 47 102 62 49 
99 60 46 96 62 51 93 69 65 81 59 55 66 47 43 48 33 31 41 26 20 34 19 12 
27 14 6 26 12 5 27 12 6 29 13 10 32 13 14 34 12 17 36 10 20 38 10 22 
40 10 24 40 10 25 41 10 25 40 11 23 37 12 20 35 13 18 33 14 15 31 15 11 
30 15 11 30 14 12 31 14 15 29 12 12 28 12 12 28 13 13 30 15 15 30 15 15 
28 14 14 23 10 10 20 8 7 18 7 6 18 8 7 24 15 14 35 27 25 58 50 48 
50 44 41 29 25 22 13 9 7 11 8 5 13 10 6 6 3 1 6 4 3 11 10 8 
25 24 20 35 33 30 46 42 40 62 58 54 62 58 55 60 56 54 65 61 59 64 59 58 
58 53 51 44 39 38 41 35 33 37 29 27 23 15 13 15 7 5 13 4 3 17 6 5 
17 5 4 16 5 4 18 6 5 19 6 6 20 7 7 23 10 9 44 30 30 61 47 47 
64 50 50 64 45 43 61 37 35 52 28 26 43 17 16 40 13 12 47 18 18 53 22 22 
66 32 33 88 53 55 82 45 47 77 38 41 78 37 40 65 21 25 59 13 17 63 15 20 
67 17 22 71 18 24 74 18 25 74 18 25 75 18 25 77 17 25 78 18 26 80 19 27 
82 19 28 91 21 25 96 22 24 94 21 24 91 21 23 88 20 23 85 20 23 82 21 24 
78 20 24 73 20 24 67 19 23 61 17 21 56 15 19 46 9 14 41 6 11 38 7 12 
37 7 13 37 8 14 36 8 15 35 8 16 35 8 17 35 8 17 36 8 17 36 8 18 
37 8 19 44 12 18 46 13 18 46 13 17 45 14 14 45 14 12 44 14 11 43 14 10 
42 14 10 42 14 10 41 15 11 41 15 12 40 15 14 38 13 15 37 12 18 36 13 20 
36 14 22 36 14 22 35 14 22 32 13 19 30 11 16 27 8 12 24 6 8 22 3 5 
19 2 4 10 2 5 29 23 25 52 45 47 60 54 53 35 30 28 9 6 3 14 11 3 
13 10 2 10 8 1 9 6 1 20 17 11 37 32 26 56 50 48 50 42 42 40 31 32 
36 25 28 27 15 20 22 8 14 25 10 15 33 17 21 37 19 23 29 11 14 31 12 13 
33 15 14 31 20 15 48 40 34 60 53 48 58 50 46 35 26 21 19 8 3 17 6 1 
40 30 24 58 48 42 65 54 48 55 41 34 47 30 23 44 26 19 33 15 8 30 10 3 
35 15 7 36 15 8 41 19 12 52 30 22 66 44 36 80 57 50 92 69 61 52 28 24 
39 15 12 57 33 30 77 53 49 78 53 50 59 33 30 52 26 23 44 18 14 34 8 4 
43 14 10 50 18 13 55 20 15 66 31 26 75 39 35 80 44 41 74 36 34 68 28 26 
62 20 19 59 16 16 58 14 16 58 14 17 58 13 17 57 11 16 55 9 14 53 9 13 
45 12 13 35 18 14 34 15 13 31 13 10 29 11 7 29 10 7 29 10 8 30 11 9 
33 13 11 35 14 12 36 15 13 37 14 13 37 14 14 38 14 14 39 14 14 40 14 14 
40 15 14 41 15 14 41 15 13 41 15 13 41 15 12 41 15 11 41 14 11 41 14 11 
39 14 11 37 13 11 37 14 12 37 15 12 37 15 12 36 15 13 34 15 13 31 15 11 
27 13 9 24 11 8 21 10 7 19 9 6 19 12 6 20 15 8 23 20 12 42 40 32 
55 54 45 44 44 34 22 23 15 7 9 1 12 13 3 13 14 3 11 12 3 4 5 1 
11 11 6 18 17 12 21 20 15 30 29 22 40 38 31 49 46 43 58 55 53 64 60 58 
65 60 58 55 49 47 47 39 37 44 36 30 37 28 22 32 21 16 29 17 12 22 9 6 
18 5 2 18 4 1 18 3 1 23 8 5 34 17 14 64 48 44 75 59 55 64 46 43 
46 23 24 40 14 16 47 20 20 50 21 21 52 21 20 54 20 19 55 19 17 55 16 15 
55 14 13 98 54 57 105 59 64 80 33 40 65 17 26 61 12 23 65 16 29 63 15 28 
58 12 23 52 8 18 72 30 37 86 45 51 92 54 56 62 26 24 49 14 10 46 13 7 
41 16 8 53 30 22 75 49 43 83 52 48 75 42 39 60 25 24 67 25 23 67 22 20 
64 19 19 67 25 24 69 32 30 71 41 38 80 57 52 68 51 45 46 35 27 28 21 14 
26 23 15 34 32 24 47 45 39 55 51 46 60 54 50 63 55 54 68 59 58 67 54 55 
44 19 29 40 12 23 42 14 24 40 16 22 37 16 19 35 16 16 35 16 15 36 18 16 
37 20 17 38 18 18 38 16 17 38 13 17 38 12 17 38 11 18 38 10 19 38 10 20 
37 10 20 36 12 20 34 14 19 31 15 17 28 15 13 23 14 8 19 13 6 17 11 3 
16 10 1 13 6 1 20 12 12 43 35 42 55 46 59 53 43 60 30 21 36 21 13 23 
20 13 15 25 22 11 
19 8 1 19 9 4 52 45 35 66 59 49 62 56 48 20 15 13 9 3 6 15 7 15 
12 6 13 9 4 11 7 4 8 12 8 9 8 6 5 15 13 12 91 89 81 108 106 95 
88 85 75 28 24 18 11 7 2 14 8 6 17 9 11 17 8 12 24 14 20 59 49 57 
95 84 92 111 101 105 61 58 43 27 24 14 10 5 2 23 17 9 28 19 14 30 18 18 
30 14 20 31 14 23 34 14 26 36 14 27 70 45 59 109 83 96 142 116 126 94 67 74 
45 19 23 38 12 14 37 11 12 36 11 11 34 9 9 43 18 19 71 47 49 132 108 112 
146 122 128 152 132 131 159 147 126 149 137 118 136 122 109 121 103 100 108 88 88 94 74 72 
79 57 50 75 53 45 75 51 45 78 51 51 94 64 66 119 88 89 157 126 124 129 98 89 
102 71 56 82 53 31 79 49 28 76 45 29 72 40 33 81 49 45 96 64 60 117 85 77 
126 94 85 138 110 103 155 132 131 139 118 117 119 99 97 94 77 72 69 53 48 50 35 29 
36 22 16 30 15 11 27 12 10 29 12 13 32 12 17 36 13 22 41 14 27 42 13 29 
44 13 30 44 14 31 45 15 30 44 16 28 42 18 25 40 19 22 38 20 18 36 21 15 
35 21 14 35 20 16 35 17 18 32 14 15 31 14 15 32 16 17 36 19 20 36 21 21 
35 21 20 30 16 16 27 14 14 25 14 13 26 16 15 31 22 20 40 32 30 64 56 54 
56 49 47 34 30 27 18 14 11 15 12 8 16 13 9 7 5 2 11 9 6 23 22 17 
46 45 41 73 71 67 101 97 94 125 121 117 131 126 123 135 128 126 145 139 136 141 135 132 
127 121 118 97 91 88 78 71 68 60 52 50 34 26 24 23 14 12 17 8 6 18 7 5 
16 5 3 16 4 3 19 6 6 20 6 6 20 7 7 23 10 10 64 51 50 103 89 88 
124 109 109 101 85 82 76 58 52 58 40 35 42 23 18 37 16 13 51 28 25 62 36 34 
85 57 55 128 98 97 120 88 88 112 77 78 110 73 74 80 39 42 63 20 23 66 21 24 
70 22 26 73 23 28 76 23 29 78 24 30 80 24 31 82 24 32 84 25 32 85 25 33 
85 26 33 97 26 31 102 26 30 100 25 30 97 25 29 94 24 28 90 24 26 87 24 27 
82 24 26 76 22 25 70 20 23 64 18 20 58 16 18 48 10 11 43 7 8 41 8 9 
41 9 11 41 9 13 40 9 14 40 9 14 39 8 15 39 8 15 39 6 15 39 6 14 
40 6 15 46 8 22 48 9 24 48 10 22 48 10 20 48 11 19 47 12 19 47 13 18 
48 14 19 49 16 20 49 18 21 48 18 23 48 17 24 43 13 24 41 12 25 41 13 28 
41 14 31 41 15 32 41 15 31 38 14 29 36 12 25 33 10 22 30 7 16 27 5 12 
23 3 10 9 4 12 28 26 34 51 49 55 56 54 56 33 32 31 10 11 6 13 14 6 
13 15 4 11 13 2 10 12 2 32 33 25 65 66 60 113 113 111 96 94 95 68 64 69 
51 46 54 33 26 36 21 12 23 22 12 21 30 18 28 33 21 29 25 11 19 27 12 18 
32 20 21 39 37 26 90 89 77 124 123 111 119 117 106 61 58 48 19 17 6 14 12 2 
72 69 56 117 112 99 131 127 112 91 85 70 59 51 38 46 38 25 33 23 11 27 16 3 
30 18 4 34 20 7 45 31 18 66 52 39 107 92 79 131 117 103 136 121 106 57 43 37 
34 21 19 72 62 59 108 98 95 113 103 100 87 76 71 71 59 53 52 38 32 31 16 9 
45 28 22 54 35 29 61 40 33 88 66 60 110 86 80 124 98 93 106 79 76 86 58 56 
64 34 33 50 19 20 43 11 13 41 8 12 44 11 16 46 13 18 47 13 19 46 12 19 
45 14 19 43 18 20 42 16 19 40 13 16 37 12 13 36 10 13 37 10 14 38 10 14 
40 11 16 41 12 17 42 13 17 42 12 17 45 13 19 48 16 21 49 15 21 50 16 22 
50 16 22 51 17 22 51 18 21 51 18 20 51 17 19 51 16 18 50 15 18 50 15 18 
49 15 20 48 14 22 48 14 23 47 15 23 47 16 23 46 16 24 44 16 23 40 15 22 
36 12 19 31 11 16 28 9 14 26 8 13 25 10 13 26 13 14 27 17 16 47 38 37 
61 53 51 50 44 39 27 22 17 11 7 2 16 13 6 18 15 6 15 12 4 6 2 1 
21 17 15 36 32 28 43 39 36 59 55 52 81 76 73 109 103 100 130 123 121 142 134 132 
141 132 131 119 110 108 95 85 84 74 62 61 55 42 42 43 29 29 38 23 23 27 11 12 
20 3 4 20 2 3 20 2 4 27 8 9 40 20 21 96 76 78 119 99 101 104 82 85 
56 37 34 35 16 9 42 23 15 46 24 16 50 26 17 53 26 17 53 23 15 49 17 11 
45 9 5 120 81 80 140 99 100 111 69 72 71 27 34 58 13 23 66 20 32 64 18 30 
55 12 22 45 7 13 97 58 62 128 90 93 137 102 102 76 43 38 48 16 8 41 11 2 
33 11 2 65 44 35 120 95 87 145 114 107 129 93 88 92 51 49 78 34 31 69 24 21 
66 21 20 78 36 34 97 60 56 118 88 82 136 114 107 111 96 88 69 59 51 43 39 29 
42 41 31 57 57 48 88 88 80 108 107 100 123 119 114 132 125 123 141 132 131 133 121 123 
70 43 55 53 23 36 52 23 34 47 22 29 42 19 23 37 16 17 35 16 14 37 17 15 
39 19 17 41 20 19 41 18 20 42 16 21 43 16 23 43 15 24 43 14 24 43 14 25 
42 15 26 41 16 26 40 19 25 38 21 23 34 21 19 29 19 14 25 18 10 22 16 6 
17 13 2 12 7 1 18 12 12 42 34 43 55 46 61 53 44 62 28 21 39 21 15 26 
21 16 19 28 27 16 
19 8 1 21 11 4 52 45 34 66 59 49 63 56 50 20 15 13 10 4 7 16 8 16 
12 6 14 7 3 11 5 2 6 9 7 7 6 5 4 16 16 14 101 100 91 124 122 111 
104 102 92 31 27 22 11 6 3 14 7 7 15 8 11 12 5 9 20 13 18 73 64 72 
108 98 107 119 110 114 71 69 53 32 30 19 8 5 1 20 15 6 27 19 13 29 19 19 
26 11 17 23 7 15 23 5 15 30 7 21 75 50 65 123 97 110 150 124 135 93 66 75 
41 14 20 39 13 16 37 11 13 37 11 12 37 12 14 48 23 27 79 54 58 139 115 121 
149 125 132 148 128 129 143 135 116 138 130 113 132 123 112 126 113 113 120 105 108 108 91 93 
86 69 63 76 58 52 72 51 48 73 50 52 90 64 70 117 90 96 156 129 130 123 96 91 
93 66 54 73 47 27 74 48 29 77 49 36 78 49 46 89 60 61 106 77 77 127 98 95 
136 108 101 142 116 111 145 122 124 135 113 115 120 101 101 102 86 82 86 71 67 69 55 50 
50 38 33 40 26 22 33 18 17 31 14 17 33 13 20 35 12 23 37 10 26 38 10 27 
40 10 29 42 11 30 41 12 28 41 14 26 40 16 23 38 17 19 36 18 15 33 19 12 
32 20 10 34 19 14 36 18 19 32 15 16 31 14 15 31 15 15 34 18 18 34 18 18 
31 16 16 25 11 10 21 8 7 18 6 5 20 9 7 25 16 14 36 28 26 61 53 51 
53 46 44 31 27 23 14 10 7 9 6 2 8 6 3 4 2 1 8 7 4 21 20 16 
52 52 47 86 84 80 115 111 108 127 123 119 133 128 124 137 131 128 140 134 131 135 129 126 
124 118 115 105 98 95 93 86 83 77 69 67 48 39 37 33 24 22 25 16 14 25 14 12 
21 9 8 18 6 5 20 7 7 21 8 7 20 7 7 17 4 3 71 57 57 120 106 106 
142 128 127 111 97 93 81 66 60 67 51 45 47 31 25 43 26 21 67 47 43 79 57 54 
98 73 71 128 102 100 121 92 91 110 77 77 97 63 64 72 33 35 58 17 19 60 17 19 
62 17 20 65 17 21 68 18 23 71 19 24 74 19 25 77 20 26 78 21 27 79 21 28 
79 21 28 90 20 25 95 20 23 94 20 23 92 20 23 90 21 24 88 22 25 86 23 25 
83 23 25 79 23 25 72 21 22 66 20 20 61 18 18 50 11 12 45 8 9 45 9 10 
45 11 12 45 12 14 45 12 16 45 12 16 44 12 16 44 11 17 43 9 16 43 8 16 
43 8 16 48 8 25 50 8 28 50 9 27 49 8 24 49 8 22 49 9 20 48 10 19 
48 11 19 48 12 20 47 13 21 47 14 24 46 13 26 40 8 24 38 7 25 39 8 29 
40 10 31 40 12 33 41 12 34 38 12 31 36 10 28 33 7 23 30 5 18 28 3 13 
22 2 11 7 4 14 26 27 36 49 50 57 50 52 55 30 33 33 10 13 10 8 12 5 
7 12 3 7 12 2 8 13 4 37 41 35 76 79 76 119 122 121 105 105 109 78 77 84 
55 53 63 31 26 39 14 8 21 12 5 18 21 12 24 27 17 28 22 11 21 24 13 22 
29 21 24 36 39 26 92 96 81 130 133 118 123 125 111 56 58 47 8 10 2 4 6 1 
72 72 61 125 125 108 144 144 126 101 99 82 66 62 46 50 46 30 36 30 15 28 21 5 
28 21 4 33 26 9 43 34 18 58 48 32 101 91 75 130 120 104 144 132 115 61 50 41 
36 28 24 76 73 71 106 103 101 113 110 107 97 94 89 78 73 68 56 49 44 32 24 17 
47 37 30 59 47 41 71 58 50 108 93 86 122 106 99 116 98 93 101 81 77 84 63 61 
67 45 43 60 37 38 58 34 36 61 35 38 61 35 39 57 30 36 50 22 29 42 14 21 
39 10 16 39 8 13 38 6 12 36 5 11 35 5 9 34 4 9 36 5 11 38 6 14 
40 7 15 42 8 16 43 9 17 44 8 17 45 9 18 47 11 19 48 11 20 50 12 20 
52 13 20 53 14 21 53 14 20 53 14 19 52 13 18 51 12 17 51 11 16 50 10 15 
50 11 20 49 11 26 50 12 26 49 13 27 48 13 27 47 13 27 45 12 25 42 11 23 
37 8 21 33 6 18 29 5 16 26 4 14 24 4 12 24 7 12 29 15 19 52 40 41 
67 56 56 55 45 43 28 20 19 8 2 1 10 3 2 13 7 2 13 7 2 6 1 0 
26 21 20 46 40 39 56 50 49 76 69 68 95 88 87 111 103 103 124 115 116 131 122 123 
130 119 121 118 107 108 107 95 96 99 85 88 69 55 57 48 33 35 42 25 28 33 16 19 
27 9 12 26 6 10 29 8 12 36 15 19 49 27 32 115 92 98 141 118 124 120 97 102 
58 40 37 28 14 4 35 20 8 41 23 11 45 24 12 46 23 11 45 19 7 39 12 4 
32 5 3 125 91 89 155 116 116 127 85 89 73 31 37 53 10 18 60 16 27 60 17 28 
50 12 19 38 7 7 104 68 70 142 106 106 150 117 115 74 42 36 41 10 3 37 7 2 
28 5 1 63 41 36 122 97 88 146 116 108 123 88 83 79 39 35 71 27 23 64 20 16 
62 18 15 76 35 31 90 54 49 107 76 71 135 114 105 110 96 86 64 55 46 46 43 32 
48 49 38 66 68 58 104 106 96 119 119 112 123 121 116 125 119 116 126 119 117 120 109 110 
91 64 76 80 50 63 73 45 56 62 36 43 49 25 30 39 16 18 32 12 10 32 12 10 
34 13 12 36 15 14 38 15 16 40 14 18 41 12 19 41 11 20 40 10 21 39 10 21 
39 11 22 38 13 22 37 16 21 35 17 20 32 18 17 26 17 12 22 15 7 19 14 4 
18 15 2 12 9 1 17 12 12 40 34 43 53 46 61 51 44 63 27 20 39 21 15 28 
22 18 22 31 30 21 
18 9 5 20 11 7 51 46 42 63 58 56 58 53 52 21 17 18 10 5 9 12 6 13 
10 5 11 8 4 10 8 4 8 12 8 8 9 6 5 18 15 14 103 99 93 129 125 118 
114 110 103 40 35 29 20 14 10 22 15 13 13 7 8 12 5 6 24 18 16 76 69 69 
113 105 105 125 117 116 73 67 58 34 28 22 10 4 3 17 11 6 21 14 10 22 14 12 
19 9 10 21 11 12 28 16 18 40 25 29 80 61 66 121 100 105 149 126 129 98 74 76 
51 26 27 49 23 24 43 17 17 37 12 12 33 8 10 44 21 22 76 54 55 143 122 123 
143 123 125 130 116 112 114 114 95 111 112 94 113 110 97 118 111 105 122 112 108 117 104 100 
96 81 74 86 70 62 73 56 50 53 35 32 77 58 57 110 92 91 152 136 131 108 92 83 
76 61 48 68 54 37 70 55 38 79 61 48 96 74 68 118 93 91 129 102 101 129 99 96 
132 100 96 128 96 94 117 86 89 125 96 98 125 99 99 117 95 92 121 101 98 106 89 84 
73 60 54 54 40 35 39 26 22 29 15 14 27 11 13 29 10 14 33 11 17 35 12 19 
37 11 20 38 10 20 38 11 19 39 13 19 40 15 20 39 15 17 36 15 14 33 15 12 
35 18 13 38 18 16 40 18 20 38 16 18 36 15 16 36 16 16 36 17 17 34 16 16 
31 14 14 25 9 9 20 6 6 17 5 4 16 6 4 23 14 13 36 29 27 60 53 51 
51 45 43 29 24 22 13 9 7 9 5 3 8 5 3 6 2 2 7 4 3 17 15 13 
55 53 50 87 84 79 114 110 103 134 129 123 128 123 117 118 111 106 114 107 103 112 105 102 
111 104 102 113 106 105 115 107 106 106 98 98 76 67 67 57 48 49 42 34 34 29 20 20 
22 13 12 20 10 8 22 12 11 23 13 11 21 11 8 16 6 3 70 60 55 119 109 104 
142 131 126 105 98 89 73 69 56 67 62 50 49 44 32 53 47 34 93 84 73 103 91 81 
108 94 84 111 93 85 99 75 69 85 56 52 70 36 35 64 24 24 63 18 18 66 17 18 
69 17 19 73 18 21 76 18 22 77 18 22 78 19 23 79 19 23 79 19 23 79 19 23 
79 19 23 87 17 26 91 17 27 90 17 27 88 18 27 87 19 27 86 21 27 83 22 26 
80 22 25 76 21 23 70 19 18 64 17 15 60 15 12 53 11 8 48 8 6 45 7 7 
46 10 8 46 10 9 45 10 10 48 15 11 47 14 11 43 11 11 44 13 11 44 13 10 
43 12 11 49 10 16 51 9 18 51 10 18 49 11 18 49 12 17 49 12 17 47 13 17 
46 13 18 46 13 18 44 12 17 44 12 19 44 11 22 41 9 21 41 9 22 42 9 25 
42 12 27 42 13 29 42 14 29 38 13 26 34 12 23 30 10 19 25 7 13 22 5 9 
16 4 7 6 4 8 25 26 30 49 50 53 55 55 56 32 32 32 7 8 7 8 10 5 
7 9 3 6 8 2 7 8 3 40 41 36 82 82 79 125 124 122 108 107 106 80 77 79 
57 53 57 31 26 31 13 6 12 10 4 9 17 10 15 23 14 18 21 11 15 25 15 18 
31 24 23 40 42 32 91 94 82 128 131 119 132 134 121 56 58 50 3 5 0 2 2 0 
71 71 62 125 125 111 145 144 129 122 120 105 95 92 78 68 65 50 41 37 22 27 23 8 
31 27 12 34 29 15 42 38 23 57 52 37 95 90 75 125 120 105 146 141 126 58 53 45 
33 28 22 77 73 67 117 113 108 123 119 113 94 90 83 76 72 66 56 51 45 34 29 22 
59 54 47 81 75 69 100 94 88 114 107 101 112 105 98 95 88 82 81 72 68 73 64 60 
71 63 58 74 65 62 81 71 68 89 78 74 79 67 64 67 55 53 56 42 40 40 27 25 
31 14 14 27 2 6 27 2 6 26 1 5 25 2 4 30 7 6 32 9 8 33 9 11 
34 11 14 35 11 16 36 11 16 35 10 15 37 10 16 39 12 18 41 12 20 44 13 20 
47 15 20 49 14 20 50 14 19 51 14 17 51 13 16 51 12 14 52 11 13 51 9 11 
50 8 17 50 8 24 51 10 25 51 11 26 50 13 26 48 13 26 45 12 23 40 10 21 
35 9 18 31 7 15 27 6 13 24 6 12 19 4 8 18 6 8 28 18 19 51 42 42 
63 56 54 49 43 40 25 20 18 7 3 1 8 4 2 10 5 2 9 5 1 6 1 0 
34 27 24 62 52 48 79 69 65 103 94 90 120 111 107 120 112 108 109 102 99 95 89 85 
78 72 69 90 84 81 105 99 97 120 113 111 88 82 80 61 55 52 46 39 35 28 19 19 
22 12 12 33 22 18 38 26 21 46 33 27 59 44 39 119 104 97 141 125 118 118 101 95 
70 51 47 43 21 18 37 14 9 41 18 12 47 23 16 55 28 23 46 19 12 37 11 5 
31 6 5 124 95 91 151 119 116 119 85 85 73 39 39 51 17 17 49 14 16 46 12 16 
39 7 11 34 7 6 101 70 70 139 107 106 147 116 114 70 40 36 39 10 5 37 9 5 
23 3 2 60 43 39 125 104 97 142 118 112 114 88 83 66 36 32 60 28 24 51 19 15 
46 14 10 70 40 36 85 58 53 100 76 71 138 120 112 114 101 92 67 56 48 48 43 33 
67 64 54 100 98 88 121 119 109 117 115 106 101 98 91 80 75 70 84 78 73 99 91 87 
117 99 104 115 94 101 101 80 85 71 51 54 52 31 33 39 18 18 34 13 11 35 13 11 
38 14 12 41 16 14 42 14 15 42 12 15 42 11 15 42 10 16 41 10 17 41 10 17 
41 11 19 40 13 20 38 15 20 36 15 19 32 14 16 26 12 12 21 9 8 19 10 6 
18 16 7 11 9 4 15 12 11 38 35 39 53 48 56 50 46 56 23 19 29 22 19 25 
26 23 25 30 30 24 
17 10 10 16 10 11 50 47 52 60 58 64 51 49 55 22 19 24 10 6 11 7 3 9 
8 3 7 10 4 8 14 7 10 16 9 10 12 6 6 21 14 14 101 93 92 130 122 120 
122 114 112 54 47 41 37 29 23 35 28 22 14 8 6 16 9 4 33 27 18 76 71 60 
115 111 99 130 124 115 72 61 61 37 24 27 16 4 6 16 7 7 15 8 6 14 8 5 
11 8 2 23 21 13 41 37 29 63 56 46 89 79 70 118 103 96 146 128 121 109 88 81 
71 48 42 66 41 37 53 28 24 39 14 11 27 5 3 37 17 14 71 54 48 144 129 123 
135 121 114 110 103 93 83 92 73 79 88 68 84 89 71 100 99 83 116 112 97 122 113 100 
110 96 85 104 89 79 81 66 55 31 17 6 62 50 38 102 94 81 146 141 127 93 91 75 
61 60 44 66 66 50 68 64 49 83 75 62 116 102 91 151 131 122 154 127 120 121 88 84 
118 81 77 107 68 66 88 48 49 111 75 75 124 91 90 125 97 95 154 129 126 144 124 119 
100 84 78 71 59 51 48 37 28 28 18 9 20 9 4 21 8 3 29 13 8 34 15 10 
35 14 11 35 10 9 35 10 9 38 12 13 42 16 18 40 14 16 37 12 14 35 11 13 
40 16 19 43 18 20 46 17 20 44 18 20 43 18 19 42 18 18 39 17 17 36 15 16 
32 13 14 27 10 11 23 8 8 18 6 5 15 5 4 23 15 13 39 31 29 61 55 53 
51 45 44 28 23 23 15 10 10 11 6 6 11 6 6 8 4 4 6 2 2 13 10 10 
56 52 52 83 77 72 106 100 90 140 134 125 121 114 105 90 83 75 78 71 66 79 72 68 
90 82 80 115 108 108 131 123 123 132 124 125 106 98 101 85 77 80 62 54 57 30 23 26 
21 14 14 20 13 11 24 18 15 23 17 13 21 15 9 16 11 4 65 60 51 111 106 95 
134 129 119 93 96 79 61 70 48 65 73 52 55 62 41 66 72 52 118 120 101 124 124 106 
114 110 93 86 75 61 70 51 40 56 29 21 43 7 4 59 16 13 72 21 20 78 20 20 
83 20 22 87 21 23 89 21 24 89 21 23 87 20 22 85 19 22 84 19 21 82 19 20 
81 18 19 86 16 30 88 16 35 87 17 34 85 17 33 84 18 32 82 20 31 79 20 28 
75 20 24 70 18 20 65 16 14 61 13 8 56 10 3 58 13 6 55 13 7 51 10 7 
55 15 9 55 15 10 53 14 9 58 23 10 54 21 8 43 13 4 45 18 4 45 20 4 
44 18 3 49 13 4 51 12 5 51 13 7 49 15 8 48 16 10 47 16 13 47 18 15 
45 17 15 43 15 15 41 13 13 41 12 14 41 11 16 44 13 17 46 13 19 47 14 21 
47 16 22 45 17 22 43 17 22 38 17 19 32 16 16 25 13 12 19 11 7 15 9 4 
10 7 1 5 4 1 26 25 22 51 50 46 63 61 58 34 31 30 4 2 1 11 9 5 
9 7 3 6 4 0 6 2 0 40 36 34 84 80 76 129 124 119 109 103 97 77 71 65 
58 51 45 32 25 19 14 6 1 12 5 1 16 9 4 20 12 6 20 12 6 26 17 12 
34 28 22 46 46 39 87 88 81 123 123 116 140 140 131 59 59 55 1 1 0 3 1 0 
70 68 61 122 120 109 140 137 126 144 141 130 131 128 116 95 92 79 53 51 38 31 29 17 
36 34 23 35 33 22 42 41 29 60 61 48 90 91 79 119 120 108 146 147 135 53 54 48 
27 25 19 78 68 57 131 122 112 134 126 117 86 80 70 73 67 59 59 54 46 44 41 33 
78 75 68 106 105 99 129 130 124 110 111 106 92 94 88 75 79 73 64 68 62 68 73 65 
84 89 80 96 100 91 108 113 102 120 123 111 99 103 90 84 86 74 71 73 60 51 53 40 
38 34 25 29 17 14 31 16 14 29 15 13 27 15 12 33 22 13 33 22 13 30 20 13 
30 21 17 30 21 18 28 19 17 25 14 14 26 14 14 28 15 17 32 15 19 36 17 20 
40 18 20 43 16 18 45 16 16 47 16 15 49 15 14 51 14 12 52 12 9 52 11 8 
51 8 13 50 6 20 51 8 22 52 11 23 51 13 23 49 14 23 44 13 20 38 12 17 
32 11 14 28 10 11 23 10 9 20 10 8 13 7 4 12 9 5 27 24 20 46 45 40 
56 55 51 41 40 35 21 20 16 8 7 3 10 9 5 8 6 4 7 3 2 5 1 0 
42 33 27 79 65 56 101 87 78 130 118 110 144 133 125 128 119 111 91 86 77 53 50 41 
17 17 8 51 53 44 91 94 85 126 130 122 99 105 94 70 76 64 48 52 40 18 21 15 
14 16 9 44 45 29 53 53 34 63 60 41 74 69 49 119 114 92 133 127 104 110 103 80 
91 68 64 68 37 42 43 11 16 44 12 16 51 20 23 66 34 37 48 19 19 37 10 8 
35 9 7 120 95 91 142 118 112 107 82 77 76 52 45 55 31 23 40 16 9 33 8 4 
30 5 3 36 11 9 97 71 68 131 104 102 139 112 109 70 42 40 42 15 13 40 14 12 
20 4 3 59 46 44 128 113 109 137 122 118 105 90 86 55 40 36 50 34 29 37 21 16 
27 12 6 64 49 43 82 67 61 97 82 76 143 129 123 121 108 101 72 59 52 51 40 32 
88 79 70 139 131 122 132 126 116 106 100 90 69 64 54 25 21 13 35 32 23 73 69 59 
132 124 120 139 129 128 120 108 107 75 61 59 51 34 33 39 19 18 39 17 14 42 17 14 
46 18 16 49 18 17 47 15 14 44 11 11 44 10 11 44 11 11 44 11 13 45 13 14 
44 14 16 42 14 19 41 15 19 37 14 19 33 11 17 26 7 13 22 4 10 19 5 9 
17 15 13 9 8 7 12 12 10 37 36 34 53 52 50 50 49 47 19 18 17 24 23 22 
29 29 27 28 27 25 
15 9 9 14 8 8 49 46 50 60 59 64 53 51 56 21 18 23 10 6 10 9 5 9 
8 4 7 9 4 7 11 6 8 15 9 9 11 5 5 21 15 14 106 98 97 136 128 125 
131 124 119 80 73 67 62 55 48 53 46 39 25 19 12 30 24 16 52 46 36 87 82 72 
124 119 108 138 132 123 79 68 69 45 33 35 24 13 15 19 12 10 18 12 10 17 13 9 
13 10 4 30 27 20 57 53 44 94 88 78 121 111 102 142 129 121 158 140 133 129 109 102 
100 78 72 92 68 64 66 42 38 44 20 16 36 15 11 45 26 22 78 62 56 148 134 128 
136 123 117 110 104 94 86 93 75 63 71 52 54 59 41 68 68 52 96 91 77 120 111 98 
135 121 110 136 121 110 105 90 80 31 18 8 63 51 40 101 93 80 135 132 116 103 102 86 
76 76 60 62 61 45 73 69 54 92 84 71 120 106 95 155 135 126 143 117 110 79 47 41 
91 55 51 98 61 59 98 61 62 95 60 60 91 59 58 87 60 57 133 109 105 143 123 118 
120 105 98 96 83 75 68 56 47 37 26 16 30 16 9 29 13 7 33 15 9 38 17 13 
39 16 13 37 12 10 38 11 10 41 14 14 46 18 19 43 17 18 40 15 16 38 14 15 
43 19 22 45 20 22 46 17 20 44 18 20 43 18 19 42 18 18 39 17 17 36 15 16 
32 13 14 27 10 11 23 8 8 18 6 5 15 5 3 23 14 13 39 31 29 61 55 53 
51 45 44 28 23 23 15 10 10 11 6 6 11 6 6 8 4 4 6 2 2 13 10 10 
56 52 52 78 72 67 97 90 80 133 127 117 111 105 96 75 69 61 52 45 40 48 40 37 
55 47 46 80 72 71 99 91 91 112 104 105 113 104 107 99 91 94 72 65 67 22 15 16 
15 9 8 18 12 10 21 15 12 20 14 10 16 11 6 11 5 2 64 59 51 114 109 98 
139 134 123 98 100 84 67 74 53 72 77 57 78 82 62 89 91 72 109 108 91 118 113 96 
106 96 82 67 50 38 66 41 31 64 29 23 55 11 8 69 18 17 81 22 23 86 21 24 
90 21 24 92 21 25 94 21 26 93 21 25 91 21 24 89 20 24 86 19 22 84 19 21 
82 19 21 88 16 29 89 14 32 87 13 30 83 14 29 80 15 28 78 16 25 75 17 23 
71 17 20 66 16 16 61 12 9 57 9 5 56 7 4 78 28 21 90 40 32 94 45 36 
108 59 49 110 62 51 104 59 46 102 59 44 87 49 32 66 31 15 62 30 13 57 28 9 
53 25 5 53 17 6 54 15 8 54 16 10 49 15 8 47 15 9 46 15 12 47 17 14 
45 17 16 43 16 15 41 14 13 42 13 15 43 13 18 45 13 18 46 13 19 47 14 21 
47 16 22 45 17 22 43 17 22 38 17 19 32 16 16 25 13 12 19 11 7 15 9 4 
10 7 1 5 4 1 26 25 22 51 50 46 63 61 58 34 31 30 4 2 1 11 9 5 
9 7 3 6 4 0 6 2 0 40 36 34 85 81 77 133 128 123 110 105 99 76 71 65 
57 52 45 31 24 19 12 5 1 12 4 1 16 9 4 20 13 6 20 12 6 26 18 12 
35 28 22 44 44 37 84 85 77 118 119 111 135 135 126 57 57 53 1 1 0 3 1 0 
67 66 59 119 117 106 138 136 125 144 141 130 140 137 126 127 124 113 99 97 85 72 70 58 
47 45 34 40 38 27 47 46 34 69 70 57 98 98 86 124 124 113 147 149 137 52 54 48 
26 24 19 78 70 59 120 112 102 126 118 109 94 88 79 85 81 72 87 84 75 98 95 87 
99 98 91 103 104 96 109 111 103 89 91 84 84 88 81 93 98 91 105 110 102 119 125 115 
134 140 130 132 138 127 134 139 127 137 141 129 130 134 121 125 129 115 121 123 110 109 112 98 
112 109 94 123 111 96 120 107 93 111 99 87 99 89 77 85 75 63 70 62 51 58 50 42 
53 45 40 46 39 35 39 31 29 31 23 22 25 15 15 22 9 11 26 11 14 29 11 14 
32 12 13 36 11 13 40 13 13 45 14 13 48 16 15 51 15 14 52 14 12 51 12 10 
51 10 14 51 8 20 52 10 22 52 12 23 51 14 24 49 15 24 44 14 21 38 12 17 
32 11 14 27 10 11 23 9 9 19 10 8 13 7 4 12 9 5 27 24 20 46 45 40 
56 55 51 41 40 36 21 20 16 8 7 3 10 9 6 8 6 5 7 3 2 5 1 0 
42 33 27 76 62 53 91 78 70 123 111 103 134 125 116 108 100 92 74 68 60 43 38 30 
18 16 7 31 31 24 52 53 46 75 77 69 56 60 50 38 43 31 28 31 19 10 13 7 
21 23 17 69 70 54 90 89 71 104 101 82 111 107 87 138 133 112 145 138 117 126 119 98 
121 101 96 97 69 74 53 23 28 42 14 17 41 13 15 47 20 20 34 9 9 26 3 2 
25 4 4 121 100 95 156 133 127 134 111 105 105 82 74 79 56 48 55 33 25 45 22 16 
45 22 17 57 34 28 108 85 79 140 116 111 150 126 122 85 61 57 55 30 27 46 22 20 
23 7 6 62 48 46 133 118 114 144 128 125 112 97 93 62 47 42 54 39 33 39 23 18 
28 12 7 64 50 44 83 69 63 98 85 78 146 132 126 123 110 103 71 59 52 48 37 29 
87 78 69 138 131 122 118 112 101 83 78 68 47 42 31 23 19 9 31 28 17 52 48 39 
79 71 67 85 75 74 79 67 66 56 42 40 44 27 26 38 18 17 41 19 16 44 19 16 
47 19 17 48 17 16 45 13 12 43 10 9 45 11 11 45 11 12 45 12 13 45 13 15 
44 14 17 43 15 19 41 16 20 37 14 19 33 11 17 27 8 14 23 5 11 18 4 8 
11 9 7 5 4 3 11 10 10 38 37 35 56 55 53 55 54 52 24 23 21 27 27 25 
31 30 28 27 26 24 
13 7 7 11 6 6 47 45 47 59 57 61 52 50 54 20 17 21 10 6 9 10 7 9 
9 4 7 8 3 5 9 4 5 13 7 7 10 4 4 21 15 15 107 100 98 137 129 126 
133 126 121 101 94 88 78 70 64 55 48 42 23 17 12 36 30 23 66 60 50 95 90 79 
128 123 112 142 136 127 89 79 79 56 45 47 34 24 25 19 13 11 16 11 8 14 11 7 
9 7 3 27 25 19 61 57 49 115 110 99 138 130 121 153 141 132 164 148 139 144 125 118 
122 101 94 109 87 81 73 50 46 45 23 18 43 23 17 45 27 22 72 57 51 142 130 123 
135 124 117 114 109 99 91 98 79 55 61 43 36 40 23 52 51 35 86 81 67 119 110 97 
147 133 122 148 133 123 113 98 89 26 14 8 64 53 43 105 98 84 135 133 117 108 107 91 
80 80 64 57 57 40 79 76 61 103 96 83 126 113 102 156 138 128 132 109 102 47 20 17 
62 29 25 75 41 37 86 52 50 73 41 39 69 39 36 73 47 43 126 104 98 144 125 119 
128 113 106 108 93 85 77 63 54 40 26 16 39 23 15 38 19 13 37 16 10 42 18 14 
43 17 14 41 13 11 40 11 10 42 13 13 46 17 18 43 16 17 40 14 16 38 13 14 
42 18 20 45 19 21 46 17 20 44 18 20 43 18 19 42 18 18 38 16 17 35 15 15 
32 13 14 27 10 11 23 8 8 18 5 5 15 5 3 23 14 13 39 31 29 61 55 53 
51 45 44 28 23 23 15 10 10 11 6 6 11 6 6 8 4 4 6 2 2 13 10 10 
56 52 52 80 75 70 101 95 85 135 129 119 108 102 93 65 59 51 31 25 21 24 17 15 
31 23 22 55 48 46 75 68 67 97 90 91 127 119 121 116 109 110 82 75 76 19 13 13 
11 5 4 16 10 8 20 14 11 18 12 7 13 8 3 7 2 1 65 60 53 118 113 102 
142 137 127 99 99 84 69 72 54 81 82 65 103 102 85 115 112 96 109 101 87 111 97 85 
95 76 66 53 26 19 62 25 21 70 23 21 69 13 13 82 19 21 92 22 27 97 21 28 
99 21 27 100 21 27 100 21 28 98 21 27 95 20 26 92 20 25 88 19 23 85 19 22 
83 18 22 91 16 29 93 14 31 90 13 28 85 13 27 80 13 24 75 14 22 72 15 20 
68 16 18 64 15 14 60 12 8 59 9 4 61 9 5 89 33 26 107 48 41 118 57 49 
137 76 67 142 82 72 137 79 67 129 76 63 110 61 47 83 40 24 74 36 19 65 32 14 
58 27 8 56 19 9 56 16 10 55 17 12 50 16 9 46 15 9 45 14 10 45 16 13 
45 16 15 44 16 16 42 15 14 43 15 17 45 15 20 45 14 19 46 14 20 48 14 21 
47 16 22 45 16 22 43 17 21 38 17 19 32 16 16 25 13 12 19 11 7 15 9 4 
10 7 2 6 4 1 26 24 22 51 49 46 63 60 58 34 31 30 4 2 1 11 9 5 
9 7 3 6 4 0 6 2 0 40 36 34 85 81 77 134 129 124 111 106 100 77 71 65 
57 52 45 31 24 19 11 5 1 11 5 1 17 10 4 20 14 7 20 13 6 27 19 13 
35 29 23 45 45 37 84 84 76 117 118 110 134 134 125 57 57 52 2 1 0 3 2 0 
67 66 59 119 117 106 140 139 127 143 141 130 143 140 129 142 139 128 127 126 114 96 95 84 
45 45 33 31 30 20 35 35 25 60 61 48 92 93 82 122 124 113 149 151 140 54 56 49 
28 27 21 81 74 63 120 113 103 124 118 108 93 89 79 79 77 67 88 87 77 118 118 109 
115 116 108 108 110 102 97 101 92 79 83 75 81 86 78 99 107 98 129 136 126 150 158 147 
165 172 161 159 167 154 155 162 149 152 159 145 151 158 143 149 155 139 147 152 136 145 150 133 
152 151 133 162 153 134 158 148 130 147 138 122 132 124 110 112 104 92 94 88 77 79 74 65 
69 64 58 58 53 48 47 41 38 37 31 29 28 21 20 22 12 13 22 10 12 24 9 11 
26 9 9 29 9 9 35 11 10 41 14 13 47 17 15 49 17 15 50 15 14 49 13 12 
49 11 15 50 9 19 51 11 21 51 13 22 50 15 23 47 15 23 43 14 20 38 12 17 
31 10 13 27 9 11 23 9 9 19 9 8 13 6 4 13 8 5 27 24 20 46 45 41 
56 55 51 41 40 37 21 20 17 7 7 4 9 8 7 8 6 6 7 3 3 5 1 1 
44 36 31 80 68 59 96 83 75 131 120 112 140 130 122 98 90 81 56 50 43 25 20 15 
11 9 4 15 13 9 25 25 20 42 43 36 30 33 24 21 24 13 18 20 8 7 9 3 
26 27 21 85 84 70 115 114 96 132 130 111 136 132 113 145 140 120 147 141 121 139 134 113 
135 119 114 106 83 86 50 25 28 40 18 19 38 15 15 41 18 17 35 15 12 28 9 7 
20 3 3 116 98 93 154 136 127 138 121 111 117 100 90 89 71 61 54 36 27 42 24 15 
48 30 21 70 51 44 109 91 83 137 118 111 150 130 125 92 72 67 60 40 35 44 24 20 
22 7 6 61 48 45 132 118 113 144 129 124 113 98 93 63 48 43 54 39 33 37 23 17 
25 10 6 61 48 42 81 68 61 96 83 77 140 128 121 118 106 99 68 58 50 44 35 27 
86 79 69 139 133 123 108 103 93 67 63 52 28 24 14 18 15 5 19 17 9 28 24 19 
43 35 33 49 39 38 50 38 37 41 27 25 37 20 19 38 17 16 43 20 17 46 21 19 
49 21 19 49 19 17 46 14 13 43 10 10 46 12 12 46 13 13 45 13 14 45 14 15 
44 15 18 43 16 20 42 17 21 38 15 20 33 12 18 27 9 15 23 6 11 17 4 8 
9 7 6 4 3 2 11 10 10 39 39 37 59 58 56 58 57 55 27 26 24 29 29 27 
32 31 29 27 26 25 
11 5 5 9 5 5 45 43 44 57 55 58 50 48 51 19 16 19 9 6 8 11 8 9 
9 4 6 7 2 3 7 2 2 12 6 5 10 4 4 22 16 16 108 100 98 135 128 124 
133 126 121 118 111 105 87 80 73 51 44 38 16 10 9 39 33 28 80 74 63 102 96 86 
131 125 115 144 137 129 96 88 87 67 58 59 43 35 36 18 13 11 12 9 5 11 9 4 
5 3 1 24 22 17 62 59 50 129 125 114 147 139 130 152 141 132 158 145 135 150 133 125 
136 117 110 121 100 93 78 56 50 46 24 19 48 29 23 43 26 20 63 49 42 133 123 115 
135 126 118 119 115 104 96 101 83 50 55 37 26 28 12 44 42 27 84 79 64 121 112 99 
149 135 124 148 133 123 110 95 87 20 9 7 65 55 47 112 104 91 143 140 125 108 108 92 
77 77 61 54 55 39 88 85 70 115 109 95 131 120 108 153 137 127 121 101 94 29 6 4 
40 11 7 54 22 18 70 40 36 55 27 22 55 29 23 70 47 40 124 104 96 144 126 118 
131 115 106 114 99 90 83 68 58 42 25 15 46 27 19 46 24 17 43 17 11 48 20 15 
49 18 15 46 14 12 42 11 9 43 12 11 44 15 15 43 14 15 39 12 14 36 12 13 
39 16 16 43 17 19 46 17 20 44 18 19 43 18 19 42 17 18 38 16 16 35 14 15 
32 13 14 27 10 11 22 7 8 18 5 5 14 5 3 23 14 13 39 31 29 61 55 53 
51 45 44 28 23 23 15 10 10 11 6 6 11 6 6 8 4 4 6 2 2 13 10 10 
56 52 52 85 80 75 110 105 94 140 134 125 108 103 93 58 53 45 15 10 9 7 1 0 
15 8 7 37 31 29 56 49 48 84 78 78 140 134 133 130 124 123 90 84 83 18 13 13 
9 4 3 15 8 6 20 14 11 17 11 7 12 6 2 6 1 0 66 62 55 121 117 106 
145 140 129 100 99 85 73 72 57 93 91 75 126 120 106 138 128 115 112 96 86 103 79 71 
83 52 48 47 8 7 62 12 12 77 16 19 84 15 19 96 20 26 104 22 30 108 21 31 
109 21 30 109 21 30 107 20 30 103 20 28 98 19 26 94 18 26 88 18 23 85 18 22 
82 17 22 94 16 28 98 15 30 94 14 28 88 13 25 81 12 22 73 12 19 69 14 18 
66 15 16 63 15 12 62 13 9 64 13 7 70 14 8 97 35 29 117 49 44 131 59 55 
153 80 74 159 87 81 155 83 77 146 80 72 124 65 55 95 43 31 82 38 24 71 32 17 
62 26 11 59 20 11 57 18 12 57 18 13 51 17 10 47 15 9 44 13 9 44 15 12 
44 16 14 44 16 16 43 15 15 45 16 18 47 17 22 46 14 19 47 14 20 48 14 21 
47 16 22 45 16 22 42 16 21 38 17 19 32 15 16 25 13 12 19 11 7 15 9 4 
11 7 2 7 3 1 27 24 22 52 49 46 64 60 57 34 31 30 4 2 1 11 9 5 
9 7 3 6 4 0 6 2 0 40 36 34 85 81 77 133 129 124 111 106 101 77 72 66 
57 52 45 30 25 19 11 5 1 11 5 1 16 11 5 21 15 8 20 15 7 27 21 14 
36 31 24 47 46 37 86 86 77 120 120 111 135 135 126 57 57 53 2 2 0 4 4 0 
69 68 60 121 120 109 143 142 131 140 138 127 138 136 126 143 142 131 142 142 131 112 112 102 
45 45 34 25 25 16 25 25 16 46 47 36 84 86 76 120 122 112 151 153 143 56 58 51 
28 29 21 80 75 64 122 118 107 127 123 112 91 90 79 71 70 59 82 82 72 122 124 114 
126 129 120 113 117 108 86 92 82 74 81 71 80 88 77 101 110 99 141 150 139 166 176 164 
178 188 175 175 185 170 169 179 163 162 171 155 162 172 154 159 168 149 155 163 143 164 172 152 
169 171 152 171 165 146 168 162 144 159 154 137 146 141 126 127 122 109 110 107 95 96 93 83 
82 80 73 68 66 60 54 52 47 44 41 38 35 31 29 28 22 22 24 16 17 23 13 13 
24 11 10 25 10 8 30 11 9 37 14 12 43 17 15 46 18 16 47 17 15 46 14 13 
47 12 15 49 11 19 49 12 20 49 14 21 48 15 22 45 14 20 41 14 19 36 12 16 
30 9 12 26 8 10 22 8 9 19 8 8 14 6 5 14 8 6 27 23 21 46 44 41 
56 55 52 41 40 38 21 20 18 7 6 5 9 8 8 8 6 7 7 3 4 5 1 2 
46 38 34 83 73 64 100 90 82 138 128 120 145 135 127 93 85 77 46 39 34 16 11 8 
13 10 9 9 6 6 11 9 7 22 21 14 17 17 9 13 14 4 14 15 4 7 8 2 
30 30 24 94 92 79 131 129 114 151 148 131 152 148 130 142 139 119 140 136 117 148 143 124 
141 129 123 107 89 90 43 24 25 39 22 21 37 21 18 36 20 17 40 24 20 33 18 14 
18 4 2 108 95 88 145 132 122 133 121 109 122 111 98 92 80 68 46 34 22 33 21 9 
47 35 24 82 68 58 108 95 85 130 117 108 144 129 122 95 80 73 62 48 41 40 26 19 
19 8 6 58 46 43 128 114 108 140 127 120 110 97 90 61 47 40 51 38 31 34 21 16 
21 7 6 58 45 40 77 66 59 93 81 75 133 122 115 111 102 94 64 57 48 41 35 25 
84 78 68 136 132 121 103 98 87 59 55 44 21 19 8 20 18 8 15 13 7 12 9 7 
21 14 12 26 16 15 29 17 16 29 15 13 32 15 14 37 17 16 44 21 18 48 22 20 
51 22 21 52 21 20 47 15 15 44 11 11 48 14 14 48 14 15 46 14 16 45 15 16 
44 16 18 43 17 21 41 17 21 38 16 20 33 13 18 27 10 15 23 7 12 18 6 9 
10 7 6 4 3 2 12 11 10 41 40 38 60 59 57 59 58 56 27 27 25 30 29 27 
32 31 30 28 27 25 
10 4 4 9 5 5 44 42 43 55 54 55 48 46 47 19 16 17 10 6 7 11 8 8 
8 4 4 6 2 2 6 1 1 13 7 6 16 9 7 29 23 21 111 105 100 135 129 124 
133 126 121 129 122 116 91 84 77 43 37 29 14 8 7 48 42 37 97 90 80 114 108 98 
135 129 119 141 134 126 94 85 85 69 61 61 48 41 41 15 12 9 12 11 6 16 15 8 
12 12 5 33 32 23 72 70 60 138 134 124 143 137 126 131 121 111 117 104 95 127 112 103 
135 118 110 128 108 100 81 61 54 46 27 20 52 36 28 47 33 25 67 56 48 138 131 121 
139 133 124 121 118 107 91 94 77 45 47 32 23 24 10 47 43 29 94 87 73 129 118 106 
140 127 115 132 118 107 97 83 74 24 13 6 65 56 45 112 106 92 155 152 136 100 100 84 
65 66 50 64 65 49 99 98 82 121 116 101 123 114 101 135 120 109 110 90 81 43 19 13 
55 27 21 72 43 37 93 67 60 68 43 36 59 36 28 66 46 37 112 94 84 134 117 106 
133 116 104 131 114 102 101 83 72 49 28 18 40 16 10 42 14 9 52 21 15 57 24 19 
57 22 19 51 15 14 46 11 10 44 10 10 44 13 12 42 12 13 38 11 11 34 10 9 
37 13 13 41 15 16 45 16 19 44 17 19 42 17 18 41 17 18 38 16 16 35 14 15 
31 12 13 27 10 10 22 7 7 17 5 4 14 5 3 23 14 13 39 31 29 61 55 53 
51 45 44 28 23 23 15 10 10 11 6 6 11 6 6 8 4 4 6 2 2 13 10 10 
56 52 52 85 81 76 110 106 96 139 134 124 105 101 92 55 51 44 14 10 8 9 4 1 
18 12 7 35 29 26 44 37 35 66 60 59 132 126 125 129 123 123 93 87 87 19 14 14 
11 5 4 18 11 8 23 17 14 20 14 9 15 9 4 7 1 1 68 62 57 123 117 108 
145 139 129 113 110 97 93 92 76 110 106 92 133 124 111 136 122 110 105 84 76 87 58 52 
72 33 30 57 9 10 69 10 13 83 14 19 95 18 25 105 20 29 111 21 31 113 20 31 
113 20 30 112 20 30 108 19 30 102 18 27 96 17 25 91 16 24 85 16 22 80 15 20 
77 15 21 91 15 25 97 15 26 92 14 24 86 13 22 79 13 20 73 12 17 66 11 13 
63 12 11 62 13 9 66 15 10 73 19 13 84 25 20 114 49 44 132 61 57 141 65 62 
157 79 77 160 82 80 153 77 74 145 75 70 125 61 54 98 40 32 85 34 24 73 28 16 
63 21 9 61 21 13 62 22 16 63 24 19 54 20 13 48 16 10 44 14 10 44 15 12 
44 15 14 43 15 15 42 15 14 44 15 17 45 15 20 46 15 19 47 14 20 48 14 21 
47 16 22 45 16 22 42 16 21 37 16 18 31 15 15 25 13 12 19 11 7 15 9 4 
11 7 2 7 3 1 27 24 22 52 49 46 64 60 57 34 31 30 4 2 1 11 9 5 
9 7 3 6 4 0 6 2 0 40 36 34 85 81 77 133 129 124 110 106 101 76 71 65 
56 52 44 29 24 18 10 5 1 9 5 1 16 11 5 21 16 8 20 16 9 28 23 15 
37 33 25 47 47 38 89 90 80 124 124 115 137 137 128 57 57 53 2 2 0 4 4 0 
71 71 63 124 124 113 144 143 133 126 126 115 116 115 105 121 120 110 135 135 125 124 125 114 
78 79 68 60 61 51 51 53 43 53 55 44 91 93 83 124 126 116 149 151 141 53 55 49 
20 21 15 59 57 45 120 118 106 136 134 122 104 104 92 93 94 82 98 101 89 119 123 111 
123 128 117 101 107 96 57 65 53 67 75 63 82 92 80 103 114 101 135 146 133 151 162 148 
153 166 151 158 170 154 157 168 151 151 162 143 149 160 140 142 152 131 134 144 121 154 164 141 
165 169 147 169 164 146 168 164 146 163 161 144 156 154 138 140 139 124 124 124 111 110 111 99 
96 97 87 81 82 74 66 67 60 54 54 49 51 50 46 51 48 46 46 41 39 40 33 32 
35 25 23 29 17 14 29 13 10 31 12 9 36 15 11 40 16 12 42 16 13 41 14 11 
44 13 15 48 13 20 48 14 21 47 14 21 45 14 20 42 14 20 38 13 18 34 12 15 
30 11 13 25 9 11 21 8 8 18 8 8 13 5 4 14 8 6 27 22 22 47 44 43 
57 54 53 41 39 39 21 19 19 7 6 6 9 8 9 8 6 7 7 3 5 4 1 4 
39 32 28 68 59 50 78 69 61 108 99 91 119 110 102 92 84 77 72 65 59 61 55 51 
65 60 55 46 41 36 28 23 19 16 12 7 16 14 6 17 15 6 17 16 7 13 12 3 
36 34 25 95 92 81 133 130 116 151 148 132 147 144 127 122 119 100 117 115 95 137 135 115 
139 132 124 109 97 96 43 30 28 38 27 23 30 19 16 16 6 4 31 21 15 32 22 14 
21 11 3 106 98 86 142 134 121 133 126 112 128 121 107 96 89 75 43 36 22 33 26 12 
55 48 35 101 94 80 117 108 95 130 121 110 139 129 119 101 92 82 71 61 52 45 36 28 
21 10 8 57 45 42 124 111 104 136 122 115 106 92 86 57 44 38 49 37 30 32 20 16 
19 8 6 57 46 40 77 67 59 94 83 76 137 129 121 117 109 101 69 62 53 41 35 25 
72 68 57 116 113 102 100 96 85 77 74 63 57 55 44 60 59 48 55 53 43 43 40 32 
22 14 11 20 10 8 25 13 12 27 13 11 31 14 13 37 16 15 43 19 17 48 22 19 
51 23 21 53 23 21 49 18 17 46 14 13 49 15 15 49 16 17 48 16 17 46 16 17 
45 17 19 43 18 21 40 18 21 37 16 20 32 15 19 27 11 16 24 8 13 20 7 11 
13 11 9 6 6 4 12 11 10 39 38 36 55 55 53 53 52 50 21 20 18 24 23 21 
28 27 25 26 25 23 
10 4 4 10 5 5 45 42 42 56 54 54 48 46 46 19 16 16 10 7 7 12 8 8 
8 4 3 7 2 1 8 4 2 19 14 12 26 21 17 43 37 33 117 111 106 139 133 128 
139 133 127 143 137 129 106 99 91 57 51 42 34 28 22 73 66 59 124 118 108 133 126 116 
142 135 124 139 131 123 97 90 88 77 70 70 57 52 51 15 13 10 12 11 6 20 20 13 
26 26 17 46 46 36 79 78 67 134 132 121 128 122 111 102 94 83 73 61 50 102 88 78 
131 115 106 132 115 104 85 68 58 47 31 22 50 36 26 48 37 27 71 63 53 142 137 126 
137 133 122 115 114 101 88 90 74 48 49 34 30 29 15 53 48 34 104 97 83 135 124 112 
127 115 103 116 103 91 90 77 66 41 30 20 69 61 48 109 103 89 155 152 137 96 95 80 
63 63 47 72 73 56 108 107 91 124 119 105 115 106 93 119 105 94 98 79 69 49 26 18 
75 49 42 99 74 66 119 98 88 85 64 54 66 46 36 64 45 35 105 87 76 127 109 97 
131 113 100 138 118 106 112 90 78 59 33 22 46 16 9 47 14 8 60 24 18 66 27 22 
65 24 21 58 18 15 51 11 9 47 9 8 46 12 11 44 12 12 40 12 11 35 11 9 
37 13 12 41 15 16 45 16 19 43 17 19 42 17 18 41 17 17 37 15 16 34 14 14 
31 12 13 27 9 10 22 7 7 17 5 4 14 4 2 23 14 12 39 31 29 61 55 53 
51 45 44 28 23 23 15 10 10 11 6 6 11 6 6 8 4 4 6 2 2 13 10 10 
56 52 52 83 80 74 107 104 93 137 133 123 106 102 93 56 53 47 15 11 9 12 7 4 
21 17 12 35 30 27 37 32 29 55 50 48 122 117 115 126 120 119 95 89 88 19 14 14 
12 6 4 20 13 10 27 19 17 24 17 12 18 12 6 8 2 1 68 62 56 122 116 107 
144 137 128 128 126 112 117 116 101 125 121 107 133 125 113 126 111 101 91 68 61 75 42 38 
66 23 22 64 11 14 78 14 18 92 18 25 105 22 32 111 22 33 115 21 33 117 21 32 
116 20 31 112 19 30 108 18 29 100 16 26 93 15 24 87 14 23 80 14 21 75 14 19 
72 14 20 86 15 22 91 15 23 88 14 22 83 14 20 78 14 18 72 13 16 68 14 13 
66 15 12 67 17 12 77 24 18 88 32 26 102 42 35 120 54 49 131 61 57 137 64 60 
154 78 75 159 83 80 154 79 77 147 77 73 126 61 56 98 39 32 88 34 26 79 29 20 
72 25 16 67 25 18 68 28 22 69 31 26 59 25 19 51 19 14 45 15 11 45 15 12 
44 16 14 43 15 15 42 14 14 43 14 16 45 14 19 46 15 20 48 15 21 48 14 21 
47 16 22 44 16 21 42 16 20 37 16 18 31 14 15 25 12 11 20 11 7 15 10 5 
11 8 3 7 3 1 27 24 22 52 49 46 64 60 57 34 31 30 4 2 1 11 9 5 
9 7 3 6 4 0 6 3 0 40 37 34 85 82 77 134 131 125 111 107 101 75 72 66 
55 52 44 28 24 18 8 4 0 8 5 0 14 11 4 20 16 8 20 17 9 28 24 17 
37 34 26 46 46 36 91 91 81 127 127 117 136 137 127 57 58 53 1 2 0 2 3 0 
71 72 65 125 125 115 142 143 132 109 110 99 93 93 83 107 108 98 127 127 118 131 132 123 
115 117 106 97 99 89 78 80 71 57 59 50 92 95 86 121 125 115 142 145 136 50 53 48 
19 21 14 57 57 44 121 121 108 142 142 129 118 119 106 118 120 108 120 124 111 124 129 116 
110 116 104 77 85 72 30 39 26 64 74 60 85 96 81 95 107 93 118 130 116 124 137 121 
117 131 113 121 135 116 121 134 113 117 130 108 119 131 109 116 128 104 113 125 99 140 152 126 
156 162 138 162 161 141 165 164 146 166 166 149 166 167 151 159 161 146 153 155 141 146 149 136 
136 140 128 126 130 119 116 120 110 108 111 102 105 107 99 102 102 97 88 87 82 71 67 63 
53 47 43 41 32 27 33 22 17 30 15 11 32 15 10 35 15 10 37 16 11 37 15 10 
40 14 13 44 13 17 44 14 19 44 15 19 42 15 19 40 15 19 37 15 18 34 14 16 
29 12 13 24 10 10 19 8 8 16 6 6 12 5 4 14 8 7 27 22 23 47 43 44 
57 54 54 41 38 40 21 19 21 7 6 7 9 8 9 8 6 8 6 3 6 4 1 5 
26 22 18 47 41 32 56 50 41 81 74 65 99 92 84 103 96 89 105 98 93 108 101 96 
112 105 101 87 79 75 57 50 46 28 21 18 22 17 12 21 16 10 21 17 10 27 24 15 
52 48 38 100 96 86 132 129 116 144 142 126 133 131 114 92 91 73 81 80 62 105 105 86 
128 125 116 113 108 103 57 50 46 51 45 39 34 29 24 6 1 0 30 25 18 39 34 23 
35 30 19 109 105 91 140 137 121 133 129 113 132 129 113 104 101 85 54 51 35 47 43 28 
73 70 54 122 119 104 128 124 109 131 127 113 132 127 115 107 102 90 81 76 65 55 49 39 
25 15 11 58 46 42 124 111 105 133 121 114 103 91 84 55 44 37 49 38 31 33 22 17 
20 10 6 57 48 41 77 68 60 94 85 77 136 129 121 116 110 101 68 64 54 39 34 24 
59 56 45 96 94 83 104 101 90 104 102 91 102 101 89 100 99 88 97 96 85 83 80 70 
32 23 20 25 13 12 31 18 17 31 16 15 33 15 14 36 16 15 42 19 16 47 20 18 
50 22 20 52 21 20 50 18 17 48 15 14 50 17 17 50 17 18 49 17 18 46 17 17 
45 17 20 43 18 21 40 18 21 36 17 21 32 15 19 27 11 16 23 9 14 19 8 11 
12 10 9 6 5 4 11 10 9 37 36 34 52 51 49 47 47 45 14 13 12 17 16 14 
21 20 18 19 19 17 
11 4 4 12 6 6 48 43 43 58 55 54 51 47 46 20 16 15 11 7 6 13 9 8 
9 5 2 8 4 1 11 7 4 28 24 20 41 36 32 61 56 50 121 116 110 140 135 128 
143 137 130 152 146 137 121 115 105 79 73 64 63 57 47 102 96 86 149 143 132 148 141 130 
144 136 125 132 125 115 104 98 96 90 85 85 70 66 65 16 15 13 10 10 5 21 22 15 
42 43 34 62 63 52 88 87 76 129 127 116 114 110 98 82 75 63 44 34 22 86 73 61 
129 114 103 136 121 109 93 78 66 55 40 29 48 37 25 46 37 26 71 64 52 142 139 126 
131 131 117 110 111 97 94 94 78 62 61 45 48 45 30 66 61 46 116 108 95 138 128 115 
111 99 87 98 85 73 81 70 58 59 49 37 75 68 54 105 100 85 148 146 130 96 94 79 
66 66 50 75 76 60 112 111 95 126 121 107 111 102 89 110 97 85 89 72 62 47 26 18 
89 66 58 119 97 88 135 118 106 96 79 66 71 54 41 62 44 32 101 84 71 123 105 92 
129 110 96 139 116 104 117 90 78 68 37 26 58 22 13 59 19 12 68 25 19 74 29 24 
73 26 22 65 19 16 56 11 8 51 9 7 49 11 10 47 13 11 43 13 11 38 12 10 
39 14 12 42 15 16 44 16 18 43 17 18 42 17 18 41 16 17 37 15 15 34 13 14 
31 12 13 26 9 10 21 6 7 17 4 4 13 4 2 22 14 12 39 31 29 61 55 53 
51 45 44 28 23 23 15 10 10 11 6 6 11 6 6 8 4 4 6 2 2 13 10 10 
56 52 52 81 78 73 103 101 91 135 133 123 107 104 95 59 56 49 15 11 9 12 9 6 
23 19 14 34 30 26 35 31 28 52 48 45 115 111 109 123 118 115 96 90 88 20 14 14 
13 6 5 22 13 11 30 22 20 27 19 15 20 13 8 10 3 1 67 60 55 120 113 105 
143 135 127 138 136 124 132 134 119 132 130 116 131 125 113 117 103 94 79 57 50 68 35 32 
64 20 21 65 12 16 83 18 24 99 22 31 110 24 36 114 23 35 117 22 34 120 21 34 
116 20 32 112 19 30 106 18 28 98 16 26 90 14 24 82 13 22 75 14 20 70 14 19 
67 14 19 78 14 20 83 15 20 82 15 20 80 15 18 77 16 17 73 16 15 74 19 16 
75 21 17 78 25 19 91 36 30 104 48 40 117 57 50 116 53 47 119 53 48 125 58 52 
146 77 72 155 86 81 155 86 82 148 82 77 126 63 58 96 36 31 89 32 26 85 31 24 
83 30 24 72 29 22 71 31 26 73 35 30 64 29 23 54 22 17 46 15 12 45 16 13 
44 16 14 44 16 16 42 14 14 43 14 16 44 14 19 47 15 20 48 15 21 48 14 21 
46 15 21 44 15 21 41 15 20 36 15 17 30 14 14 25 13 12 20 12 8 16 10 5 
12 8 3 7 3 1 27 24 22 52 49 46 64 60 57 34 31 30 4 2 1 11 9 5 
9 7 3 6 4 0 6 3 0 40 37 34 85 82 78 134 132 126 111 109 102 76 73 67 
54 52 44 27 24 18 7 4 0 6 4 0 13 10 4 19 16 8 20 18 10 28 26 18 
37 35 26 44 44 33 92 92 81 128 129 117 135 137 125 56 58 52 0 2 0 0 2 0 
71 72 66 124 126 116 139 142 131 91 93 83 70 72 62 95 96 87 112 114 106 129 130 122 
144 147 137 129 132 123 102 105 96 63 65 57 92 96 88 118 123 114 135 139 130 48 51 46 
22 25 17 66 67 52 124 124 111 144 145 132 127 129 116 134 137 124 136 140 127 131 137 124 
96 104 90 56 65 50 15 24 9 62 72 57 83 95 79 83 96 80 99 113 96 99 112 94 
85 99 79 84 98 77 83 97 74 83 97 71 91 104 79 96 109 82 101 114 85 131 143 115 
148 156 131 156 158 137 162 164 144 170 172 153 178 181 163 180 184 167 183 187 172 184 190 175 
179 186 171 174 181 168 169 176 164 166 172 160 162 166 156 154 157 148 132 134 126 105 105 97 
77 75 67 58 52 45 42 34 28 31 20 14 30 16 10 30 15 8 31 15 8 32 14 8 
35 13 11 39 11 13 39 13 15 39 15 16 39 16 17 38 17 18 37 17 18 35 16 17 
29 12 13 23 10 10 18 8 7 13 5 4 11 4 3 14 8 8 27 22 24 47 43 45 
57 54 56 42 38 41 21 19 22 7 6 8 9 8 10 7 6 9 5 3 7 3 1 6 
14 11 8 26 23 14 37 33 24 56 51 42 80 74 66 110 103 96 127 120 115 138 131 126 
143 134 130 120 111 108 90 81 79 53 44 42 35 27 24 26 19 14 26 20 13 46 41 32 
74 69 60 108 105 94 132 129 117 137 135 121 121 120 104 69 69 53 52 54 37 77 79 61 
118 119 108 120 119 112 79 78 71 71 71 62 46 46 39 4 3 0 35 34 25 52 51 39 
58 57 43 116 115 99 139 138 121 131 130 112 135 134 116 114 113 95 73 73 55 69 69 51 
95 94 77 140 140 123 137 137 120 131 131 115 123 122 108 112 111 97 93 92 78 67 65 52 
30 20 15 59 47 43 125 113 106 132 120 113 102 90 83 55 44 37 49 39 31 33 24 17 
20 12 6 56 48 41 76 69 60 92 86 77 133 127 118 112 107 98 64 61 51 34 31 22 
44 42 32 73 72 61 103 102 91 124 123 112 134 134 123 126 126 115 127 126 116 116 114 105 
51 42 39 41 29 28 47 33 33 40 24 23 36 18 17 36 16 15 42 18 16 45 19 17 
48 20 18 50 19 18 49 17 16 48 16 15 51 18 18 50 18 19 49 18 19 46 18 18 
44 18 20 42 18 21 39 18 21 35 17 20 31 15 19 26 11 16 22 9 14 18 7 11 
11 9 8 5 4 3 10 9 9 35 35 33 50 49 47 45 44 42 10 9 7 11 10 8 
14 14 12 13 12 10 
12 6 5 13 7 6 51 47 45 61 58 56 52 49 48 21 18 16 11 8 5 12 9 6 
8 5 2 9 5 2 16 12 9 41 37 32 63 59 54 85 81 75 111 107 100 121 117 109 
125 120 112 132 126 117 117 111 102 98 92 83 95 89 79 121 114 104 147 139 129 135 127 117 
120 112 101 109 102 92 118 112 110 113 109 108 88 85 84 18 17 16 3 3 1 16 17 13 
58 60 51 85 87 76 110 111 98 140 139 126 131 127 113 110 104 90 89 79 65 115 103 90 
141 126 114 142 127 114 116 102 89 87 73 60 60 49 36 40 32 18 53 48 34 125 125 110 
129 130 114 123 125 109 124 123 107 105 102 87 94 89 75 102 95 81 133 125 112 134 124 112 
84 72 60 68 56 44 62 51 39 65 55 42 86 79 65 111 106 92 137 135 119 100 99 83 
72 72 56 63 63 47 105 103 87 129 123 109 126 118 105 127 115 103 94 80 71 24 8 6 
63 43 37 91 71 61 105 91 76 73 58 43 55 40 26 53 37 24 106 88 74 132 112 98 
133 111 96 132 105 92 110 78 66 73 35 24 74 32 22 74 28 20 74 24 17 81 28 22 
79 25 21 71 18 15 59 10 7 53 7 4 51 9 6 49 11 9 45 12 10 40 12 10 
40 14 11 42 15 14 44 16 18 43 16 18 42 16 17 40 16 17 37 15 15 34 13 14 
30 11 12 26 9 9 21 6 6 16 4 3 13 3 2 22 14 12 39 31 29 61 55 53 
51 45 44 28 23 23 15 10 10 11 6 6 11 6 6 8 4 4 6 2 2 13 10 10 
56 52 52 82 79 74 105 104 93 137 135 126 107 105 96 58 55 48 13 11 9 5 2 1 
11 8 6 25 22 18 39 35 32 66 62 59 124 118 116 127 121 119 97 90 89 23 16 15 
16 8 6 23 15 13 30 21 19 27 18 15 20 12 8 9 2 1 65 57 54 118 109 103 
144 134 128 123 122 110 108 112 97 117 118 103 132 128 115 127 117 106 89 70 62 79 50 47 
68 31 30 48 7 7 72 15 19 93 21 29 103 22 32 110 23 34 114 23 35 116 22 34 
113 20 33 108 19 31 102 18 29 94 16 26 86 15 24 78 14 22 71 15 21 66 16 20 
62 16 19 69 15 16 73 16 15 74 16 15 74 17 15 76 18 16 79 21 18 86 28 23 
94 35 30 102 44 37 107 48 41 112 54 46 115 58 49 98 40 32 93 37 28 101 46 36 
129 73 64 145 89 81 152 96 88 143 88 81 117 62 56 83 28 23 78 23 18 80 24 20 
83 28 25 67 23 17 64 24 18 67 28 23 59 24 18 51 19 13 44 13 10 43 14 11 
44 16 14 45 17 17 44 16 16 44 15 17 45 14 19 47 15 20 48 15 21 48 14 21 
46 15 21 44 15 20 40 14 19 35 14 16 30 14 14 25 13 12 20 12 8 16 11 6 
13 9 4 7 4 1 27 24 22 52 49 46 64 60 57 34 31 30 4 2 1 11 9 5 
9 7 3 6 4 0 6 3 0 40 37 34 85 82 77 134 131 125 110 108 102 74 73 66 
52 52 43 25 25 18 6 5 0 5 4 0 12 11 5 19 18 9 21 20 11 28 28 19 
37 37 27 45 46 35 93 94 83 130 131 119 136 137 125 56 58 52 0 2 0 0 2 0 
70 72 65 123 126 115 138 142 131 82 86 77 51 55 46 64 68 59 75 79 71 97 101 93 
134 138 129 133 137 128 115 119 110 80 84 75 102 107 98 123 127 118 136 141 132 49 54 46 
28 30 21 80 80 64 124 123 109 136 136 122 116 118 103 112 114 101 118 122 108 134 139 125 
101 109 94 70 79 63 40 50 34 56 67 51 66 78 61 72 86 67 91 105 85 96 110 89 
89 104 81 83 97 73 81 95 70 84 97 71 99 112 85 111 124 95 123 136 104 145 158 127 
156 165 137 160 162 140 168 171 149 179 182 160 189 193 172 193 199 179 194 200 181 191 198 180 
182 191 172 174 183 166 167 176 159 163 170 154 161 167 152 159 164 150 148 151 138 132 134 122 
112 112 100 80 77 67 55 50 40 36 28 19 27 16 7 23 12 3 23 10 3 25 10 3 
28 9 5 31 8 8 31 9 8 32 11 9 33 13 12 35 17 16 35 17 17 33 16 17 
28 14 14 23 10 10 18 7 7 13 4 4 10 3 4 14 7 9 27 22 24 47 43 45 
57 54 57 41 39 41 21 19 22 7 6 8 9 8 10 7 6 9 4 3 8 2 1 6 
6 5 4 13 12 5 23 22 12 31 29 20 47 43 35 75 69 62 86 79 74 97 89 85 
110 102 98 116 106 104 113 102 101 99 88 87 60 50 47 35 25 22 32 24 19 72 64 58 
105 99 91 125 120 110 142 139 128 147 145 133 136 137 122 93 95 80 81 83 68 106 108 92 
125 128 117 127 128 120 108 109 100 99 101 91 66 68 58 8 9 1 49 50 38 75 76 62 
88 89 73 122 123 106 134 135 116 125 126 108 129 130 111 120 122 103 103 104 86 101 102 84 
116 117 99 143 144 126 137 138 119 125 126 109 112 113 97 116 118 102 105 106 90 79 79 65 
31 23 19 56 45 42 121 109 103 129 117 110 99 87 80 52 42 34 45 36 28 28 20 15 
14 7 5 50 43 36 70 64 55 87 82 72 129 125 115 106 103 93 55 52 43 19 17 12 
18 16 10 36 35 24 70 68 58 93 92 81 105 104 93 95 95 84 102 102 91 109 106 97 
92 81 79 89 76 75 84 69 69 53 37 36 40 21 20 35 14 13 41 17 15 45 19 17 
48 20 18 50 19 18 50 18 17 50 17 17 52 19 19 51 18 19 49 18 19 46 18 18 
44 17 19 41 17 21 38 17 20 35 16 20 31 14 18 26 11 16 22 9 14 17 8 11 
10 8 7 5 4 3 12 11 10 40 39 37 55 54 52 49 49 47 13 12 10 13 12 10 
14 13 12 11 10 8 
13 7 7 12 6 6 52 48 45 63 59 57 53 49 48 21 18 15 10 7 4 11 7 4 
6 3 1 9 6 3 21 17 12 54 50 45 85 82 76 112 108 102 120 117 109 122 117 110 
120 114 107 117 111 103 119 113 104 124 117 108 133 127 117 140 133 123 142 134 125 128 121 111 
113 104 94 105 97 88 124 119 117 125 122 121 102 99 98 23 21 19 4 4 1 21 22 17 
85 86 77 116 118 106 136 136 123 148 146 133 143 138 125 132 125 111 122 111 97 132 118 105 
142 127 113 141 126 112 138 123 109 121 109 94 79 69 53 46 39 23 51 47 31 123 123 106 
134 136 118 135 136 119 139 135 120 130 124 110 125 117 104 129 121 108 144 134 122 131 121 108 
73 62 50 55 44 32 49 38 26 53 43 31 87 80 66 117 112 97 137 134 119 103 100 85 
75 72 57 57 54 39 93 89 74 120 114 100 134 126 112 144 132 120 109 95 85 23 8 3 
48 30 22 70 52 40 84 70 54 62 48 33 51 36 21 52 35 20 110 91 76 138 116 100 
137 111 95 130 98 84 110 72 59 80 36 24 81 32 22 82 29 20 85 27 20 91 31 25 
88 28 23 78 20 16 65 11 7 57 6 3 53 7 4 51 10 7 47 12 8 42 12 7 
40 13 9 41 14 13 44 15 18 43 16 18 41 16 17 40 16 16 37 15 15 34 13 14 
30 11 12 26 8 9 21 6 6 16 4 3 13 3 1 22 13 12 39 31 29 61 55 53 
51 45 44 28 23 23 15 10 10 11 6 6 11 6 6 8 4 4 6 2 2 13 10 10 
56 52 52 81 79 73 102 102 92 135 134 126 104 103 95 56 55 48 16 14 10 5 3 1 
9 7 5 31 27 24 54 50 47 83 79 75 122 116 113 120 114 112 92 85 83 24 16 14 
16 8 6 23 14 12 30 20 18 27 17 15 20 11 8 9 2 1 64 55 52 116 106 102 
144 133 128 105 105 94 80 86 71 96 101 86 117 118 104 123 118 107 103 91 82 96 75 70 
80 51 49 47 13 11 66 17 20 82 21 27 86 16 24 97 21 30 104 23 34 106 22 33 
103 20 31 99 19 29 93 17 27 86 16 24 78 16 23 72 16 21 66 16 20 61 17 19 
58 18 19 58 17 12 59 17 9 62 18 10 66 17 10 73 20 14 84 27 20 97 36 30 
108 44 38 116 51 44 117 54 47 117 58 49 116 60 50 92 43 31 81 37 23 80 41 27 
106 69 54 124 88 73 135 99 85 130 91 79 105 63 53 70 23 16 68 17 11 73 19 15 
81 25 22 65 21 16 63 23 17 66 27 22 57 22 16 49 17 11 42 11 8 42 13 9 
43 14 13 44 16 16 45 17 17 45 16 18 46 15 20 47 16 21 48 15 21 48 15 22 
46 15 21 43 15 20 40 14 19 35 14 16 30 13 14 24 12 11 20 12 8 16 11 6 
13 9 4 7 4 1 28 24 22 52 49 46 64 60 58 34 31 30 5 2 1 11 9 5 
9 7 3 6 4 0 5 3 0 39 37 34 84 83 78 134 132 126 110 109 102 73 74 66 
52 52 43 24 25 18 5 5 0 4 5 0 12 12 5 18 19 10 20 21 12 28 29 20 
38 39 29 47 49 37 93 96 83 128 130 118 133 136 124 57 60 51 2 5 0 1 4 0 
67 70 63 119 124 113 138 143 133 82 87 78 43 48 40 37 42 34 43 48 40 64 69 61 
105 110 102 124 129 121 129 133 125 118 122 113 127 132 123 136 140 131 142 146 136 51 54 48 
25 26 18 74 71 55 118 116 101 129 127 113 105 106 90 92 94 79 99 102 87 125 129 113 
112 118 102 95 103 87 74 83 67 53 63 45 46 57 38 52 64 44 67 79 58 76 89 66 
81 94 69 79 92 66 83 96 69 92 104 77 106 118 89 122 133 102 137 148 116 152 163 130 
164 171 142 173 175 151 180 183 158 189 193 168 198 203 179 204 210 187 205 211 189 201 208 186 
190 199 176 179 188 165 168 177 155 161 169 148 159 166 145 158 164 144 151 156 137 139 142 125 
123 124 108 96 95 80 69 65 51 43 38 24 28 20 7 20 12 1 17 8 1 19 8 1 
25 10 5 30 12 8 29 11 7 29 11 7 30 13 9 32 16 13 32 16 15 29 15 14 
26 14 13 22 10 10 17 7 7 14 5 6 11 3 5 14 7 9 27 22 24 47 43 46 
57 53 57 41 39 42 20 19 22 7 6 8 8 9 10 6 6 9 4 4 7 2 2 5 
5 7 4 10 12 4 14 15 5 15 15 7 21 19 14 37 33 28 42 37 33 56 49 46 
86 77 73 108 98 95 123 112 110 130 118 116 80 69 66 46 34 31 37 26 23 93 84 79 
129 122 115 132 126 117 142 138 128 147 145 133 145 146 132 116 118 104 111 113 99 134 137 123 
131 134 123 129 131 122 128 130 121 115 118 107 75 77 67 7 8 1 55 56 44 88 89 74 
108 108 92 123 123 105 128 128 109 124 124 105 114 114 95 116 116 97 127 128 108 127 128 108 
128 128 110 129 129 111 124 124 106 113 114 96 102 102 86 124 125 109 120 121 105 95 94 80 
35 27 23 55 44 41 120 108 101 131 119 112 103 91 84 57 46 38 48 39 31 29 21 16 
13 6 5 50 43 36 72 66 57 92 87 77 138 134 124 112 109 98 54 51 42 15 13 10 
10 8 2 22 20 10 43 41 31 55 53 43 62 60 50 66 65 55 81 79 70 100 96 88 
121 109 107 128 114 113 118 102 102 68 50 49 44 24 23 35 12 12 41 17 15 46 19 17 
50 20 19 50 18 18 50 18 17 51 18 18 52 19 19 51 18 19 48 18 19 46 18 18 
43 17 19 41 16 20 37 16 19 34 15 19 29 14 17 25 11 16 21 9 13 17 8 10 
11 9 8 6 5 4 13 13 11 42 41 39 57 56 54 51 50 48 14 13 12 14 13 11 
15 14 12 12 11 9 
15 8 8 11 5 5 52 48 45 63 59 56 53 49 46 21 17 13 9 5 2 9 5 2 
4 1 1 8 6 3 23 20 14 64 62 55 102 99 93 132 129 123 131 127 120 123 119 112 
112 107 99 96 90 82 112 106 97 140 133 124 159 153 143 148 140 131 127 119 110 116 108 99 
106 97 88 104 94 87 124 119 117 132 128 128 113 110 109 30 29 25 10 10 4 31 32 25 
112 113 104 142 143 132 151 150 137 139 136 123 134 129 115 131 122 109 126 114 101 127 112 99 
129 113 98 131 115 101 151 136 121 149 136 120 95 85 68 57 50 33 59 55 38 129 129 111 
139 140 121 138 138 120 138 131 117 137 128 115 139 128 116 145 133 121 148 137 125 129 118 106 
77 65 53 57 46 34 45 34 22 35 26 14 80 73 60 120 114 100 144 139 124 106 101 86 
75 69 55 57 52 38 79 73 59 105 97 84 133 123 111 155 143 131 127 113 101 43 27 17 
51 34 24 61 45 33 71 57 41 66 51 35 64 47 31 64 46 29 120 99 82 143 118 101 
136 105 88 125 88 73 109 66 51 88 38 25 87 31 21 91 30 22 99 33 26 105 37 31 
101 33 28 89 24 20 73 14 9 63 8 4 58 8 4 55 11 6 50 12 6 43 11 5 
41 12 6 42 13 11 44 15 18 43 16 18 41 16 17 40 16 16 37 15 15 34 13 14 
30 11 12 25 8 9 20 5 6 16 3 3 12 3 1 22 13 12 39 31 29 61 55 53 
51 45 44 28 23 23 15 10 10 11 6 6 11 6 6 8 4 4 6 2 2 13 10 10 
56 52 52 79 77 73 98 100 91 132 132 125 104 104 97 61 60 53 29 27 21 19 17 12 
23 21 18 50 47 43 78 74 70 102 97 94 116 109 107 109 102 99 82 75 73 22 14 12 
16 7 5 23 13 11 30 18 17 28 16 14 22 11 8 12 2 1 64 53 51 115 103 100 
143 131 128 91 91 81 57 66 50 78 84 69 95 98 85 108 107 95 115 110 99 114 101 94 
98 77 72 60 30 28 68 28 29 73 24 27 67 10 15 82 19 25 92 23 32 93 22 30 
91 20 28 88 19 26 83 17 24 76 16 21 70 16 20 65 16 19 60 17 18 57 18 18 
55 18 18 48 20 8 48 21 4 53 22 6 63 22 9 76 27 16 93 36 26 110 45 37 
121 51 45 126 55 48 125 58 50 122 61 51 117 63 51 90 49 33 70 39 22 58 35 18 
75 57 39 93 78 57 110 95 73 114 92 74 94 65 51 62 24 14 63 16 10 71 18 15 
82 26 24 70 25 20 67 27 21 69 30 25 58 24 18 49 17 11 41 10 6 40 11 8 
41 13 11 43 15 15 44 16 16 45 16 18 46 16 21 48 16 21 49 16 22 49 15 22 
46 15 21 43 15 20 40 14 19 35 14 16 30 13 14 24 12 11 20 11 8 16 11 6 
13 9 4 8 4 1 28 24 22 53 49 46 64 60 58 35 31 30 5 2 1 11 9 5 
9 7 3 6 4 0 4 3 0 38 37 34 83 83 78 133 133 126 109 110 103 73 74 66 
51 53 43 23 25 18 4 6 0 4 6 0 11 13 5 18 20 10 20 23 13 28 31 21 
38 41 30 49 52 39 92 95 82 124 128 114 129 133 120 57 61 50 4 9 1 1 5 0 
63 68 60 114 120 109 137 144 134 85 92 83 43 49 41 23 29 21 22 28 20 35 41 34 
65 70 64 102 107 100 132 137 129 153 158 148 149 154 145 147 151 142 148 151 140 52 54 49 
21 21 14 65 60 43 116 111 96 126 123 107 95 93 77 77 77 60 81 81 65 104 106 88 
116 120 103 118 123 107 109 115 98 59 67 48 38 47 26 40 50 28 45 55 32 55 65 41 
69 80 55 77 88 62 91 102 74 109 119 89 118 128 98 134 143 111 152 161 128 162 171 137 
175 181 150 190 192 166 194 197 170 200 205 177 208 213 185 214 220 193 215 222 195 212 219 192 
200 208 180 185 194 166 170 179 151 161 169 141 156 164 136 153 160 133 148 153 128 136 140 116 
122 125 102 108 108 87 86 83 63 62 58 38 46 41 24 37 31 18 31 25 17 31 23 16 
35 24 17 39 24 18 36 21 15 33 19 12 30 17 11 30 16 12 28 15 12 26 14 11 
24 13 11 20 10 9 17 7 7 15 6 7 12 4 6 14 7 9 27 22 24 47 43 46 
57 54 57 41 39 41 20 20 21 6 7 8 8 9 10 6 7 8 3 5 6 1 3 4 
10 13 8 17 22 11 19 22 12 20 22 16 20 21 17 20 18 14 14 11 7 27 21 18 
69 61 57 97 88 84 124 113 109 149 137 134 97 85 82 57 45 42 42 30 27 111 101 96 
146 138 131 129 123 114 129 124 115 130 128 118 134 135 122 118 120 107 119 121 108 138 141 128 
123 125 114 122 124 114 139 141 131 124 125 114 80 81 72 8 9 3 61 61 50 99 98 83 
123 121 105 118 116 99 117 115 97 118 116 97 91 88 70 102 99 80 143 140 121 145 143 123 
130 128 109 103 102 84 102 100 82 96 94 77 91 89 73 130 129 113 133 133 117 108 105 91 
38 30 26 56 44 41 123 109 102 138 125 117 113 100 92 67 56 48 57 46 38 36 26 21 
17 9 7 56 49 41 81 74 65 102 97 88 146 143 133 118 114 104 58 55 46 21 19 16 
21 19 13 34 32 22 37 34 26 30 27 19 26 23 15 48 46 38 68 65 57 93 88 81 
141 128 127 156 141 141 143 126 127 78 59 59 47 25 26 35 10 11 42 16 14 48 20 18 
51 21 20 50 17 17 50 16 16 51 17 17 52 19 19 51 18 19 48 17 18 45 17 17 
43 16 18 40 16 19 36 15 18 32 15 18 28 13 17 23 11 15 20 9 13 16 8 10 
12 11 9 8 7 5 14 13 12 41 40 38 55 54 53 49 48 47 13 12 10 13 12 10 
15 14 13 14 13 11 
15 9 9 10 5 5 51 47 44 61 57 54 50 46 43 20 16 12 8 4 1 6 3 1 
4 1 0 5 2 1 16 14 10 68 66 60 105 103 96 127 124 118 114 112 104 96 93 85 
73 70 61 42 37 28 65 59 50 108 101 92 133 127 117 109 101 93 74 66 57 73 63 55 
73 63 55 81 72 65 115 110 109 135 131 129 125 122 119 46 45 41 25 25 19 45 45 37 
126 126 116 138 137 126 120 117 105 73 68 54 55 48 34 47 37 25 43 29 23 60 43 33 
81 63 49 102 83 69 136 117 103 142 126 111 90 78 61 68 59 41 80 75 56 144 143 122 
130 129 109 110 106 89 103 91 79 106 92 81 113 100 89 127 113 102 137 124 113 133 120 109 
107 94 82 89 78 66 63 52 42 21 11 6 64 56 46 112 105 91 154 147 133 105 98 84 
73 66 53 74 65 52 71 61 49 82 71 59 111 99 86 145 131 120 145 130 119 106 90 80 
101 85 75 91 75 62 76 59 42 101 83 67 117 96 80 121 99 82 152 126 109 148 117 99 
111 74 58 98 55 40 94 44 30 97 40 27 110 46 35 116 47 37 118 45 36 124 48 42 
119 44 38 105 34 28 87 21 15 75 15 9 67 14 8 63 15 10 56 15 10 48 13 7 
45 13 6 44 14 11 44 15 18 43 16 18 41 16 17 40 16 16 36 14 15 33 13 13 
30 11 12 25 8 9 20 5 6 16 3 3 12 3 1 22 13 12 39 31 29 61 55 53 
51 45 44 28 23 23 15 10 10 11 6 6 11 6 6 8 4 4 6 2 2 13 10 10 
56 52 52 79 77 73 99 100 93 137 138 131 120 120 113 89 89 82 76 75 68 72 71 65 
79 76 72 102 99 95 120 115 112 126 119 117 107 100 98 93 85 83 68 60 58 17 10 10 
14 5 4 22 11 10 29 17 16 30 16 15 26 12 10 17 4 2 66 53 51 115 101 99 
142 128 126 99 97 88 67 73 59 74 78 64 62 65 52 70 70 58 112 109 98 123 115 106 
120 106 99 102 81 76 88 60 57 72 36 35 51 7 7 68 18 20 80 24 28 82 23 27 
80 20 25 78 18 22 75 16 20 69 15 18 64 15 16 61 15 15 57 15 14 55 16 14 
53 16 15 46 22 8 48 27 6 59 32 12 80 41 24 102 51 37 123 62 49 131 61 51 
137 62 54 141 64 56 136 65 55 128 66 54 118 65 50 76 38 22 44 20 7 22 8 4 
26 19 9 44 40 23 71 66 41 92 81 59 88 68 51 68 38 26 77 34 27 90 39 35 
104 49 47 91 46 41 83 43 37 78 39 34 69 35 28 55 23 18 41 11 7 40 11 7 
40 12 10 41 14 14 42 14 14 43 14 16 44 14 19 47 16 21 49 16 22 49 15 22 
46 15 21 43 15 20 40 14 19 35 14 16 30 13 14 24 12 11 20 11 8 17 11 6 
14 10 5 8 4 1 28 24 22 53 49 46 64 60 58 35 31 30 5 2 1 11 9 5 
9 7 3 6 4 0 4 3 0 38 38 34 82 83 77 130 130 124 107 109 101 73 75 66 
50 52 43 23 26 18 4 8 1 3 7 1 10 14 5 17 21 10 19 25 14 27 32 21 
36 41 30 47 52 38 86 91 77 116 121 107 122 127 114 55 61 48 6 12 1 1 6 0 
57 63 55 106 113 104 133 141 132 88 97 88 56 65 56 51 60 51 36 44 35 23 30 23 
16 20 15 50 55 48 92 98 88 141 146 135 136 139 129 137 140 129 148 151 138 53 55 48 
28 26 18 80 72 55 133 126 109 136 130 113 88 84 66 74 71 53 63 61 43 54 54 37 
86 88 70 111 113 95 127 131 112 99 104 85 81 87 66 71 78 55 54 62 38 55 63 38 
70 78 52 91 99 72 116 125 96 143 152 120 148 155 123 163 170 136 185 191 157 197 203 169 
205 209 177 210 211 183 214 215 187 218 220 191 222 226 195 226 231 200 226 232 200 223 228 197 
209 216 184 193 199 167 175 182 148 164 170 137 152 159 126 142 149 116 137 142 111 128 132 103 
118 121 93 111 111 85 113 111 86 119 115 92 126 121 99 126 120 100 121 114 96 112 106 88 
93 85 71 74 63 53 65 54 46 54 43 35 42 31 24 32 21 15 27 15 11 24 12 10 
22 11 9 19 9 8 17 7 7 15 6 7 12 4 5 14 8 8 27 22 24 47 43 45 
57 54 55 40 39 40 20 20 20 6 7 7 7 9 9 4 8 7 2 6 5 1 4 3 
22 28 21 46 54 42 68 76 64 97 102 92 108 111 102 87 88 80 50 48 41 37 33 26 
66 60 55 84 76 71 110 100 96 151 140 137 111 99 95 73 61 57 51 39 34 122 112 106 
148 139 133 106 99 92 84 79 70 69 67 57 63 62 51 44 43 33 37 37 27 45 47 36 
64 64 53 92 91 80 127 127 116 124 122 112 92 89 78 30 27 16 86 82 69 121 117 102 
136 131 115 106 100 83 91 85 68 90 82 65 50 43 30 69 62 48 134 126 108 137 130 112 
111 104 86 63 58 40 67 61 43 67 62 45 70 66 49 124 119 103 133 128 112 106 101 87 
38 29 25 61 47 44 133 118 111 154 138 132 131 116 109 88 73 66 75 63 55 52 41 34 
33 24 17 73 65 56 100 93 84 120 114 105 136 131 121 107 102 93 63 58 48 50 47 38 
79 75 67 114 110 102 101 97 89 70 65 57 44 38 31 69 64 57 79 74 67 95 87 81 
150 135 134 162 144 145 143 123 125 75 53 54 47 22 24 37 11 12 44 16 15 50 20 19 
53 20 20 50 16 16 48 14 14 48 14 14 52 18 18 51 18 19 48 17 18 45 16 16 
42 16 17 39 15 18 34 15 18 31 14 17 28 13 16 23 10 14 19 9 12 16 8 11 
13 11 10 7 6 5 11 10 9 35 35 33 48 47 45 41 40 39 7 6 5 7 6 5 
11 10 8 13 12 10 
15 9 9 10 5 5 50 45 42 61 55 52 51 46 42 22 17 14 9 5 2 6 2 0 
3 1 0 5 2 0 17 15 10 72 71 64 109 108 101 127 126 119 105 104 96 83 81 74 
59 56 48 24 20 12 54 48 40 104 98 90 126 119 112 93 86 78 51 42 35 52 42 34 
54 43 36 68 58 53 117 110 109 134 129 128 125 120 118 68 65 61 55 53 48 69 67 60 
122 119 110 132 128 118 114 108 97 53 45 32 40 28 16 40 25 14 42 23 16 52 31 20 
69 47 33 98 75 61 134 112 97 144 124 109 100 84 67 81 69 52 91 82 63 141 136 116 
130 127 107 112 106 89 100 84 73 92 76 65 93 77 66 106 90 80 124 109 98 130 116 105 
119 106 94 111 99 87 84 73 63 32 21 15 62 53 42 105 96 84 156 147 134 108 99 86 
75 65 52 71 59 47 76 63 52 87 73 62 105 90 79 125 109 98 132 116 106 126 109 99 
120 103 93 111 93 80 100 79 62 121 98 81 133 108 91 137 109 92 146 114 96 135 98 80 
107 63 46 99 48 33 101 43 28 111 46 32 125 54 42 132 55 45 133 52 43 134 52 44 
128 47 40 116 38 31 98 26 20 84 19 13 72 14 8 65 13 8 57 12 7 50 11 5 
47 12 5 46 14 11 45 17 19 43 17 18 41 16 17 39 15 15 35 13 13 32 12 12 
30 11 12 25 8 9 21 6 6 17 4 3 13 3 1 22 14 12 39 31 30 61 54 53 
50 44 43 26 21 21 13 9 8 12 7 7 14 9 9 7 3 3 6 2 2 15 11 11 
56 52 52 82 80 77 103 104 97 128 129 123 122 122 116 109 109 103 103 103 97 102 101 95 
104 102 96 112 108 103 114 109 105 111 104 100 97 90 86 74 66 63 49 39 37 23 14 13 
22 11 10 27 14 12 31 17 16 32 16 16 28 12 12 17 3 2 68 53 52 118 101 100 
142 126 125 105 98 91 74 73 62 71 70 58 48 46 35 50 48 37 97 94 83 107 101 91 
110 101 92 111 98 90 101 83 76 88 64 58 73 42 37 67 30 27 66 23 21 69 21 21 
70 19 19 69 16 17 68 15 14 66 15 14 65 16 15 65 18 16 65 20 17 64 21 18 
64 21 19 55 27 11 58 35 12 74 43 21 97 53 34 117 62 46 135 69 55 144 69 58 
151 71 61 156 74 65 149 74 63 138 72 59 123 68 52 73 34 19 37 14 2 15 4 1 
14 11 1 25 26 8 45 46 20 65 58 34 68 53 33 63 37 22 74 36 26 90 43 37 
106 55 52 100 57 51 94 54 48 88 49 44 78 43 37 64 32 27 50 19 16 45 16 13 
42 14 12 41 13 13 42 14 14 44 15 17 45 15 20 48 16 21 49 16 22 48 14 22 
45 14 20 42 13 19 38 12 17 34 13 15 29 12 13 24 11 10 20 12 8 17 12 7 
14 10 5 7 3 1 29 25 23 56 51 48 64 60 57 35 31 30 6 3 1 13 10 6 
10 7 4 6 4 1 7 5 2 39 39 34 81 82 76 126 127 120 115 117 109 92 95 86 
73 76 66 50 55 45 35 41 31 37 43 34 42 48 38 42 49 37 32 39 27 30 37 25 
34 41 28 45 52 37 86 93 78 117 125 110 126 134 120 55 62 50 4 9 1 1 7 0 
56 64 56 105 115 105 134 145 135 88 98 89 56 66 57 54 64 55 40 49 40 27 35 26 
15 20 12 37 43 33 70 76 64 114 119 107 122 126 114 134 137 125 152 154 140 54 56 49 
30 27 19 88 77 59 134 124 105 135 126 107 89 80 61 77 70 51 63 58 39 47 43 25 
69 67 48 91 90 71 113 113 94 109 110 90 100 102 81 86 89 67 77 81 57 75 80 55 
80 84 58 89 93 65 122 126 97 169 174 142 171 175 142 183 186 152 201 204 170 214 217 183 
221 222 189 223 222 191 219 218 187 220 220 188 225 226 193 230 233 198 232 235 200 229 232 197 
215 220 183 196 201 163 176 180 142 167 171 133 153 158 120 140 144 107 138 141 106 136 138 104 
134 135 103 136 135 105 145 142 113 156 153 125 166 162 135 168 163 138 167 161 137 163 157 133 
147 140 122 128 121 109 120 113 102 106 98 88 86 78 69 61 52 45 46 37 31 34 24 20 
20 10 8 14 5 4 13 4 5 15 6 7 13 5 5 14 8 8 28 23 24 46 43 43 
55 53 53 40 41 39 19 21 19 4 7 4 4 7 5 3 7 4 2 7 3 1 7 2 
26 35 25 52 64 49 75 86 72 105 114 101 119 126 113 104 108 96 78 80 69 67 66 57 
84 80 73 90 84 77 104 96 89 129 120 115 106 96 90 84 74 67 72 60 54 127 117 110 
144 135 128 104 97 89 66 61 52 42 38 29 34 31 22 22 20 11 17 16 7 19 19 11 
37 33 24 76 70 60 136 130 120 133 126 116 106 97 87 55 46 35 102 92 79 129 118 104 
136 124 110 107 94 79 89 76 60 82 67 52 40 26 17 62 48 38 134 120 102 138 124 107 
105 92 75 48 35 19 51 39 23 53 41 26 60 49 35 128 117 102 142 131 117 114 103 90 
43 29 26 58 42 39 122 103 96 138 121 114 132 114 107 112 95 88 101 87 79 80 67 59 
62 51 43 99 89 81 117 108 99 122 114 105 120 113 105 92 85 76 57 51 42 54 48 40 
84 78 71 121 114 107 115 108 102 97 89 83 80 72 67 92 84 79 97 88 83 105 94 90 
139 120 121 142 121 123 124 102 104 77 53 54 53 27 29 43 14 16 46 16 15 51 19 19 
55 20 21 53 17 18 49 14 14 48 12 13 53 17 18 53 19 20 51 19 20 48 19 19 
44 18 20 40 16 20 34 15 18 30 14 16 26 12 15 21 10 13 18 8 12 16 9 11 
14 13 12 7 6 5 11 10 9 36 35 33 49 48 46 42 41 40 5 4 4 3 3 2 
7 6 5 11 11 9 
15 8 8 12 6 5 49 43 41 61 54 51 52 46 43 23 18 15 10 6 3 7 3 0 
4 1 0 6 4 1 20 18 12 74 74 67 111 111 104 129 129 122 100 100 92 76 75 68 
53 50 44 20 16 11 54 49 43 108 101 95 123 116 110 84 76 71 38 29 24 40 29 23 
43 31 26 60 49 45 121 113 112 134 127 126 123 117 115 92 87 84 89 84 80 98 93 87 
116 110 102 129 121 112 118 108 99 53 40 28 49 32 21 60 40 28 70 47 34 67 41 28 
72 45 31 102 74 60 136 108 94 148 122 108 114 94 77 97 80 63 101 87 68 136 126 106 
136 128 109 125 116 99 108 89 79 87 67 58 77 58 48 87 68 58 110 93 82 125 110 99 
127 114 102 127 114 103 103 91 80 46 34 23 64 53 41 101 89 78 153 141 129 113 101 89 
81 66 55 65 49 38 87 71 61 101 84 74 103 84 74 104 85 75 111 93 83 126 107 97 
126 108 98 128 107 95 132 105 88 135 106 89 136 104 87 135 100 83 126 87 69 117 72 55 
108 56 40 108 50 33 114 49 33 126 53 38 139 60 46 145 61 49 146 57 47 142 53 44 
134 47 39 124 40 33 108 30 24 93 22 16 77 14 7 66 10 4 57 8 3 51 10 3 
49 11 3 48 15 11 47 19 21 44 17 19 41 15 17 38 13 14 34 12 12 31 11 12 
29 10 11 26 8 9 22 6 7 17 4 4 13 4 2 23 14 12 39 31 30 61 54 52 
49 44 42 25 20 20 12 7 7 13 8 8 17 12 12 6 3 3 5 2 2 17 12 12 
55 50 50 84 82 79 106 107 101 118 119 113 123 123 118 125 124 120 123 122 117 122 120 115 
118 115 109 107 103 97 92 87 81 80 74 69 80 73 68 55 45 41 32 21 17 31 19 16 
31 17 15 32 16 15 33 17 15 35 17 17 31 14 15 20 5 5 72 55 55 121 102 103 
144 124 126 110 95 92 78 68 60 68 59 51 43 35 26 40 33 24 79 73 63 83 77 67 
91 85 74 111 103 92 110 99 89 109 94 84 108 88 79 73 46 38 53 20 14 58 19 14 
61 17 13 63 15 12 62 13 9 64 14 10 68 18 13 74 23 18 76 26 21 78 27 22 
79 28 24 72 35 17 76 44 20 94 55 31 113 63 43 129 67 50 142 70 55 154 74 61 
163 79 67 169 84 73 161 83 70 149 79 64 130 72 55 76 34 20 41 14 2 22 8 1 
17 12 1 20 20 2 29 30 4 38 31 10 44 30 12 50 27 13 63 29 18 82 40 31 
102 56 50 103 61 55 101 62 56 96 58 53 86 51 45 74 42 36 61 31 27 52 23 20 
45 17 15 41 13 13 43 15 15 45 16 19 48 18 23 48 17 22 48 16 21 48 14 21 
44 13 19 40 11 17 36 10 15 32 11 13 28 11 11 23 11 10 20 12 8 18 12 7 
14 10 6 7 2 1 31 25 24 59 53 51 64 59 57 35 31 29 8 4 2 15 12 8 
10 8 5 5 4 1 9 8 4 39 39 34 78 79 73 124 126 118 126 129 121 116 121 112 
106 111 100 90 96 84 79 86 74 83 92 79 84 93 81 75 84 71 47 56 43 34 43 31 
32 41 28 43 53 36 86 97 80 121 131 116 132 143 128 55 63 53 2 8 1 3 10 2 
58 69 59 107 120 109 135 148 138 84 97 87 49 62 52 47 57 48 40 51 40 34 44 32 
29 38 25 39 46 33 57 64 49 85 90 75 109 113 98 131 133 119 152 152 137 55 55 48 
31 27 18 90 76 55 130 116 95 132 119 98 95 83 63 83 72 52 69 60 40 53 46 27 
58 52 32 71 66 46 91 87 67 106 103 82 109 107 85 101 100 77 104 105 80 100 102 76 
92 94 66 83 84 56 121 122 91 188 189 156 190 190 157 199 199 165 213 212 178 224 223 189 
230 228 194 230 227 193 217 214 180 216 214 179 224 222 186 231 231 193 234 234 196 232 233 194 
219 220 180 197 199 158 175 176 134 169 171 128 156 157 115 142 143 102 145 146 106 151 150 112 
158 157 121 168 167 132 177 175 142 186 182 151 192 188 158 195 190 162 197 191 165 201 194 168 
194 189 168 185 181 166 180 176 162 164 159 147 140 134 124 101 95 86 74 66 59 48 40 35 
20 11 8 10 2 1 9 1 2 15 6 7 13 5 6 14 8 8 29 24 23 44 42 40 
52 52 49 40 42 39 18 22 17 2 8 1 2 7 1 2 9 2 3 11 2 2 11 2 
27 39 26 51 66 49 66 80 63 89 101 85 104 113 98 101 109 95 101 107 93 104 106 94 
109 108 99 104 101 92 100 95 86 100 93 86 96 89 81 94 86 77 95 85 77 129 120 112 
136 129 120 106 100 91 59 53 45 30 24 17 23 19 11 21 18 10 21 18 11 21 18 12 
26 17 10 67 55 47 146 134 126 141 127 120 120 105 97 83 67 58 117 100 89 134 116 103 
135 115 102 112 90 77 95 72 59 82 59 46 45 22 16 66 44 36 134 112 96 137 115 99 
103 81 66 45 22 9 46 25 12 48 28 16 57 37 25 134 114 103 152 133 121 124 105 94 
49 30 27 52 32 29 100 78 71 111 90 83 123 103 96 134 115 107 129 113 105 114 99 91 
99 85 77 129 116 109 131 120 112 118 108 100 101 92 84 73 66 57 47 40 32 48 39 33 
72 63 58 102 93 88 112 102 97 117 106 102 119 107 104 117 105 102 118 106 103 120 105 104 
118 97 99 111 87 90 99 73 77 77 50 53 59 31 33 48 17 19 48 15 15 53 18 18 
58 20 22 56 19 20 52 14 15 49 11 12 54 17 18 55 20 21 54 22 23 51 22 23 
47 20 22 42 18 21 35 15 18 29 13 15 25 10 13 19 9 12 17 8 11 16 9 11 
15 13 12 7 6 5 11 11 10 38 37 36 54 53 51 47 46 45 7 6 6 2 1 1 
4 3 3 10 9 8 
17 11 11 16 9 9 51 43 42 62 54 52 54 46 44 22 15 13 9 4 1 8 4 0 
5 2 0 8 7 4 22 21 16 70 70 63 108 107 101 129 129 123 98 97 91 69 68 61 
42 40 34 15 11 8 47 42 39 96 90 84 106 98 94 66 56 53 21 10 7 28 17 13 
35 22 19 56 43 41 120 110 110 138 129 130 135 127 126 116 108 106 116 108 104 124 116 110 
134 124 117 138 127 118 121 107 97 56 38 27 55 33 22 71 45 34 86 57 45 81 49 37 
81 47 34 100 65 53 129 96 83 143 112 98 124 97 80 115 91 74 120 100 83 150 134 115 
146 132 114 132 117 102 112 88 80 85 61 53 70 47 38 75 53 45 98 79 69 121 105 94 
142 128 117 138 125 113 104 91 81 29 16 10 61 48 39 103 89 78 144 129 119 117 100 90 
92 73 64 77 55 47 103 81 73 109 87 78 87 65 56 91 69 60 100 78 70 114 94 85 
132 111 102 148 122 111 162 127 111 155 117 102 144 103 88 129 87 70 115 67 50 105 52 35 
100 40 25 108 42 26 121 48 32 139 59 43 154 68 54 159 67 55 154 60 48 150 55 45 
142 49 41 132 43 35 116 33 26 100 25 18 84 18 10 73 13 6 63 11 4 56 11 3 
53 12 4 50 14 11 45 17 19 42 15 17 39 14 15 36 12 13 33 11 11 31 11 11 
29 10 11 26 8 9 22 6 7 17 4 4 13 3 1 22 13 11 38 30 29 61 54 53 
50 45 44 26 22 22 12 7 7 12 8 7 16 12 11 6 3 3 5 2 2 15 11 10 
48 43 43 77 75 72 104 104 99 129 128 124 139 139 134 143 142 137 140 138 134 140 137 132 
134 130 125 110 105 99 78 72 67 51 43 39 40 30 27 34 23 19 30 17 13 29 15 12 
29 14 12 32 15 14 35 16 15 39 19 20 41 20 22 38 16 18 82 59 62 125 102 105 
150 128 130 111 89 88 75 53 49 61 40 36 45 27 22 43 28 22 64 52 44 69 60 50 
85 78 67 121 114 101 120 111 97 120 108 95 128 112 100 76 54 43 47 18 8 53 17 9 
59 18 10 62 16 9 60 9 5 65 12 5 72 17 9 81 23 16 85 25 19 87 27 21 
87 26 21 96 46 28 107 61 36 119 68 44 132 72 51 143 74 56 152 74 58 161 77 63 
169 82 69 175 87 75 168 87 72 157 84 67 141 77 58 89 39 22 54 17 3 33 8 1 
22 5 1 22 10 1 30 19 2 25 11 3 25 7 3 30 8 3 51 18 7 77 37 25 
103 60 50 104 63 56 102 63 57 99 60 56 92 58 52 82 50 44 69 38 35 56 26 23 
48 19 18 43 16 16 45 18 17 47 19 21 49 19 24 49 18 23 49 16 22 48 14 21 
44 13 19 40 11 17 36 10 15 32 11 13 28 11 11 23 11 10 20 12 8 18 12 7 
14 10 6 7 2 1 31 25 24 58 52 50 63 59 56 34 30 29 6 3 1 13 11 7 
10 8 4 5 5 1 7 7 2 32 33 27 71 73 67 130 134 126 136 141 132 133 139 129 
143 149 138 135 142 130 126 135 122 125 134 122 117 127 114 96 107 94 52 62 49 38 48 35 
35 46 32 44 56 38 84 97 79 117 131 114 130 144 128 56 67 54 4 15 3 9 23 10 
64 79 65 109 124 112 130 145 135 77 92 82 42 56 45 41 54 42 38 51 38 35 46 32 
30 40 26 39 47 31 52 58 41 69 74 56 95 97 80 115 116 98 129 129 110 53 52 39 
34 28 14 81 65 41 127 110 88 139 124 102 117 104 81 90 77 55 67 56 34 50 39 18 
54 45 24 66 58 37 84 79 56 98 93 71 117 113 89 137 134 110 126 124 99 114 112 86 
101 100 72 90 88 59 126 124 94 194 191 159 203 200 168 215 213 179 229 225 191 230 227 192 
230 226 192 228 222 188 213 208 173 213 208 172 221 218 180 231 228 189 234 232 191 233 231 189 
219 218 175 196 195 151 170 169 125 166 166 120 156 156 110 146 145 101 154 153 110 165 163 121 
177 175 134 194 191 153 206 202 167 215 211 178 225 220 188 230 225 195 234 227 199 235 228 200 
228 223 201 219 217 200 217 214 199 204 202 188 183 179 167 144 139 129 101 95 87 61 53 47 
27 18 14 14 5 3 10 2 2 16 8 7 12 5 4 12 6 5 26 22 20 42 40 37 
49 51 46 39 42 37 18 23 16 3 10 2 6 17 5 9 22 9 9 22 9 3 13 2 
31 45 30 55 71 54 60 76 59 81 96 79 97 110 94 103 114 98 119 128 112 131 138 123 
135 139 126 117 118 106 97 96 85 78 76 65 95 91 81 108 102 92 109 102 93 128 122 112 
126 120 111 95 89 80 54 48 40 28 21 14 19 12 6 20 14 8 23 17 11 26 20 15 
29 13 8 63 43 37 133 113 106 138 117 111 131 109 102 113 88 81 140 116 106 153 127 116 
150 122 111 113 82 72 92 59 49 84 51 40 60 27 17 75 42 32 121 88 76 120 87 76 
92 60 48 47 15 4 50 20 9 54 25 15 64 35 25 133 105 95 151 123 113 127 99 91 
56 30 26 46 20 16 73 46 39 84 58 51 109 85 78 141 119 112 156 135 128 153 134 127 
144 127 119 157 142 135 145 131 124 117 105 97 75 63 56 52 41 34 41 30 23 45 34 28 
70 57 54 101 88 85 119 105 103 130 115 113 137 121 120 141 125 124 145 128 127 137 118 118 
91 67 70 78 52 56 75 47 51 63 35 37 54 23 27 48 15 18 50 15 16 54 18 19 
58 21 22 58 19 20 53 14 16 51 12 13 55 18 19 56 20 22 54 21 23 51 21 22 
47 20 22 42 18 21 36 15 18 30 12 15 24 10 13 20 8 12 19 8 12 16 8 10 
10 8 7 5 4 3 12 11 10 42 41 39 60 59 57 54 53 52 13 12 11 7 6 5 
7 7 5 10 9 7 
17 11 11 16 9 9 52 43 43 62 54 52 54 46 44 21 14 12 9 4 1 9 5 2 
7 4 2 10 8 5 19 18 14 50 50 44 74 74 69 88 88 83 64 65 59 47 46 40 
32 30 25 16 13 10 35 31 27 63 57 53 71 62 59 47 37 35 21 9 7 25 12 10 
31 16 15 44 29 29 82 69 70 95 83 84 95 83 84 82 71 70 84 73 69 91 78 73 
98 83 77 102 85 79 92 72 65 44 23 17 57 31 23 85 53 44 110 74 64 106 67 56 
100 59 48 106 65 53 123 83 70 130 92 79 115 81 65 108 78 62 112 86 69 132 110 92 
128 108 90 122 101 86 123 95 88 94 66 59 74 48 41 78 54 46 93 72 63 113 94 84 
138 122 111 135 120 110 109 94 84 51 36 29 74 58 49 100 83 73 122 103 94 108 86 77 
97 72 65 95 67 61 144 117 110 160 133 126 133 106 99 133 106 99 125 99 92 108 84 76 
117 93 85 126 94 85 134 87 74 130 80 68 124 73 59 118 65 50 116 58 42 117 54 38 
121 53 37 132 58 41 143 63 47 156 69 53 166 73 58 167 70 57 163 63 50 159 59 48 
151 53 43 140 46 37 124 37 29 109 29 21 93 22 14 80 17 9 70 14 6 61 13 5 
59 13 5 52 14 10 43 14 17 40 13 15 37 12 13 35 11 12 33 11 11 31 10 11 
29 10 11 26 8 9 21 6 6 17 4 3 13 3 1 21 12 11 37 29 28 61 55 53 
52 46 45 28 23 23 11 7 7 11 7 7 15 11 10 6 2 2 6 2 2 14 9 9 
38 33 33 53 51 48 67 67 62 88 88 83 95 94 90 95 94 90 91 89 84 94 91 85 
94 89 83 78 72 66 57 50 44 39 30 25 31 19 15 29 16 12 29 15 10 29 13 10 
30 13 11 32 13 12 35 14 14 38 16 17 40 17 19 41 16 19 65 40 44 91 65 70 
108 82 87 90 58 61 71 35 36 60 25 26 48 17 16 43 18 14 52 30 25 56 39 31 
67 53 42 90 78 65 89 76 62 90 75 61 100 82 67 69 44 31 53 22 10 62 24 13 
75 29 19 84 32 23 90 31 25 99 37 29 109 42 34 117 47 39 120 48 41 121 48 41 
120 45 39 131 61 45 139 72 50 145 75 54 150 75 55 153 74 56 156 72 55 162 75 60 
168 80 65 174 86 70 168 85 68 160 82 64 147 76 56 108 47 28 78 26 12 57 13 3 
47 9 2 49 17 7 61 31 15 64 34 22 63 34 24 61 31 22 69 33 20 82 43 28 
97 57 44 99 59 51 97 57 51 91 52 47 83 49 42 73 41 36 63 32 28 51 22 19 
44 16 14 41 13 13 43 15 15 46 17 19 48 17 22 49 17 22 49 16 22 48 14 21 
44 13 19 40 12 17 36 10 15 32 11 13 27 11 11 23 11 10 20 12 8 18 12 7 
15 10 6 7 2 1 31 25 24 58 51 49 63 58 55 34 29 28 5 2 1 12 9 5 
10 8 4 7 6 2 6 6 2 24 25 20 50 53 46 85 90 81 87 92 83 85 92 82 
97 104 92 90 98 86 82 92 79 82 94 80 80 92 79 70 82 68 42 54 41 35 47 33 
34 47 32 39 54 36 59 75 56 78 95 77 93 110 92 44 60 44 11 26 12 14 31 16 
47 65 50 75 92 79 88 105 94 56 72 61 35 51 38 36 51 37 38 51 37 38 50 34 
36 46 30 41 49 31 48 54 35 57 60 41 71 73 52 85 85 63 97 96 73 55 52 32 
47 39 18 78 59 34 103 84 60 112 95 70 105 90 64 89 75 50 77 64 40 70 57 33 
78 67 43 87 77 53 96 89 64 100 93 68 103 97 73 106 102 77 109 105 79 112 108 81 
115 112 83 120 117 87 157 153 122 213 208 176 223 218 186 232 227 194 239 233 199 228 223 189 
219 213 179 210 203 169 189 183 148 192 186 150 208 202 165 222 217 177 230 226 184 232 229 185 
218 215 170 193 191 145 167 165 118 166 163 115 162 161 112 161 160 112 173 172 125 188 186 141 
204 202 159 220 217 177 228 224 187 232 228 193 235 231 198 237 231 201 237 231 203 238 232 204 
237 234 210 235 236 217 234 234 216 227 226 211 213 211 198 184 180 169 148 142 133 103 96 89 
42 34 29 23 15 12 19 10 9 19 11 10 13 6 5 12 7 5 26 23 19 42 41 36 
50 52 46 41 46 37 23 31 21 14 25 12 25 40 23 40 57 38 50 68 49 51 67 49 
65 83 65 74 93 74 68 86 68 80 98 79 89 106 87 89 104 85 106 119 101 118 128 111 
116 125 108 96 103 87 75 79 64 54 56 41 64 64 51 74 72 59 79 75 63 85 80 69 
81 76 66 64 58 49 40 32 25 23 14 9 18 8 3 23 13 9 29 18 15 33 22 19 
38 16 12 61 33 29 105 77 72 106 77 72 101 70 64 89 56 50 111 76 69 120 84 76 
118 80 72 97 56 48 85 42 34 81 37 28 69 26 17 77 34 25 101 58 49 100 57 47 
83 41 32 57 16 7 57 16 8 59 19 11 65 26 19 104 67 59 114 77 69 99 62 56 
56 23 18 48 16 12 62 30 25 69 39 33 87 58 52 109 81 76 121 96 90 119 96 90 
112 90 84 114 95 89 102 84 78 80 64 57 53 38 32 40 25 19 36 20 15 40 25 21 
56 39 37 74 56 56 87 67 67 96 76 76 102 82 83 106 85 86 106 84 86 98 74 77 
67 39 43 59 29 34 59 27 32 55 23 27 52 18 22 51 15 19 53 15 17 56 17 19 
58 19 20 58 17 19 55 14 16 53 13 14 57 17 19 57 19 22 55 20 23 52 21 22 
47 19 22 42 17 21 35 14 17 30 12 15 25 9 13 21 8 12 20 8 12 16 7 10 
8 6 5 3 2 2 12 11 11 43 42 40 61 61 59 56 55 54 16 15 13 10 9 7 
9 8 6 10 9 7 
17 10 10 15 8 8 52 43 43 63 54 53 53 45 44 20 13 12 9 4 2 11 7 4 
10 6 4 10 8 5 14 13 9 26 26 21 34 35 31 38 39 35 26 27 22 23 23 18 
22 21 17 18 16 12 22 18 15 29 22 20 35 26 24 31 21 20 25 13 13 24 10 10 
28 12 12 33 17 18 40 24 26 45 29 31 46 30 31 38 22 22 39 23 21 44 27 23 
48 30 25 57 34 29 56 31 27 31 7 5 61 30 26 101 62 55 131 87 79 128 82 73 
120 72 63 117 68 57 120 72 61 118 72 60 104 63 49 98 61 46 101 67 51 114 84 68 
112 84 68 117 89 76 141 109 103 111 79 74 89 59 53 93 68 60 100 77 69 113 92 83 
134 116 106 134 117 107 118 102 92 84 67 57 92 73 64 101 80 71 108 83 76 101 73 67 
100 70 64 110 77 72 184 151 147 216 184 179 195 162 158 190 159 153 163 133 127 109 82 75 
101 73 67 97 60 52 99 39 29 100 39 28 104 42 29 110 46 32 122 54 40 135 63 47 
149 72 55 160 78 61 167 80 63 172 78 61 173 75 59 173 71 56 171 66 53 167 63 50 
159 57 46 148 50 40 134 41 33 118 33 25 101 26 17 88 20 13 77 17 9 68 15 6 
64 15 7 54 13 10 40 12 14 38 11 13 36 10 12 34 10 11 32 10 11 31 10 11 
29 10 11 26 8 9 21 6 6 16 3 3 12 3 1 20 12 10 36 28 27 62 55 53 
53 47 46 30 25 25 11 7 7 11 6 6 14 9 9 7 3 3 6 2 2 12 7 7 
28 23 23 27 24 23 25 25 21 38 37 33 39 38 33 35 34 29 30 28 23 36 32 27 
42 36 30 40 33 27 37 28 22 34 23 17 32 19 14 30 16 10 29 14 8 31 13 10 
31 12 10 33 12 10 36 13 13 37 12 14 38 12 15 40 13 16 46 18 23 53 25 30 
60 31 37 67 26 31 69 20 24 62 15 19 51 10 11 44 8 7 44 13 11 46 19 14 
49 26 17 53 34 22 52 33 20 54 34 20 62 39 24 61 31 17 65 28 15 76 33 20 
95 43 31 112 51 40 125 58 47 138 66 55 149 71 61 156 73 65 158 73 65 158 71 63 
155 68 60 164 76 61 169 80 62 169 80 61 164 76 58 161 72 54 158 69 51 161 72 54 
165 77 58 170 83 64 166 82 62 160 78 59 151 72 52 128 55 35 106 37 21 84 20 7 
77 18 6 84 28 15 101 50 30 114 67 47 114 70 51 105 64 46 95 55 38 90 52 35 
90 53 36 94 55 46 91 51 45 82 43 38 71 36 30 62 30 24 53 23 19 45 16 13 
40 12 10 38 10 10 40 13 12 43 14 16 46 16 21 49 17 22 49 16 22 48 14 21 
45 14 20 41 12 17 36 10 15 31 10 12 27 10 10 22 10 9 19 11 7 17 12 7 
14 10 5 8 2 1 31 24 24 58 50 49 63 57 55 34 29 28 5 2 1 10 8 4 
10 9 4 9 8 4 5 6 1 16 17 12 27 30 23 32 37 28 29 35 26 28 35 24 
34 43 31 27 37 24 22 33 20 25 38 24 31 44 30 34 47 33 30 44 29 30 44 30 
32 47 31 33 51 32 32 51 31 36 55 36 50 69 50 31 51 33 18 37 20 18 37 21 
27 47 31 36 56 41 42 61 48 33 51 38 29 45 31 33 49 34 37 52 36 41 53 36 
42 52 34 44 51 32 46 51 29 48 50 28 50 51 27 57 56 31 69 66 39 59 55 29 
62 52 25 78 59 31 80 60 33 84 65 37 88 71 43 91 75 47 95 80 53 102 88 62 
113 101 74 118 107 81 116 107 81 105 96 71 89 81 56 70 65 39 88 82 56 109 103 76 
133 129 100 157 151 121 192 186 155 234 228 195 242 235 203 245 238 206 243 236 203 220 213 178 
201 194 160 185 177 145 159 152 118 166 158 123 191 183 147 209 202 162 223 217 175 231 226 182 
217 212 166 192 188 141 167 163 114 168 164 114 171 168 118 178 176 125 192 190 141 210 208 161 
228 225 182 241 238 197 244 241 202 242 238 203 237 233 200 233 229 199 231 226 198 230 225 199 
235 233 210 240 241 221 239 241 222 238 239 222 234 232 219 217 214 203 196 191 181 154 148 140 
63 56 50 37 29 25 30 22 19 22 14 12 15 8 5 14 8 5 27 25 20 42 43 36 
50 55 45 43 51 38 30 41 25 27 42 23 47 65 43 72 93 69 93 116 90 102 125 99 
102 124 101 95 117 96 80 102 82 86 107 87 88 108 87 78 96 75 88 105 84 93 108 88 
83 97 77 69 81 60 55 65 45 43 50 31 37 42 25 37 39 23 43 43 29 38 35 23 
34 29 18 32 26 17 24 15 8 20 8 3 19 6 2 29 14 11 36 20 18 41 25 23 
48 19 17 60 24 22 77 39 37 71 33 30 65 25 21 58 16 11 72 28 23 79 33 27 
80 32 26 79 28 22 78 26 19 78 25 18 76 23 16 79 25 18 85 31 24 85 31 24 
79 26 20 70 19 13 65 16 9 64 15 8 66 18 12 74 27 21 75 28 23 71 25 20 
57 17 12 55 17 13 61 23 19 63 27 23 66 32 27 69 36 31 71 42 37 67 40 35 
60 34 29 58 33 29 50 27 23 41 20 15 38 18 14 35 15 11 33 13 9 37 17 14 
42 20 20 46 23 24 49 25 26 54 28 31 59 32 36 60 32 36 56 27 32 51 21 26 
48 17 22 48 15 20 49 15 20 50 15 20 52 15 20 54 15 20 56 16 18 57 16 18 
59 16 19 58 15 18 57 14 16 56 14 16 59 17 20 59 19 22 57 20 23 53 20 22 
48 19 22 42 17 20 35 14 17 30 11 15 25 9 13 22 8 13 21 8 12 17 7 10 
7 5 4 3 2 1 12 11 10 42 41 39 60 59 57 55 54 52 15 14 12 10 9 7 
9 9 7 10 9 7 
17 10 10 13 6 6 53 44 44 64 54 54 53 44 43 20 12 12 10 4 2 12 8 5 
10 7 4 8 7 3 7 8 3 10 11 7 13 14 10 14 15 12 13 14 10 13 13 10 
14 13 10 12 10 7 14 9 7 18 11 10 22 13 12 23 12 12 25 11 12 26 11 12 
29 14 15 32 15 16 30 11 13 30 11 13 30 11 13 25 6 6 24 6 5 26 7 5 
27 7 6 35 10 7 40 11 7 31 3 2 73 36 33 116 69 63 129 79 72 132 79 71 
131 76 67 129 72 63 125 69 60 119 65 55 108 59 48 108 62 49 114 72 58 129 92 77 
137 102 86 150 115 103 176 140 135 144 109 105 122 89 84 132 103 97 141 115 108 148 126 117 
155 136 126 154 135 126 138 120 110 103 84 75 107 86 77 119 94 86 136 107 101 117 85 80 
107 72 68 112 73 71 189 150 148 233 194 191 231 193 190 230 194 191 198 164 160 131 99 95 
112 80 75 104 60 53 109 39 29 110 38 29 114 40 30 120 44 33 132 54 41 146 65 50 
160 75 58 170 80 63 175 80 63 177 76 60 175 71 54 176 69 53 178 69 55 174 66 52 
167 60 48 156 54 43 142 46 36 126 38 29 109 31 22 96 24 16 84 20 11 73 17 8 
69 15 7 55 12 8 37 9 11 36 9 11 34 9 10 33 9 10 32 9 10 31 10 11 
29 10 11 26 8 9 21 6 6 16 3 3 12 3 1 20 11 10 35 27 26 61 54 53 
54 48 47 32 27 27 12 7 7 10 5 5 14 9 9 9 5 5 8 4 4 10 6 6 
17 13 13 16 13 11 14 13 9 19 16 13 19 17 13 18 15 11 15 12 8 20 15 10 
26 18 12 27 19 13 29 19 13 31 18 12 32 18 12 31 15 10 31 14 9 34 15 11 
35 14 11 36 13 12 39 14 15 39 12 14 40 12 15 43 13 18 45 15 20 49 17 23 
53 21 27 63 16 23 68 12 18 64 10 15 57 8 12 52 8 10 50 12 10 47 14 9 
46 17 9 50 24 14 48 22 10 49 23 9 57 27 12 67 30 16 78 35 20 91 40 25 
109 49 35 125 58 44 139 65 50 150 69 55 159 73 60 166 75 63 169 76 64 170 76 64 
170 75 63 182 82 67 186 85 68 183 82 65 173 77 59 165 72 53 159 68 49 160 71 50 
162 76 54 165 81 58 163 80 58 159 76 54 154 70 49 145 61 41 128 46 28 107 28 11 
100 24 10 108 35 21 128 60 42 138 76 58 137 81 63 126 76 57 110 66 47 97 57 38 
89 51 32 95 55 45 92 52 47 84 45 40 71 36 30 60 28 22 51 20 17 44 15 12 
41 12 11 39 11 11 41 13 13 44 15 17 47 16 21 49 18 23 50 17 23 48 15 22 
45 14 20 41 12 18 37 11 16 32 10 12 27 10 10 22 10 9 19 11 7 17 11 6 
14 10 5 7 2 1 31 24 24 58 50 49 64 57 55 35 29 28 6 2 1 10 7 3 
12 10 6 11 11 6 6 7 2 9 12 6 15 19 12 21 26 17 20 26 17 19 27 17 
24 34 21 22 33 20 20 33 19 24 37 23 27 41 27 28 43 28 26 41 26 29 44 29 
31 47 31 28 49 29 27 48 28 29 50 30 34 56 36 25 47 28 19 40 23 19 40 24 
23 44 29 26 47 32 29 49 35 23 42 28 22 40 25 30 47 30 36 51 33 41 53 34 
45 55 34 47 53 31 47 51 27 47 48 23 51 50 23 57 54 25 66 61 31 69 63 33 
75 65 33 85 65 34 89 69 38 94 75 44 100 83 51 111 95 64 126 111 81 145 132 102 
150 138 109 149 138 109 142 132 104 114 105 78 100 92 65 99 92 65 100 93 66 122 116 88 
160 155 125 180 174 144 209 203 172 243 237 204 246 238 206 244 236 204 235 227 195 197 189 156 
174 165 134 160 150 120 134 124 94 144 135 102 175 166 131 194 186 148 214 207 167 230 224 181 
219 213 168 195 190 143 170 165 117 175 171 121 179 175 125 184 180 130 196 193 144 213 211 164 
232 229 186 245 242 201 248 244 207 245 242 208 239 235 205 234 229 201 229 225 198 227 222 197 
226 225 202 226 229 208 228 231 211 232 234 216 235 234 219 231 228 216 225 220 210 193 187 178 
93 85 79 58 49 45 40 32 28 21 14 10 13 6 3 13 8 4 25 24 17 40 42 32 
49 54 42 43 53 36 32 46 26 32 50 26 56 78 51 78 103 74 95 122 91 101 129 96 
106 132 104 105 130 106 95 120 96 108 131 108 112 134 111 95 117 93 91 112 88 82 102 77 
62 80 56 62 79 54 68 84 59 80 93 70 61 70 49 48 54 35 48 51 34 33 32 18 
22 19 7 20 14 4 20 10 2 22 9 3 26 10 6 35 16 14 43 22 21 49 27 27 
53 16 17 58 14 13 65 19 18 64 18 16 63 15 12 62 12 8 69 17 13 73 19 15 
75 20 15 76 19 14 79 20 14 83 21 16 84 22 17 85 23 18 86 24 19 87 25 20 
86 25 20 83 23 18 80 21 16 76 18 13 71 15 10 72 17 13 74 19 15 75 21 18 
71 24 21 70 27 23 71 28 24 67 26 22 61 22 19 55 18 14 50 17 12 46 15 10 
43 13 9 43 14 11 41 14 11 38 14 10 40 16 13 39 15 13 37 13 12 40 15 15 
43 17 18 45 18 20 44 16 20 46 16 21 49 16 22 48 15 21 46 13 19 45 11 17 
48 14 20 49 13 20 50 13 19 52 15 20 55 16 21 58 17 22 58 17 20 59 16 19 
60 16 19 60 15 18 60 15 18 60 16 19 61 18 21 60 19 22 58 20 23 54 20 22 
49 19 22 43 16 20 36 13 17 30 11 14 25 9 13 22 8 13 21 8 13 18 8 11 
9 7 6 4 3 2 11 10 9 38 37 35 53 52 50 46 46 44 7 7 6 5 4 3 
8 7 5 11 10 9 
17 11 11 15 9 9 56 46 47 66 55 56 54 45 45 20 12 12 9 3 2 10 6 5 
8 5 3 6 4 2 4 5 1 6 8 4 7 8 6 7 8 6 9 10 7 9 10 7 
9 8 7 10 7 5 13 8 7 16 9 10 21 11 12 23 11 13 24 10 13 26 11 14 
31 14 17 34 15 19 30 8 11 30 7 11 32 8 12 34 11 12 35 12 12 36 11 11 
35 9 9 41 10 7 44 9 5 39 4 2 81 37 34 122 69 65 135 78 72 141 81 75 
145 82 76 147 82 76 143 79 72 138 76 68 134 76 66 140 85 75 151 100 88 167 121 108 
181 138 125 195 153 143 207 169 165 179 141 138 160 123 120 164 133 128 187 159 153 203 180 172 
205 188 179 200 182 172 183 164 154 150 129 120 155 131 123 170 143 137 194 165 160 164 128 125 
143 102 100 138 94 93 195 150 150 233 189 189 243 204 203 245 212 210 224 192 190 178 141 138 
163 128 124 152 102 97 145 62 55 144 60 53 144 58 51 146 59 49 152 64 52 159 69 56 
169 76 60 175 78 62 179 78 60 180 74 57 178 70 52 180 69 52 183 71 55 180 67 53 
172 62 49 162 57 45 149 49 38 134 42 32 117 34 25 103 28 19 90 22 14 78 18 9 
72 15 6 56 11 7 37 8 11 35 8 10 34 8 9 32 8 9 30 8 9 29 9 9 
29 9 10 25 8 9 21 6 6 17 4 4 13 3 1 20 11 10 35 27 26 61 54 52 
54 49 48 33 28 28 13 8 8 9 5 4 12 7 7 11 6 6 10 5 5 10 5 5 
11 6 6 10 7 6 10 8 6 13 10 7 13 10 6 13 9 5 12 7 4 16 9 4 
20 12 6 24 14 9 27 16 10 30 17 11 33 18 12 34 16 11 35 16 11 39 17 13 
40 16 14 41 16 15 44 16 18 44 15 17 44 14 17 48 17 22 49 16 23 50 16 23 
52 17 25 61 12 20 68 9 16 67 10 16 64 11 16 60 13 15 57 15 13 54 16 11 
55 20 12 60 27 17 67 34 22 76 41 28 87 48 34 103 57 42 116 63 48 125 65 50 
135 67 51 145 70 54 155 73 57 162 75 59 169 77 61 174 78 62 177 80 64 179 81 64 
181 81 64 192 87 71 194 88 72 188 84 67 178 79 60 169 75 54 162 73 51 161 77 52 
163 81 55 166 85 59 165 83 58 163 79 55 160 73 51 160 71 50 155 63 44 144 52 35 
141 51 35 146 60 44 159 76 59 163 88 71 157 91 72 144 85 65 125 75 54 113 69 47 
106 66 45 104 64 53 98 59 53 90 51 46 77 43 36 64 32 27 53 22 18 44 15 12 
41 12 11 40 12 12 42 14 14 45 16 18 48 17 23 50 18 23 50 17 23 49 15 22 
45 14 20 41 12 18 37 11 16 32 11 12 27 10 10 22 10 9 19 11 7 16 11 6 
13 9 4 8 2 1 31 24 23 58 50 49 66 59 57 36 30 29 6 1 1 9 6 3 
12 11 6 13 13 8 8 8 3 7 9 3 9 14 7 18 24 15 20 27 17 21 30 19 
23 35 21 23 36 22 24 37 23 26 41 26 29 44 29 30 46 31 29 45 30 33 49 34 
35 53 36 33 56 35 32 56 34 32 56 34 35 59 38 30 54 34 26 50 32 25 49 32 
27 51 34 29 52 36 29 51 36 25 46 30 24 45 27 29 47 28 33 49 29 37 51 30 
43 53 30 47 53 29 52 55 28 58 58 29 63 62 30 69 65 32 75 68 34 90 82 48 
101 90 54 107 89 53 110 93 57 120 102 68 135 119 84 140 125 91 151 137 103 166 154 121 
168 157 125 166 156 125 159 150 119 138 131 101 128 122 93 128 122 93 135 129 100 159 154 124 
194 190 159 208 203 172 226 220 189 245 239 207 240 233 201 232 224 192 216 209 177 150 143 111 
111 102 75 90 80 59 84 74 48 102 93 64 136 128 96 166 157 123 198 191 153 226 221 179 
218 213 169 197 192 146 175 170 123 183 179 130 193 189 140 203 200 152 213 211 163 225 223 178 
237 235 193 244 241 203 243 241 206 239 237 206 237 235 207 231 229 203 223 220 197 216 214 191 
213 213 191 211 215 194 212 215 196 218 220 202 224 224 209 227 224 212 225 221 210 200 194 185 
116 108 102 82 73 68 59 50 45 24 16 11 13 6 2 13 9 4 25 25 16 42 45 33 
53 61 45 51 63 43 44 60 36 46 67 38 68 93 60 78 106 71 83 113 76 81 113 74 
104 132 101 120 146 121 117 143 117 136 162 136 145 171 145 132 157 130 120 145 117 103 128 99 
78 101 73 83 106 77 99 120 92 125 144 117 111 127 101 98 110 86 90 98 77 45 48 31 
18 17 3 20 14 2 23 12 3 26 11 5 32 12 8 40 17 15 47 21 21 53 25 27 
60 18 18 65 15 15 68 16 16 69 17 16 71 17 15 73 17 15 77 19 17 82 21 19 
86 23 20 88 23 19 90 23 19 94 25 21 98 28 25 99 29 25 97 27 23 98 28 24 
97 28 25 96 28 24 93 26 23 88 23 19 82 19 16 81 19 15 81 19 16 82 21 19 
80 28 26 80 31 29 80 32 29 75 29 27 67 22 20 57 15 12 50 11 8 48 12 8 
48 14 11 47 15 13 46 15 13 44 15 13 45 17 15 44 16 15 42 14 14 45 15 18 
48 17 20 51 19 23 51 17 23 52 17 23 53 16 23 54 15 23 52 13 21 51 12 20 
54 16 23 55 16 23 55 15 22 57 17 23 59 17 24 61 18 24 61 17 21 61 16 19 
61 14 18 61 14 18 62 15 19 62 17 20 63 18 21 62 19 23 59 19 23 55 20 22 
50 18 21 43 15 20 36 13 16 30 11 14 26 9 13 23 8 13 22 8 13 19 9 12 
11 9 8 5 4 3 10 9 9 36 35 33 49 49 47 43 42 40 5 4 4 4 4 2 
9 8 6 13 13 11 
17 11 10 17 11 11 57 46 48 67 56 58 55 46 47 20 13 13 8 2 2 9 4 4 
7 4 3 5 3 2 4 4 2 8 9 7 7 9 7 6 8 7 8 10 8 8 9 7 
7 6 6 8 6 5 13 8 9 18 11 13 23 14 16 24 12 16 25 10 16 26 10 16 
31 13 20 36 16 23 34 9 14 35 8 13 39 11 16 47 20 22 49 20 22 49 18 19 
48 15 14 51 14 12 52 12 9 49 5 3 88 36 34 128 68 66 146 82 79 154 86 83 
160 89 86 166 93 89 164 92 87 161 92 85 163 96 89 174 111 103 188 129 119 202 147 136 
218 166 155 229 181 172 230 188 186 210 168 167 194 155 153 193 159 155 227 199 193 251 230 223 
252 237 229 244 228 219 228 209 200 202 179 171 208 181 175 223 194 189 247 218 214 207 168 166 
176 129 129 162 112 113 194 143 145 223 175 177 246 204 206 249 219 219 241 211 211 221 181 179 
215 176 174 200 144 141 179 83 80 176 80 77 174 78 72 172 75 67 173 75 65 175 76 64 
179 77 63 181 77 61 183 76 59 183 73 55 183 70 52 184 70 52 188 71 55 184 68 53 
176 64 50 167 58 46 155 52 41 140 45 34 124 38 28 109 31 21 95 24 15 82 18 9 
75 14 6 58 10 7 37 9 11 35 8 10 33 8 9 31 7 8 29 7 8 28 8 8 
28 8 9 25 8 8 21 6 7 17 5 4 14 4 2 21 12 11 35 27 26 60 53 52 
54 48 47 34 29 29 13 9 9 9 4 4 11 6 6 12 7 7 12 7 7 11 6 6 
7 2 2 7 3 3 10 6 5 12 8 6 12 8 5 12 7 4 13 6 4 16 8 4 
19 10 4 24 13 8 28 15 9 31 16 10 33 17 10 36 17 12 39 18 13 43 19 16 
45 18 17 46 18 18 48 19 21 48 16 19 48 16 20 54 20 26 54 19 26 54 17 26 
54 16 26 61 11 19 67 9 15 69 13 18 68 16 20 66 17 20 64 18 17 63 20 16 
65 25 18 73 33 23 89 48 36 105 62 48 119 71 57 137 83 68 151 89 74 156 88 72 
159 84 66 163 81 63 169 82 63 174 82 62 177 82 62 179 81 61 182 83 62 184 85 63 
186 85 63 194 88 70 195 88 71 188 84 66 177 81 59 169 79 55 164 78 53 163 82 54 
164 86 57 167 90 60 167 87 59 167 83 56 166 78 53 173 80 58 177 79 60 177 77 59 
178 78 61 180 83 66 184 91 74 182 98 81 172 98 79 157 91 70 136 80 58 126 77 54 
123 78 56 112 70 59 103 63 57 95 56 51 81 47 40 67 35 29 53 22 19 44 15 12 
40 12 10 40 12 12 43 15 15 46 17 19 49 18 23 50 19 24 50 17 23 49 16 23 
45 14 20 41 13 18 37 11 16 32 11 12 27 10 10 22 10 9 18 10 6 16 10 5 
13 9 4 8 2 1 31 23 23 57 50 48 67 61 59 38 32 31 6 2 1 9 6 2 
12 11 6 14 14 9 10 10 5 7 9 3 8 13 6 19 26 17 23 31 21 24 34 23 
26 38 24 26 40 26 28 42 28 30 46 31 33 49 34 34 52 36 33 51 35 37 54 38 
40 59 42 39 64 42 37 64 41 37 63 41 38 64 43 35 62 42 32 60 40 30 56 38 
32 58 40 33 59 41 32 56 39 30 53 36 28 50 31 27 46 27 30 46 25 34 47 25 
39 49 25 47 53 26 58 60 30 71 71 38 80 77 42 86 80 44 90 81 43 112 102 63 
126 114 74 132 116 76 132 117 78 144 130 91 168 153 115 166 152 115 169 157 120 177 166 130 
178 168 133 176 168 133 170 164 130 163 158 125 158 154 122 155 151 120 174 169 138 198 194 163 
225 222 190 233 229 198 239 234 203 240 236 203 227 222 189 212 206 173 189 183 151 101 96 64 
49 42 19 25 15 2 34 25 7 64 56 32 106 98 70 144 136 106 186 180 145 223 218 179 
218 213 171 200 196 152 181 177 131 191 187 140 207 203 156 223 221 174 229 227 182 234 232 190 
237 235 196 234 232 197 227 226 194 220 220 191 218 217 192 209 209 187 199 199 179 190 190 171 
185 187 167 184 188 166 187 190 170 196 198 180 206 207 190 214 212 198 215 210 198 198 191 182 
143 134 128 112 104 98 81 72 67 27 18 14 13 6 1 14 10 4 27 26 16 45 49 35 
60 69 50 63 77 54 61 80 51 65 90 56 87 115 77 86 117 77 79 113 70 70 105 61 
107 138 103 136 163 136 136 163 136 155 184 155 166 195 165 158 187 157 143 172 141 124 154 122 
103 132 100 111 140 107 131 158 126 163 188 157 159 181 151 150 167 139 138 150 125 65 71 52 
23 23 7 27 22 7 29 17 7 32 14 8 36 13 9 43 16 15 50 20 20 55 22 24 
66 19 21 73 18 19 75 19 20 78 20 20 81 22 21 85 23 22 89 25 24 94 27 26 
100 29 29 102 30 28 104 30 28 106 30 28 112 35 33 113 36 33 110 33 31 110 33 30 
109 32 30 107 31 30 103 30 28 99 27 25 94 24 22 91 22 21 90 22 20 89 23 21 
88 30 29 87 33 33 88 34 34 84 33 31 75 26 24 64 16 15 57 13 11 56 15 13 
60 20 19 57 21 20 54 20 19 52 18 18 51 18 18 49 17 17 48 15 17 50 16 20 
54 18 23 59 21 26 60 21 28 60 20 28 61 19 27 62 19 29 61 17 27 60 15 25 
61 19 28 61 20 28 60 19 26 61 19 25 63 18 25 64 18 25 64 17 21 63 15 19 
62 13 17 62 13 17 63 14 18 64 16 20 65 18 22 64 19 23 61 19 24 57 19 22 
50 17 21 44 14 19 37 12 16 31 10 14 26 9 13 24 8 13 23 8 13 20 9 13 
12 10 9 6 5 4 10 10 9 36 36 34 49 48 47 42 41 40 6 5 5 6 5 4 
11 10 8 16 15 13 
13 7 7 14 7 7 54 44 46 66 54 56 55 44 46 22 13 14 10 4 4 10 6 5 
8 4 4 7 5 5 7 8 7 10 11 10 9 11 10 7 10 9 8 10 9 8 9 9 
7 6 8 7 4 5 11 6 8 17 9 13 22 13 16 25 13 18 27 13 19 28 11 18 
31 13 22 36 15 25 42 14 21 41 11 17 40 10 16 48 17 20 44 12 14 40 6 7 
41 5 4 47 6 5 53 7 5 57 6 3 96 38 35 138 73 71 169 98 96 172 98 96 
172 95 93 177 98 95 176 97 94 175 98 94 178 105 99 188 118 112 196 130 123 200 138 129 
209 150 140 219 164 156 229 181 181 220 176 175 214 173 171 218 182 178 239 218 213 253 243 236 
253 245 238 251 240 232 246 230 222 238 213 206 239 210 204 243 210 206 248 215 213 201 158 158 
167 116 118 155 100 103 172 116 119 202 147 150 244 194 196 248 211 213 242 208 209 228 184 183 
219 178 176 201 140 139 175 71 70 178 72 70 181 75 71 185 78 72 188 81 72 191 84 72 
193 84 71 192 82 67 191 79 62 190 74 55 189 72 53 189 71 52 190 71 53 186 68 52 
179 64 50 170 60 46 159 54 42 145 48 36 130 41 30 115 33 24 100 26 17 86 19 10 
78 13 6 59 10 8 38 10 12 36 9 11 34 8 9 31 7 8 29 7 7 28 7 8 
27 7 9 24 7 8 21 6 6 18 5 5 14 5 3 22 13 12 36 28 27 58 52 50 
53 47 46 34 29 29 15 10 10 9 4 4 9 5 5 11 6 6 12 8 7 12 7 7 
6 2 2 6 2 2 8 4 3 10 4 4 11 5 3 11 5 3 13 5 3 15 6 3 
19 7 3 24 10 6 27 13 7 30 14 8 32 13 7 36 15 10 41 18 14 46 19 17 
48 19 18 48 18 19 50 17 20 48 15 19 49 15 21 57 20 28 56 19 28 56 17 27 
58 17 28 61 12 20 63 10 15 65 13 18 67 17 20 67 20 21 67 21 20 67 23 19 
70 27 20 78 35 25 90 44 34 103 53 41 115 61 46 135 74 58 149 81 65 155 81 64 
164 83 64 171 85 65 176 87 66 179 86 63 180 85 61 179 83 58 179 83 56 180 84 56 
183 85 58 183 84 60 180 81 59 175 78 55 167 77 52 162 77 50 158 79 49 159 83 52 
161 86 55 163 89 57 165 87 56 166 84 54 167 80 53 178 85 61 182 84 62 179 78 58 
180 79 60 184 85 66 189 94 75 186 100 80 176 98 77 160 90 69 138 78 54 124 70 45 
116 66 42 107 65 53 99 59 53 89 50 45 72 38 31 58 26 21 47 16 13 41 12 9 
39 11 9 40 12 12 42 14 14 46 17 19 49 18 23 51 19 24 51 18 24 49 16 23 
46 15 21 41 13 18 37 11 16 32 11 12 26 10 10 21 9 8 18 9 6 16 10 5 
13 9 4 9 2 1 30 22 22 56 48 47 68 62 60 40 34 32 9 3 1 8 5 1 
11 10 5 14 13 9 13 13 8 11 13 7 12 17 10 23 30 21 26 35 24 26 37 25 
27 39 25 26 40 26 28 43 28 33 49 34 35 53 36 36 55 38 37 55 38 38 57 40 
39 60 42 37 64 42 34 62 39 32 60 38 34 62 41 32 61 40 30 59 38 28 56 37 
29 57 38 30 57 39 30 55 38 28 52 34 26 49 30 24 44 24 27 43 22 31 45 21 
38 48 21 48 55 25 63 66 33 83 82 47 96 92 54 105 98 58 108 99 58 120 109 67 
132 119 76 143 130 86 141 128 85 149 136 94 167 156 113 171 160 119 176 165 126 182 173 133 
181 174 136 178 173 136 173 169 133 171 167 133 172 169 136 178 176 142 198 195 163 218 215 184 
238 236 204 243 241 209 238 235 203 226 223 189 205 202 168 180 176 143 148 144 111 73 70 39 
35 29 7 21 12 1 16 8 2 59 51 38 127 119 95 161 154 127 196 190 158 224 220 184 
221 217 177 204 201 159 186 182 139 197 194 150 212 210 166 227 225 181 226 224 182 222 221 181 
215 215 178 202 201 168 186 187 157 168 170 144 147 148 126 135 137 117 128 130 113 123 124 109 
116 119 101 117 121 100 141 144 123 161 164 144 180 181 163 195 193 179 203 198 187 203 196 186 
187 179 171 155 146 139 106 97 92 25 18 16 12 6 1 18 14 4 27 28 15 46 52 34 
65 75 53 77 93 67 82 104 71 96 122 84 128 158 116 126 161 115 117 154 107 106 145 96 
132 166 128 150 179 150 141 170 141 140 171 140 137 169 136 127 160 126 117 150 116 112 146 112 
116 150 114 127 161 125 146 178 143 174 204 170 168 194 161 162 183 152 159 174 147 88 97 74 
44 46 28 41 36 22 37 25 15 36 17 11 38 13 10 44 15 14 51 17 18 56 19 22 
70 19 21 78 19 20 79 19 20 83 20 21 87 22 23 92 25 25 96 26 26 102 29 29 
109 32 33 113 34 34 114 35 33 114 33 32 120 37 36 121 38 37 120 37 36 118 35 34 
116 34 33 113 32 31 109 30 29 104 28 26 100 25 23 96 23 22 95 23 22 96 25 24 
91 29 30 91 34 34 94 36 37 89 34 34 80 27 26 69 18 17 61 14 13 60 15 14 
62 20 19 60 21 20 58 20 19 55 18 19 54 18 19 52 16 18 51 13 17 53 14 19 
57 17 23 61 20 26 62 19 27 62 17 26 63 17 26 64 17 27 65 16 27 64 16 27 
64 20 29 63 20 28 62 19 27 62 18 25 64 18 25 66 18 25 66 17 22 66 16 21 
65 15 20 65 15 19 65 15 20 66 16 21 66 18 22 65 19 23 62 19 23 57 18 21 
51 16 20 44 14 19 37 11 15 31 9 13 27 8 13 25 9 14 23 9 14 20 9 12 
11 9 7 5 5 3 12 12 10 40 39 38 54 53 51 47 46 45 10 9 8 11 10 8 
15 15 13 18 17 15 
9 3 3 11 5 5 52 41 44 65 52 56 56 44 47 23 14 16 12 5 7 13 8 9 
10 6 6 7 6 6 7 7 8 10 11 11 9 11 11 7 10 10 7 9 9 8 8 10 
8 7 10 7 4 7 9 4 8 13 5 11 20 10 15 26 13 19 30 14 23 31 14 23 
33 14 25 36 15 26 43 13 21 42 9 16 40 8 14 49 15 20 43 10 12 37 2 2 
40 3 2 48 5 4 57 7 6 64 9 6 99 37 35 141 72 71 181 105 104 181 100 100 
176 93 92 184 100 98 185 102 99 186 104 100 188 109 105 195 120 115 199 128 121 195 127 119 
198 132 124 204 144 137 214 165 164 215 169 169 218 175 174 224 186 183 239 212 208 249 231 225 
251 236 229 250 233 226 249 230 223 249 228 222 249 228 223 249 225 223 249 217 217 199 155 156 
162 108 110 145 87 90 155 95 99 186 127 131 241 186 189 247 210 213 243 209 211 230 183 184 
216 171 170 199 132 133 182 69 70 184 70 69 185 72 69 186 73 68 187 74 66 188 75 64 
189 75 62 190 74 60 191 74 57 191 73 54 193 73 54 193 72 54 192 71 53 188 69 52 
181 65 50 173 61 47 163 56 43 150 50 39 136 44 34 120 36 27 105 28 20 91 20 12 
81 14 7 62 11 9 41 12 14 37 11 12 34 9 10 31 7 8 28 6 6 27 6 7 
26 6 7 24 6 7 21 6 6 19 6 6 16 6 4 23 15 13 37 30 28 57 50 48 
51 46 45 34 29 29 16 11 11 9 4 4 8 3 3 9 4 4 12 8 7 14 9 9 
8 4 4 8 3 4 10 4 5 10 4 4 11 4 3 13 5 4 15 7 5 18 8 5 
21 8 5 25 10 6 28 12 7 31 14 7 34 13 8 38 15 11 42 18 14 46 18 16 
48 19 18 50 19 19 50 16 20 50 15 20 53 16 23 59 20 28 59 19 28 58 17 28 
58 16 28 58 14 21 59 14 17 62 17 20 65 21 22 67 25 24 70 28 25 72 30 25 
78 35 28 88 43 33 97 48 37 106 53 40 116 56 42 133 68 51 147 75 57 153 76 57 
163 80 59 171 84 61 177 88 63 178 87 60 176 85 57 173 82 52 172 82 50 173 83 50 
175 85 52 166 80 50 160 76 48 157 74 46 153 74 45 152 76 45 152 79 46 154 82 49 
156 85 52 159 88 54 162 87 54 165 85 54 168 83 54 178 89 62 181 88 62 177 81 57 
177 80 58 179 85 62 182 92 70 180 96 73 172 94 70 158 86 63 139 74 49 125 65 39 
114 58 34 103 58 47 92 52 47 81 43 38 65 31 25 53 21 16 44 13 10 41 12 8 
40 12 10 41 14 13 44 16 16 47 18 20 50 19 24 51 20 25 51 18 24 50 16 23 
46 15 21 42 13 18 37 11 16 32 11 12 26 10 10 21 9 8 18 9 5 15 10 4 
13 8 3 10 2 1 29 21 21 54 46 45 68 62 60 41 35 33 11 5 3 7 4 1 
9 7 3 12 11 7 14 15 10 15 18 12 18 23 16 28 35 26 30 39 29 30 41 29 
28 41 27 27 42 27 28 44 29 32 49 34 35 53 36 36 54 38 36 55 38 37 56 39 
36 58 40 32 61 38 28 57 33 26 55 32 28 58 36 28 57 36 27 56 35 26 56 36 
28 56 37 28 56 36 26 52 33 23 48 29 23 45 25 24 44 24 28 45 22 35 48 23 
43 54 25 57 63 31 73 75 40 92 90 53 106 100 60 116 107 65 123 112 68 131 118 74 
139 127 81 148 137 90 151 140 94 160 150 104 175 166 120 177 168 124 179 171 129 182 175 134 
178 174 133 176 173 134 176 173 136 181 179 143 187 187 151 195 195 161 213 213 180 228 227 194 
239 238 206 244 244 211 233 232 200 210 208 175 187 186 153 152 150 118 108 105 73 56 53 25 
29 24 3 18 11 1 10 3 0 59 52 44 136 130 109 170 164 140 202 196 169 227 223 191 
224 221 185 210 207 168 194 191 150 205 203 161 219 218 176 231 231 189 223 223 183 215 216 178 
202 204 169 167 169 138 135 137 110 105 108 85 79 81 63 64 67 53 56 59 48 53 56 47 
59 63 47 70 74 52 89 93 71 116 118 98 145 146 128 175 173 159 192 188 176 202 195 185 
199 191 183 170 160 153 118 108 102 29 21 18 14 8 2 19 16 5 25 27 12 44 50 30 
64 77 52 84 102 72 95 118 83 113 141 99 147 180 134 148 185 136 140 180 128 129 171 117 
144 180 139 154 184 153 144 175 144 128 160 128 111 144 111 95 130 95 88 124 88 96 133 96 
129 166 128 142 180 141 157 193 155 176 211 173 169 199 163 163 188 154 161 179 150 100 111 86 
58 62 41 49 45 29 42 29 18 39 19 13 41 14 12 47 15 15 53 16 18 59 18 22 
73 18 21 81 18 20 81 18 19 85 20 21 90 22 23 95 24 26 100 26 27 106 29 30 
112 32 34 116 34 34 118 34 33 117 32 31 121 35 34 122 35 35 121 35 34 120 34 34 
118 33 32 116 32 31 112 30 30 108 28 27 104 25 24 100 24 23 98 23 22 97 22 22 
91 26 27 92 30 31 94 33 34 90 30 31 81 25 25 71 18 16 64 13 12 61 13 13 
61 15 15 60 17 16 57 16 16 54 14 15 54 15 16 53 13 16 52 12 16 54 13 18 
58 15 21 61 17 24 63 16 25 63 15 25 64 15 25 66 15 27 67 15 27 67 15 27 
64 18 27 63 18 27 63 18 27 65 18 26 66 18 26 67 17 25 67 17 22 67 16 21 
67 15 20 67 15 20 67 16 21 68 17 21 68 18 23 66 19 24 62 19 23 57 18 21 
51 16 20 45 13 18 37 10 15 32 8 13 28 7 12 25 8 14 24 9 14 20 9 12 
10 8 7 5 5 3 14 13 11 42 41 40 56 55 54 50 49 47 13 12 10 14 13 11 
18 17 16 19 18 17 
6 0 0 10 4 5 51 39 43 64 51 55 56 44 48 25 15 18 15 6 9 16 9 11 
11 7 8 7 5 7 5 5 7 9 9 11 8 10 11 6 9 10 6 8 10 8 8 11 
9 7 12 8 5 9 9 3 8 11 2 9 19 7 14 26 12 20 31 15 24 33 16 26 
34 15 27 36 14 26 42 11 19 44 9 16 48 13 20 63 28 33 61 27 29 58 23 23 
64 26 25 73 28 28 83 30 30 89 30 28 119 53 52 156 83 83 194 114 114 189 105 105 
183 95 96 195 106 106 200 112 110 201 115 112 200 116 112 204 124 119 204 127 121 193 121 113 
192 122 113 193 128 122 195 145 145 202 155 156 209 166 165 215 176 174 226 191 187 234 205 199 
240 215 207 240 216 209 243 221 214 250 231 225 251 237 233 251 234 232 249 220 221 200 155 157 
161 105 108 139 78 82 144 81 86 175 113 118 237 178 183 246 208 212 241 208 211 226 177 178 
207 158 159 193 122 123 189 69 71 189 69 69 187 68 66 186 67 63 184 66 59 184 65 56 
185 66 54 187 67 53 190 69 53 193 72 53 196 74 55 196 74 55 194 71 53 189 69 52 
183 66 50 175 63 47 166 58 45 154 53 41 141 47 37 124 38 30 109 30 22 94 21 13 
84 15 8 65 12 10 43 14 17 39 12 14 35 10 11 31 7 8 28 5 6 26 5 6 
25 5 6 23 6 6 21 6 6 19 7 6 17 7 6 25 17 15 39 31 30 56 49 47 
50 44 43 33 29 29 16 12 12 9 4 4 7 2 2 7 3 3 12 7 7 16 11 11 
11 6 6 10 5 6 11 4 6 11 4 5 12 4 4 14 5 4 17 8 6 20 9 6 
22 9 6 26 11 7 29 13 7 32 14 8 36 14 10 39 16 12 42 17 13 45 16 15 
48 18 17 51 18 18 49 15 18 51 15 20 55 16 23 60 19 28 59 17 28 58 15 27 
57 14 27 56 16 23 56 20 21 60 24 24 64 28 27 69 32 29 74 35 31 78 39 32 
86 45 36 100 54 43 106 55 42 112 55 40 117 55 39 133 64 47 146 71 52 152 72 51 
160 76 54 168 81 56 174 85 57 173 85 55 170 83 51 166 80 46 164 80 44 165 82 44 
166 84 46 152 78 43 143 74 41 142 72 40 142 74 41 144 76 42 147 80 45 151 83 48 
154 86 51 157 88 53 162 89 54 166 89 55 170 89 57 179 94 64 180 92 64 175 85 58 
172 83 56 172 84 59 174 89 63 172 91 65 165 88 63 154 81 56 137 70 44 125 61 35 
114 53 29 98 53 41 86 46 40 74 36 31 61 26 20 50 18 13 43 12 8 41 12 9 
42 13 12 44 16 16 46 19 18 49 20 22 51 20 25 52 20 25 52 19 25 50 17 24 
46 15 21 42 13 18 37 11 16 32 11 12 26 10 10 21 9 8 18 9 5 15 9 4 
13 8 3 10 2 1 28 20 19 52 44 43 68 61 59 43 36 34 13 7 5 6 3 1 
7 5 2 9 9 5 15 16 11 19 23 16 24 30 22 32 39 30 34 43 32 33 44 32 
29 42 28 28 43 28 29 45 30 32 49 33 34 52 35 34 53 36 34 54 37 35 55 38 
34 56 38 28 57 34 23 52 29 21 50 27 24 54 32 25 55 33 25 55 34 26 56 36 
27 57 37 27 56 35 23 50 29 20 45 24 20 43 22 25 46 24 32 49 25 41 55 28 
52 63 33 68 75 42 85 87 50 99 97 58 112 106 65 124 115 71 135 123 77 142 128 81 
148 135 87 153 143 94 162 153 104 172 164 115 183 176 127 180 175 127 180 175 129 181 177 133 
176 174 131 177 175 134 181 181 141 193 193 155 203 204 167 212 213 178 226 228 193 233 235 201 
234 236 203 240 241 208 223 224 191 190 190 158 165 166 133 123 122 91 71 69 39 40 38 14 
23 20 2 15 9 1 8 2 0 61 56 49 144 139 121 176 171 151 206 202 177 230 227 198 
228 225 192 216 213 178 203 201 162 213 212 172 223 224 183 228 230 189 211 213 174 196 199 163 
175 178 146 122 125 98 81 85 62 48 52 33 25 28 15 10 14 5 2 6 0 1 6 0 
17 21 8 36 40 19 46 49 28 73 76 56 109 110 92 154 153 138 181 177 165 196 190 180 
199 191 183 175 166 158 130 120 113 51 43 38 27 22 13 21 19 6 24 25 10 41 48 27 
63 77 49 91 110 77 107 132 94 128 158 114 160 196 147 163 202 150 158 200 144 147 191 133 
154 191 147 160 191 159 158 190 157 133 166 133 106 140 107 83 119 84 74 112 75 91 131 91 
146 187 146 157 198 157 164 204 163 171 208 169 164 197 159 157 184 149 152 173 142 99 112 86 
62 67 45 51 47 30 43 30 19 41 19 13 45 15 14 51 16 16 56 17 19 62 18 23 
75 18 20 82 17 19 82 17 18 87 19 20 92 21 23 96 23 25 102 26 28 108 29 30 
114 31 33 117 32 33 119 32 32 118 30 30 120 32 31 121 32 32 121 32 32 121 32 32 
120 32 32 117 30 30 114 29 30 110 27 28 105 25 24 102 23 23 98 21 21 95 19 18 
89 21 21 88 24 24 90 26 27 86 24 25 79 20 21 71 15 14 64 10 10 60 9 10 
58 9 10 57 12 12 54 11 12 51 9 11 51 10 12 51 10 12 51 9 14 54 11 17 
57 12 20 61 13 22 62 13 22 64 13 24 65 13 25 68 15 27 69 15 27 69 15 27 
64 16 26 63 17 26 65 18 27 67 19 27 67 18 26 66 16 24 66 16 21 67 15 20 
68 15 20 69 16 21 69 16 21 69 17 22 69 19 23 66 19 24 62 19 23 57 18 21 
51 15 20 45 13 18 37 10 15 32 8 13 28 7 12 26 8 14 25 9 14 21 9 13 
10 8 6 6 5 3 14 13 11 42 42 40 56 56 54 50 49 47 13 12 10 15 14 12 
20 19 17 20 19 17 
7 1 0 12 5 5 51 39 43 62 49 54 54 43 47 27 16 20 16 7 10 14 7 10 
10 5 8 7 5 7 5 5 7 8 9 11 8 10 11 6 9 10 7 9 12 8 8 12 
8 7 11 8 5 10 10 4 10 14 5 13 21 9 17 26 11 20 30 14 23 32 14 25 
34 15 26 36 14 25 41 9 17 55 19 26 77 40 48 116 79 85 133 95 100 144 103 107 
157 113 116 166 117 120 171 116 118 168 106 106 187 119 119 208 133 134 220 138 139 210 123 125 
205 115 117 223 132 132 230 139 138 229 140 138 221 135 132 219 137 133 215 136 131 204 128 121 
202 128 121 195 128 123 177 125 126 180 132 132 183 138 137 180 140 138 183 148 144 189 159 154 
201 174 167 210 185 178 223 199 191 244 217 211 249 225 220 250 225 223 249 218 219 205 158 160 
169 110 114 146 83 88 148 84 89 175 111 117 231 169 175 243 200 205 236 197 201 209 157 159 
188 138 139 180 106 108 187 63 65 188 64 65 189 66 64 189 67 63 190 69 63 191 70 61 
193 72 59 195 73 58 196 73 56 196 74 55 197 74 55 197 73 54 195 71 53 191 69 51 
185 67 50 178 63 49 168 59 46 156 55 42 143 49 38 127 40 31 111 31 23 96 22 15 
86 15 8 67 13 11 45 16 19 40 14 16 36 11 12 32 7 8 28 5 6 25 4 5 
24 4 6 23 6 6 21 6 6 19 7 6 18 8 6 26 17 16 39 31 30 55 48 46 
49 43 42 33 28 28 17 13 12 10 5 5 6 1 1 6 2 1 12 7 7 17 12 12 
13 9 8 12 6 7 11 3 6 10 2 5 11 2 3 12 3 2 16 5 4 18 6 4 
21 8 5 25 10 6 31 14 9 36 17 11 38 16 12 39 15 11 40 14 11 43 15 13 
47 16 15 49 16 16 49 13 17 50 13 19 53 14 21 56 14 25 54 12 23 53 10 22 
53 10 23 57 20 25 61 29 28 65 33 32 70 38 35 75 41 37 79 43 37 84 47 38 
94 53 43 111 66 54 113 62 49 116 58 43 119 55 39 134 63 46 146 69 50 152 70 49 
158 73 49 162 75 49 166 77 49 163 77 45 161 77 42 158 75 39 158 77 39 158 80 40 
160 83 41 147 80 43 140 78 43 139 78 42 141 79 44 145 82 46 150 86 50 154 89 52 
158 91 55 163 93 57 167 95 60 172 97 62 177 99 65 184 102 70 184 99 69 178 91 63 
172 86 58 170 85 58 170 87 61 167 87 61 160 83 57 150 76 51 132 63 37 121 54 29 
112 49 25 96 49 37 83 43 37 71 33 28 58 24 18 49 17 12 43 13 9 42 13 10 
43 15 13 46 18 18 48 20 20 50 21 23 51 21 26 52 21 26 52 19 25 50 17 24 
46 15 21 42 13 18 37 11 16 32 11 12 26 10 10 21 9 8 18 9 5 15 9 4 
12 8 3 9 2 1 27 18 18 50 41 40 67 60 59 44 37 35 14 8 6 5 2 1 
4 2 0 7 7 3 15 17 11 22 26 19 28 34 26 33 41 32 35 44 33 34 45 33 
30 43 30 29 43 29 29 45 30 31 49 33 33 51 35 34 53 36 34 55 37 35 56 38 
33 57 38 28 58 34 24 55 30 23 53 29 24 55 32 26 56 34 27 58 36 29 60 40 
30 61 41 29 59 38 25 53 32 22 47 26 22 45 24 28 49 25 36 54 29 47 62 34 
62 73 42 82 89 54 97 99 62 107 104 64 120 113 71 133 123 78 144 132 84 150 136 88 
156 144 94 162 154 102 170 161 111 176 169 119 181 176 125 179 174 125 179 175 128 181 179 134 
183 181 138 189 188 146 198 199 157 209 210 171 219 221 184 229 233 196 238 242 206 238 241 206 
230 233 199 230 232 199 204 207 173 161 162 129 128 129 97 86 86 55 40 40 12 18 17 3 
10 7 1 10 5 1 7 1 0 67 62 56 158 153 137 184 180 161 211 207 184 233 230 203 
233 230 200 224 222 188 213 212 174 222 221 182 218 219 179 204 206 167 172 174 138 135 139 105 
95 99 69 45 48 30 27 31 14 20 26 9 8 11 3 2 5 1 1 4 0 1 4 0 
7 11 2 17 21 6 30 33 14 50 52 32 80 80 63 133 132 117 164 160 148 184 177 167 
193 185 177 179 170 162 156 146 139 125 117 110 70 64 54 26 24 11 27 29 13 42 50 27 
66 80 51 105 124 91 128 154 113 150 181 135 177 214 164 180 220 165 173 216 159 160 206 146 
169 207 163 185 216 184 203 235 203 184 218 185 158 194 159 129 167 131 109 149 110 118 160 119 
174 218 176 171 214 172 162 203 160 152 191 149 148 182 143 141 169 134 129 150 119 76 90 63 
43 49 27 41 38 21 38 25 14 39 17 11 45 15 13 54 17 18 60 19 21 63 19 24 
75 17 20 82 16 18 84 17 19 87 19 20 92 21 22 97 22 25 103 25 27 108 28 29 
114 30 32 117 31 32 118 30 30 117 29 29 121 31 31 124 33 33 125 34 34 123 33 33 
120 31 32 118 30 30 113 27 27 108 24 25 104 23 22 98 19 18 94 16 16 91 15 14 
81 14 13 78 14 14 79 15 15 76 15 15 71 12 13 66 9 9 60 7 6 57 6 5 
54 6 5 52 6 6 50 6 7 49 5 8 46 5 6 46 5 6 48 5 9 51 6 13 
55 8 16 59 9 19 59 8 19 62 9 21 66 12 24 70 15 28 72 17 29 72 17 29 
65 16 26 65 17 27 68 19 29 70 21 29 68 18 27 66 15 23 66 14 19 66 14 19 
68 15 20 70 17 22 70 17 22 70 17 23 69 19 23 66 19 24 63 19 23 58 18 21 
51 15 20 44 12 18 37 9 14 32 7 13 28 7 12 26 8 14 25 9 14 22 10 13 
11 9 8 6 5 4 13 13 11 40 39 37 53 52 50 46 45 43 9 8 6 13 12 10 
19 18 16 20 20 18 
7 5 4 12 9 8 48 42 44 60 53 55 53 46 48 22 16 18 11 5 7 10 5 7 
9 4 6 8 5 7 7 6 7 9 8 9 8 9 9 7 9 9 8 10 11 7 9 10 
6 7 9 7 5 8 11 5 9 16 7 12 23 10 16 30 12 20 36 14 23 39 14 25 
42 14 25 45 12 24 51 8 16 69 22 29 98 50 57 147 97 104 165 113 119 174 120 125 
185 128 131 191 130 133 195 130 132 197 126 128 207 133 133 218 140 140 225 143 143 211 125 125 
203 116 116 224 136 136 226 137 138 223 135 135 218 134 133 216 133 133 210 129 129 199 120 119 
201 123 122 199 125 125 188 120 122 188 119 121 190 118 121 192 117 120 194 120 124 195 127 129 
196 138 136 203 154 149 216 175 167 237 203 192 243 216 204 243 218 207 236 209 199 206 171 162 
179 141 132 159 123 113 164 127 118 186 148 139 225 188 179 241 208 201 231 190 186 195 132 131 
182 113 113 179 90 89 187 64 58 190 66 60 192 69 61 193 70 61 194 71 61 194 71 60 
195 71 58 197 72 59 198 73 59 197 74 58 197 73 58 195 72 57 191 71 56 187 70 55 
182 68 54 175 65 53 166 61 50 156 57 46 143 52 42 130 44 35 115 34 26 99 24 16 
87 16 9 72 13 11 55 14 17 49 11 12 45 9 10 41 9 9 36 8 8 29 6 5 
23 3 3 20 4 4 19 7 6 18 9 7 15 8 7 23 15 15 37 29 30 59 51 53 
53 45 48 34 27 31 16 10 12 10 3 6 9 1 6 9 2 6 11 5 10 13 8 13 
11 6 11 8 6 10 6 6 10 6 5 9 7 4 8 9 4 8 14 6 10 18 7 11 
22 8 12 26 9 13 31 11 14 35 13 15 37 13 16 38 13 15 38 13 14 40 13 15 
43 14 16 45 15 17 47 14 18 48 14 18 49 13 18 52 13 19 53 12 19 54 12 18 
55 12 20 61 24 23 68 35 27 73 40 31 79 46 36 85 51 41 91 55 43 97 59 44 
106 64 48 118 70 54 123 68 50 127 65 47 132 63 44 148 70 50 158 74 53 161 72 51 
166 74 50 168 76 50 169 77 50 164 78 48 161 80 47 161 84 49 161 89 51 161 94 53 
163 99 56 155 95 53 150 91 49 149 87 47 151 86 45 155 86 46 162 87 48 168 88 50 
173 89 52 178 90 53 181 92 56 184 94 58 187 96 61 187 98 63 185 97 63 179 94 60 
172 90 58 168 89 57 165 88 58 163 88 59 159 86 58 153 80 55 138 67 42 125 56 32 
115 48 27 102 56 44 84 46 39 64 27 20 54 22 14 47 17 10 42 13 7 40 13 8 
41 14 11 44 16 16 48 19 19 52 20 23 55 20 26 57 19 26 58 18 26 59 17 27 
55 16 24 49 13 20 42 10 16 33 8 12 27 8 10 21 9 8 16 10 6 12 10 5 
10 9 4 11 5 3 29 21 20 50 42 41 65 59 56 40 36 32 12 8 4 8 6 1 
4 4 0 6 7 3 19 23 12 24 30 18 28 36 23 33 42 27 33 44 28 31 44 28 
30 44 27 30 46 28 31 48 30 33 51 33 34 52 34 34 53 35 34 55 37 36 57 38 
33 58 37 26 59 30 23 56 27 22 55 26 24 58 30 30 63 36 35 67 41 37 67 43 
35 62 39 30 55 33 25 47 24 23 42 20 27 42 19 37 49 24 48 57 30 63 68 39 
81 83 51 97 97 61 110 107 68 118 113 70 130 122 78 141 132 85 151 140 92 156 144 95 
161 150 99 167 158 106 172 163 112 176 168 118 180 174 124 179 173 124 179 174 127 181 178 132 
192 189 144 205 202 157 218 218 171 224 224 179 229 229 184 233 233 187 237 237 191 233 232 188 
224 222 180 226 223 183 192 187 150 133 126 93 104 96 66 73 63 36 41 30 8 28 17 4 
28 18 3 36 28 5 44 35 14 97 89 64 173 165 135 194 186 155 214 207 175 232 226 191 
232 226 191 225 220 184 215 211 174 210 206 170 197 194 159 180 179 146 160 158 128 112 111 84 
58 58 35 29 28 13 20 19 6 18 18 6 14 12 7 11 10 7 10 10 7 10 9 7 
9 9 5 10 12 4 20 21 11 35 36 24 63 62 51 121 118 108 148 143 134 164 158 149 
178 171 162 176 168 159 167 159 150 157 151 140 94 91 76 36 35 19 23 25 10 39 45 25 
66 77 51 104 118 89 129 149 115 150 174 137 167 195 156 169 200 158 169 202 159 172 206 162 
177 207 171 187 212 183 202 228 198 197 223 192 184 212 180 164 194 159 151 184 146 156 192 151 
186 226 182 179 221 175 166 210 162 150 194 146 130 174 127 115 156 111 104 142 99 64 94 57 
38 60 28 34 47 21 35 37 17 39 29 16 45 24 17 52 21 18 57 20 20 62 19 22 
77 16 22 86 15 23 89 16 23 94 17 23 98 19 23 103 20 24 108 24 26 113 27 29 
117 32 33 115 33 30 112 32 27 107 30 24 110 33 26 113 35 27 114 36 28 115 35 28 
114 33 28 113 31 26 107 27 22 103 25 21 101 26 21 102 31 27 100 33 29 99 34 30 
111 38 38 116 40 43 116 42 45 114 41 45 114 42 46 112 44 48 105 40 43 99 37 40 
95 35 40 98 41 45 96 42 46 93 40 46 95 46 50 90 42 47 82 35 39 74 28 33 
65 20 25 57 12 17 55 10 15 56 11 15 58 12 18 60 15 19 62 17 21 63 18 22 
60 14 21 62 15 23 65 18 25 65 18 25 65 17 23 66 16 23 68 17 23 68 17 22 
68 15 21 68 14 20 70 16 22 71 17 24 71 18 24 69 17 24 65 17 23 60 16 21 
54 15 19 46 13 17 37 10 12 29 9 10 23 9 8 18 10 8 17 12 9 16 12 8 
11 8 4 10 7 3 17 15 11 39 38 35 48 47 44 41 41 38 12 12 9 13 13 11 
17 16 15 19 18 17 
9 10 8 12 14 11 47 46 46 59 57 57 52 49 50 18 15 16 7 2 4 8 2 4 
8 3 5 9 4 6 10 6 7 9 7 8 8 8 8 8 9 8 8 10 9 7 9 9 
5 8 7 7 6 6 11 6 8 17 7 11 26 10 16 34 12 20 42 14 23 47 14 25 
50 13 25 53 11 22 61 8 15 82 25 31 113 54 61 162 101 109 178 114 120 182 116 120 
188 120 123 191 120 123 196 121 123 204 127 128 209 129 130 213 132 132 219 138 136 202 119 117 
193 109 108 215 131 130 212 128 129 209 125 127 213 132 132 211 130 133 206 126 129 197 118 121 
201 121 126 205 124 128 204 122 123 203 114 117 205 108 113 213 104 112 215 105 114 211 107 114 
200 111 113 201 128 125 208 152 143 223 184 169 228 199 181 229 205 185 224 198 179 207 184 164 
192 172 151 178 165 141 188 176 152 205 192 168 227 214 190 242 220 201 227 186 174 183 109 104 
180 92 91 181 77 74 186 65 52 191 69 56 194 71 58 196 73 59 195 71 57 195 70 57 
195 69 56 197 71 58 198 72 60 198 73 61 196 72 61 193 71 60 187 70 58 184 71 59 
179 69 59 172 67 57 164 63 54 155 59 50 144 55 45 133 47 39 119 37 29 102 25 17 
89 16 9 77 12 10 66 13 15 58 8 10 54 8 9 50 10 11 44 11 10 34 7 6 
22 2 1 18 4 3 17 7 6 17 11 8 12 7 7 19 13 14 34 27 29 62 53 58 
56 47 53 35 26 32 15 7 13 10 1 8 11 2 10 12 2 11 11 3 12 9 3 13 
9 3 12 5 6 13 2 10 14 1 8 13 3 6 12 7 5 13 12 7 16 19 8 18 
24 8 19 27 7 19 30 8 19 34 9 18 36 10 20 37 11 19 37 11 17 37 12 18 
39 13 18 42 15 18 45 16 20 46 15 17 47 13 15 49 13 15 53 14 16 56 15 17 
58 16 18 67 28 22 74 39 26 80 44 30 86 52 36 94 59 42 102 65 46 108 69 49 
115 71 50 122 72 51 130 72 50 138 72 50 145 71 49 161 78 56 171 81 58 171 76 54 
175 78 54 176 80 55 174 81 54 169 83 54 166 88 56 168 96 62 168 105 67 169 112 71 
172 118 75 167 112 66 163 106 58 161 100 54 163 94 50 167 90 48 173 88 48 181 87 48 
187 87 49 191 86 50 193 88 52 195 90 54 195 92 56 191 94 57 186 96 58 182 96 59 
175 95 59 169 93 58 164 91 58 162 92 61 161 90 62 158 87 61 145 74 50 133 61 39 
121 51 31 110 64 52 86 51 42 58 23 15 52 22 13 46 18 9 40 13 6 38 13 7 
39 14 9 43 15 13 49 18 18 54 19 23 58 19 26 61 17 25 64 17 27 66 18 29 
63 16 27 55 13 22 46 8 16 35 6 12 27 7 10 21 9 9 14 11 7 9 11 6 
7 10 4 13 7 5 31 23 22 51 43 41 64 59 54 37 34 29 8 6 1 10 10 1 
5 7 1 5 9 3 23 29 15 27 35 18 27 38 20 31 43 23 30 43 23 29 43 23 
29 45 25 32 48 28 34 51 32 35 53 34 34 53 34 34 53 34 34 55 35 37 57 38 
33 59 36 24 60 27 21 57 24 22 57 24 25 61 29 34 70 39 42 75 45 44 73 46 
38 62 36 31 50 26 25 40 15 26 36 12 33 39 15 47 50 23 61 60 32 77 73 43 
97 91 57 110 102 65 120 112 71 128 119 75 138 129 83 148 138 91 157 147 98 160 151 100 
165 156 104 171 162 109 173 163 111 176 167 116 180 172 124 181 173 125 182 175 128 183 179 132 
202 197 150 219 215 167 235 233 182 236 235 183 235 233 179 231 228 174 231 227 173 226 221 168 
218 210 160 219 210 164 176 163 123 102 86 54 84 65 39 65 44 23 48 25 10 43 20 6 
50 31 8 66 54 16 89 77 36 133 123 79 187 176 132 203 192 149 217 207 165 228 219 178 
227 219 179 223 214 177 213 206 170 196 188 154 177 170 139 159 154 126 149 143 119 97 91 71 
37 32 16 30 24 12 25 19 9 22 17 10 24 18 14 22 17 14 20 16 13 20 16 15 
14 11 10 8 7 5 13 12 10 26 25 22 53 50 45 109 106 100 132 127 121 145 140 132 
164 157 148 170 164 153 173 167 154 173 168 154 108 105 87 42 41 23 18 19 5 37 42 23 
67 75 51 95 105 80 116 129 103 130 147 119 135 154 125 141 162 133 153 176 147 177 201 172 
181 203 175 185 204 178 194 213 186 201 221 192 202 223 193 194 216 183 191 217 180 190 221 180 
193 229 183 183 224 175 168 213 161 147 196 142 114 166 112 92 144 90 83 133 81 56 100 53 
37 73 32 30 57 22 34 49 22 40 42 23 46 34 22 50 25 19 54 20 18 60 20 20 
78 15 25 89 14 27 94 16 28 99 16 26 103 17 25 107 18 24 112 22 26 117 27 29 
120 34 33 113 36 30 105 35 25 97 32 20 99 35 21 101 37 21 104 37 22 108 37 24 
109 34 23 108 31 22 102 27 18 99 26 17 98 30 21 111 51 40 117 62 52 120 68 58 
156 79 80 169 85 90 169 85 92 166 83 90 168 87 94 171 91 100 161 85 93 154 80 89 
150 79 89 158 91 100 157 93 101 152 91 99 158 102 109 144 91 98 121 71 77 101 54 58 
78 34 36 58 15 16 53 13 12 51 13 11 51 14 12 50 15 11 52 18 13 55 19 16 
56 12 16 60 14 19 62 16 21 61 15 20 62 15 20 65 16 22 69 21 27 69 19 26 
67 16 23 65 11 19 69 14 21 73 17 25 74 17 25 71 16 24 67 15 22 62 15 20 
56 15 19 48 14 16 37 12 11 28 11 8 19 11 5 12 12 3 11 15 4 11 14 4 
11 6 1 14 8 3 22 18 13 40 38 34 44 44 40 38 38 34 15 17 12 13 14 12 
15 14 14 17 15 16 
13 14 11 16 18 15 50 49 49 61 59 59 55 51 52 21 16 18 9 4 6 10 3 6 
9 3 5 10 4 6 11 6 8 10 8 9 9 8 8 8 8 8 8 10 9 7 9 8 
6 8 7 8 6 7 12 6 8 17 7 11 26 10 16 35 12 20 42 14 23 48 14 25 
50 13 25 54 12 23 62 11 17 85 29 35 116 58 65 157 97 104 170 108 113 175 111 114 
182 115 118 184 115 116 187 115 116 196 122 122 200 124 124 202 124 123 201 122 120 186 106 105 
180 99 98 198 118 117 202 122 122 206 127 128 219 141 142 220 143 146 219 143 146 216 140 144 
214 138 143 211 135 138 208 128 127 205 119 120 206 111 115 212 105 112 212 103 111 205 102 109 
192 102 103 188 113 110 188 129 121 191 148 135 192 159 143 201 172 154 220 190 172 213 185 167 
207 183 163 204 186 162 220 203 179 234 219 195 247 234 211 249 229 211 223 183 171 169 93 88 
170 80 80 175 70 67 181 61 48 187 65 52 191 68 55 195 70 57 194 69 56 194 69 56 
194 69 56 196 70 57 197 71 59 197 71 60 194 70 59 191 70 59 189 71 59 186 71 60 
180 70 59 173 67 58 165 63 54 156 59 51 146 55 46 135 49 39 121 38 29 104 26 18 
92 17 10 79 13 11 67 14 16 60 9 11 55 9 10 51 11 12 45 11 11 34 7 6 
23 2 1 19 5 2 18 8 5 18 10 8 13 7 7 18 12 13 32 24 27 59 50 55 
53 44 49 33 24 30 18 8 15 12 3 10 11 2 10 12 2 11 10 3 11 9 3 11 
9 4 11 6 8 13 2 10 14 1 7 12 3 6 11 7 5 11 13 6 14 19 7 16 
25 8 18 28 7 19 30 7 17 33 7 16 36 9 18 38 11 18 38 12 17 37 11 16 
40 12 16 43 14 17 46 17 19 46 15 16 47 13 13 49 13 14 55 16 17 60 19 20 
63 21 22 71 33 25 79 44 29 83 48 33 88 53 37 94 59 41 101 65 46 108 68 49 
116 71 50 123 73 50 131 73 51 139 73 51 147 72 51 165 82 60 175 86 63 175 81 58 
179 83 59 181 84 59 178 85 59 174 88 59 174 95 63 178 106 72 179 116 77 181 124 82 
183 129 87 175 124 77 172 119 71 172 115 67 172 108 63 174 102 59 178 97 56 182 93 54 
186 90 52 190 88 52 193 89 53 195 91 55 196 94 58 196 98 62 194 101 65 190 102 66 
184 101 66 178 100 65 172 97 65 168 97 66 165 95 66 162 92 66 151 82 57 140 71 48 
129 62 41 112 68 55 87 52 44 60 27 19 55 25 16 48 19 12 40 13 6 39 14 8 
41 15 11 44 16 15 50 19 19 54 19 23 57 18 25 60 16 24 62 16 26 64 17 27 
62 16 26 55 12 21 45 7 16 36 6 12 28 7 11 21 10 10 15 12 9 11 13 7 
9 11 5 10 4 2 29 21 20 51 43 42 65 59 56 37 33 30 7 5 0 9 8 1 
5 6 1 6 9 4 26 33 19 29 38 22 29 39 21 31 44 23 30 43 23 29 43 24 
30 46 26 33 50 30 36 53 34 36 55 35 34 54 35 33 53 34 33 53 34 35 56 36 
32 58 35 23 59 26 21 58 24 23 59 26 29 64 33 38 72 42 44 76 47 45 72 45 
36 60 34 29 48 22 23 38 13 25 34 10 33 38 14 50 51 25 63 62 33 79 75 44 
99 93 59 112 104 67 123 114 73 130 121 77 140 131 85 150 140 92 158 149 98 161 152 100 
167 158 105 177 168 113 176 167 114 178 169 117 182 174 124 185 177 128 188 181 133 192 187 139 
210 206 157 226 223 174 240 239 188 240 237 186 236 232 179 227 224 169 226 222 168 219 213 161 
206 199 148 194 184 140 139 126 89 58 42 15 60 40 16 52 31 11 39 17 4 40 16 4 
54 35 12 80 69 28 124 113 70 164 153 110 199 188 144 210 199 157 219 209 167 226 216 175 
223 213 174 217 209 171 209 201 165 190 182 149 168 160 130 144 137 110 119 113 89 70 64 47 
21 15 4 24 18 7 24 18 7 23 17 9 27 21 15 26 20 17 24 18 16 26 20 19 
16 12 11 6 5 3 8 8 6 22 20 17 47 44 40 94 90 85 115 110 104 131 125 117 
155 149 140 168 161 150 176 169 157 181 175 160 106 103 85 33 32 14 16 17 3 42 46 28 
69 77 53 78 88 63 80 93 67 76 92 65 62 81 53 85 105 77 120 143 114 166 190 161 
179 201 174 189 209 183 206 225 198 217 237 209 223 244 214 220 243 209 214 241 204 208 239 197 
201 237 191 180 221 172 156 202 150 129 178 124 102 153 98 80 130 77 64 112 60 45 87 41 
32 67 26 28 54 20 36 50 23 44 44 26 49 36 24 52 27 20 56 21 19 60 20 20 
76 16 25 87 15 28 92 16 28 97 16 27 102 16 25 106 18 24 112 22 26 116 27 29 
118 33 33 113 35 30 106 35 26 99 33 20 98 33 20 100 34 20 105 35 21 109 34 22 
110 31 21 108 27 19 103 24 16 99 22 14 97 25 17 129 64 55 150 91 81 164 108 99 
210 134 136 226 142 148 222 138 146 215 131 139 214 133 141 216 138 146 210 134 143 206 133 142 
204 135 145 215 149 159 214 152 161 209 149 159 214 158 166 187 134 141 146 97 103 119 72 77 
88 42 46 61 17 19 55 14 15 53 14 13 53 15 13 52 14 11 53 16 12 55 18 15 
58 14 17 61 15 21 64 18 23 61 15 21 61 14 20 63 15 20 67 18 24 67 17 23 
66 15 21 65 12 19 69 16 23 74 19 27 74 18 26 72 17 25 67 16 23 61 16 21 
55 15 18 47 14 15 38 13 12 30 13 9 22 13 7 15 14 6 13 15 5 12 13 4 
14 6 1 17 9 4 26 20 15 45 42 36 49 47 42 39 39 35 14 14 10 12 12 10 
14 13 12 15 13 14 
16 17 15 20 20 18 52 50 50 63 60 60 57 53 53 23 18 19 12 5 6 12 4 6 
12 4 6 12 5 6 13 6 8 11 7 7 10 7 7 9 8 7 8 8 7 8 8 7 
8 7 6 10 6 6 14 7 8 20 8 11 28 10 15 36 12 19 43 14 22 48 14 24 
52 14 25 56 13 24 63 13 18 84 29 35 112 57 63 151 94 100 167 108 112 174 114 116 
182 119 121 183 118 118 184 117 116 192 123 122 194 123 121 195 122 120 196 122 120 186 112 110 
180 107 104 188 116 113 191 120 117 197 126 124 209 139 138 209 140 140 210 142 142 215 148 150 
209 142 144 204 136 136 207 131 128 206 123 123 207 115 118 214 109 115 213 106 112 207 104 109 
194 102 103 187 109 107 185 120 113 186 136 124 186 145 130 194 157 141 213 175 159 216 180 163 
218 186 167 222 195 173 236 217 194 247 232 209 252 238 216 250 228 211 222 178 167 167 87 83 
168 75 74 173 67 63 181 60 47 187 64 51 191 68 55 195 71 57 196 70 57 196 70 57 
197 70 57 198 71 58 199 72 60 198 72 61 195 71 60 192 70 59 190 71 60 187 71 60 
182 70 60 175 68 58 166 64 55 158 60 51 148 57 47 137 50 41 124 40 31 108 28 20 
95 18 11 82 15 12 70 16 17 63 11 13 57 10 12 52 11 12 46 12 11 36 8 7 
25 3 1 20 5 2 19 8 5 18 10 8 13 6 6 19 12 13 33 25 28 58 50 54 
51 42 48 31 22 27 18 7 14 13 3 10 12 3 10 13 3 11 11 4 11 10 4 11 
10 5 11 7 8 12 3 10 13 3 7 11 5 5 10 8 5 10 14 5 12 20 7 14 
26 8 16 30 8 17 32 8 16 35 8 15 37 9 16 39 11 17 41 13 16 40 12 15 
42 13 15 46 15 16 48 17 18 46 14 14 46 12 11 49 12 12 56 18 17 63 23 22 
68 27 26 76 38 29 83 47 32 86 49 35 90 54 37 95 59 41 101 64 44 109 68 47 
117 72 50 125 74 50 133 74 51 140 74 51 147 73 50 164 82 59 174 85 63 174 80 57 
177 82 58 179 84 58 176 84 58 174 89 60 174 96 64 177 106 71 179 116 78 182 125 85 
186 132 91 174 127 81 167 122 75 166 117 71 167 110 66 171 106 64 178 105 64 181 99 59 
183 94 56 186 90 54 189 89 54 192 90 55 194 92 58 197 97 63 197 100 66 194 101 68 
189 101 68 182 99 67 175 96 65 168 94 64 161 92 63 155 88 61 146 80 55 136 72 48 
126 65 43 110 67 55 87 52 44 62 29 21 57 27 19 49 20 13 40 13 7 39 14 9 
41 15 12 45 17 15 51 19 20 54 19 23 56 17 24 58 15 23 61 16 25 63 16 27 
60 15 25 54 12 21 45 8 16 35 7 12 29 8 11 23 11 10 17 13 9 13 14 8 
10 12 6 8 3 1 28 20 20 52 44 43 67 61 58 37 33 31 4 3 0 6 6 1 
4 6 0 7 11 5 29 36 23 32 41 25 30 42 24 31 44 24 29 44 24 29 44 25 
30 48 27 33 52 32 36 55 36 37 57 37 34 55 35 32 53 34 32 52 33 33 54 35 
30 55 33 22 56 24 21 57 24 25 60 28 31 66 35 39 73 43 43 74 45 41 67 40 
32 54 28 25 43 17 22 35 10 25 33 8 36 40 14 56 56 30 69 66 37 83 79 47 
101 95 60 115 106 68 125 115 74 132 123 78 143 132 85 152 141 92 160 149 98 163 153 100 
169 159 104 177 169 112 177 168 112 178 169 115 182 174 122 187 179 129 193 186 137 200 195 146 
218 213 164 232 228 178 241 238 187 236 233 181 229 226 172 220 217 162 221 216 162 213 207 155 
200 192 143 192 181 137 133 119 85 45 28 4 48 29 7 44 23 5 37 15 2 39 15 4 
56 37 15 86 75 35 141 130 88 180 169 126 207 196 153 215 204 163 222 211 170 225 215 175 
221 211 173 213 204 167 202 194 158 180 172 139 160 153 122 140 133 106 114 107 82 65 58 41 
17 11 1 21 14 3 22 15 5 23 17 8 27 21 15 28 21 18 28 20 19 30 22 21 
17 13 12 4 4 2 5 4 2 16 15 12 38 35 30 77 73 68 100 95 89 121 115 108 
152 145 136 168 161 150 179 173 159 189 183 167 112 109 90 36 35 17 18 20 4 45 49 30 
72 80 56 79 89 64 81 94 68 74 90 63 53 71 43 76 97 68 113 136 107 158 183 153 
173 196 167 183 204 177 196 216 188 213 234 205 225 247 217 229 251 219 223 250 213 214 245 204 
201 237 191 177 218 169 154 199 148 134 182 129 101 151 97 76 125 72 62 108 58 43 83 38 
32 64 25 30 54 21 40 53 27 49 48 30 53 39 28 54 28 22 57 21 19 60 18 19 
74 16 25 84 16 28 89 17 28 94 16 27 99 17 25 103 18 25 109 23 26 113 27 29 
116 33 32 112 35 30 106 35 26 101 34 22 100 33 20 102 33 20 107 32 20 113 32 22 
115 30 21 114 27 20 112 26 19 106 23 17 102 23 16 138 65 59 161 94 87 177 112 106 
218 138 142 230 145 152 223 138 147 213 130 138 213 132 140 217 139 148 214 140 150 212 141 151 
213 145 155 224 159 169 223 162 171 218 160 169 224 170 178 195 144 151 151 102 109 119 72 79 
82 39 42 48 10 10 45 8 8 48 9 9 54 11 11 56 14 13 55 14 12 54 13 12 
59 13 17 63 16 22 66 19 25 64 17 22 62 15 20 62 14 20 66 16 22 65 16 22 
64 14 20 64 13 19 69 17 24 74 20 28 74 20 28 70 18 25 66 17 23 62 17 22 
54 14 18 46 13 14 39 14 14 30 12 9 22 11 6 17 13 5 14 13 4 13 10 2 
15 4 1 18 7 3 27 17 12 47 39 33 51 46 39 42 39 34 17 16 12 16 15 12 
17 16 14 18 16 16 
19 19 17 23 22 21 54 51 50 64 60 59 58 53 53 25 19 19 14 6 7 14 5 6 
14 5 6 15 6 7 15 6 7 13 7 7 12 7 7 11 7 6 9 7 5 8 7 5 
9 7 5 11 6 6 16 7 8 23 9 11 30 11 15 38 12 19 44 14 22 49 14 24 
53 14 25 57 14 24 63 13 18 79 26 31 101 48 53 134 79 83 148 92 94 155 98 99 
162 103 103 161 100 99 161 99 96 168 105 102 169 104 100 168 102 98 170 104 100 165 99 95 
160 95 91 157 96 92 157 97 93 161 102 97 172 111 108 173 113 111 181 122 120 204 147 145 
199 144 142 197 138 135 207 135 130 208 128 126 210 122 122 217 116 120 217 112 117 212 109 113 
200 107 108 192 110 107 187 117 111 187 130 119 186 137 123 190 143 129 199 151 137 209 163 148 
218 176 159 227 190 170 242 216 196 250 230 210 249 229 209 245 214 198 217 165 155 165 80 75 
167 71 69 174 65 61 183 61 48 188 65 52 192 69 56 196 72 59 197 71 58 198 71 58 
199 71 58 200 72 59 200 73 60 199 73 61 196 71 60 194 71 60 192 72 60 189 72 61 
184 71 60 177 69 59 168 65 55 160 62 52 151 58 48 140 52 42 127 42 33 112 30 22 
99 20 12 85 17 12 73 17 18 65 13 14 59 11 12 53 11 12 47 12 11 37 8 7 
26 3 2 21 4 2 19 7 5 17 9 7 12 5 4 19 13 13 35 28 30 59 50 55 
51 42 47 30 21 26 17 7 12 13 4 9 13 4 10 14 5 11 12 5 11 11 5 11 
11 5 11 8 8 11 5 10 11 5 8 9 7 6 8 10 4 8 16 5 10 22 7 12 
28 8 14 32 8 15 35 9 15 38 10 14 40 11 15 42 12 15 43 13 15 42 12 13 
44 14 13 47 15 14 49 16 15 47 13 11 45 11 7 48 12 9 57 19 16 66 27 23 
73 33 30 81 42 32 86 48 33 87 49 34 91 53 37 95 58 39 102 63 43 110 68 46 
118 72 49 127 75 51 134 75 51 141 74 50 147 73 49 162 80 57 171 83 60 170 78 55 
174 81 56 176 83 57 175 85 57 176 92 62 179 102 69 184 115 80 189 127 89 193 138 99 
198 148 108 186 147 102 178 142 96 176 135 89 174 127 82 176 121 78 183 120 78 182 110 70 
182 101 63 182 93 58 185 90 55 188 88 55 191 89 57 195 93 62 196 96 65 196 97 67 
191 97 67 184 96 66 174 92 63 164 88 60 155 84 57 145 79 53 135 74 47 127 68 42 
118 63 39 106 65 52 86 51 43 63 30 22 58 28 20 50 21 14 40 13 8 39 13 10 
42 15 13 46 18 16 52 20 21 54 19 22 55 16 23 57 15 23 60 15 25 62 16 26 
59 15 25 53 12 21 44 9 16 35 7 12 29 9 11 24 11 10 19 14 9 15 15 8 
12 12 6 8 3 1 28 21 20 54 46 45 69 63 60 38 33 32 3 1 0 4 5 0 
3 6 0 8 14 6 32 40 26 34 44 28 32 44 27 30 44 25 29 45 25 29 46 26 
31 50 29 34 54 33 36 57 37 37 58 38 34 55 36 31 53 34 30 51 32 30 52 33 
28 52 31 20 52 22 21 55 24 26 60 29 33 66 36 38 70 41 40 69 41 36 60 32 
28 48 21 22 38 12 21 32 7 27 34 8 40 43 17 63 62 35 76 72 42 89 82 50 
104 96 60 116 107 68 127 116 74 135 124 79 144 133 85 153 141 91 161 149 96 165 153 99 
169 159 103 176 167 108 175 166 109 177 169 112 182 174 120 190 183 130 199 192 141 209 203 153 
225 219 170 235 230 179 239 235 182 229 225 171 219 215 161 210 207 151 211 205 152 204 196 146 
192 183 135 190 178 135 131 117 84 39 22 3 42 23 3 41 19 3 36 14 2 40 16 6 
58 39 18 90 79 39 150 139 98 188 177 136 211 199 158 218 206 166 222 212 172 224 214 175 
218 208 170 209 199 162 193 184 148 160 151 118 135 128 100 116 108 86 95 87 66 56 49 33 
18 11 1 19 11 1 20 13 3 23 16 7 27 20 14 29 22 18 30 22 20 32 24 22 
18 14 12 3 3 1 2 2 0 11 9 6 28 25 21 61 57 52 85 80 74 111 105 97 
149 143 133 169 162 150 183 176 162 196 190 174 123 119 101 48 47 28 27 28 11 48 52 32 
74 81 57 87 96 72 95 109 82 94 111 83 75 94 66 94 116 87 123 148 117 157 184 153 
163 187 157 165 188 159 172 194 165 196 219 189 216 240 208 226 249 217 224 250 214 215 246 205 
197 233 187 174 213 165 154 198 147 142 189 137 102 150 98 73 120 68 60 104 55 42 79 36 
32 62 24 34 55 23 45 54 29 53 50 33 57 41 31 57 29 24 58 21 20 60 18 19 
72 17 25 80 17 28 84 17 28 90 17 26 96 17 25 100 18 25 106 23 26 110 27 28 
114 33 31 110 35 29 106 36 26 104 35 24 103 33 21 106 32 21 112 32 22 120 33 24 
125 32 26 127 32 27 130 34 30 125 32 28 119 30 26 153 69 67 172 95 91 183 108 106 
214 129 135 221 133 143 213 127 136 202 120 128 204 124 132 212 134 143 211 139 149 211 142 153 
212 146 157 222 161 170 221 162 171 215 160 168 221 169 177 196 147 154 160 112 120 135 89 96 
99 59 62 66 32 32 67 32 32 71 30 32 75 28 31 71 24 25 64 17 18 58 11 13 
60 11 16 64 15 21 68 19 25 66 17 24 63 15 21 62 13 19 65 15 22 65 15 22 
64 14 21 64 14 20 70 18 25 74 22 29 73 22 29 69 20 26 64 18 23 61 18 23 
52 15 18 44 12 13 40 15 14 30 11 8 22 8 4 19 11 5 16 11 3 15 9 2 
21 4 2 23 7 3 31 16 10 49 37 30 52 44 36 45 39 33 23 19 14 21 19 15 
22 20 17 23 20 19 
20 20 19 23 23 21 55 50 49 64 58 58 57 51 50 25 18 18 14 6 7 15 5 7 
15 4 6 17 5 7 18 7 9 16 8 9 15 8 8 14 8 8 11 6 6 11 6 6 
12 6 6 15 6 7 20 8 10 26 10 13 34 11 17 40 13 20 46 14 22 52 15 24 
55 15 26 58 15 25 58 10 15 66 16 19 76 24 28 84 31 34 84 31 33 83 28 29 
82 28 26 81 25 23 82 25 22 88 31 26 91 33 27 89 31 26 82 25 21 81 24 20 
78 24 19 66 21 18 61 20 18 63 21 19 74 25 21 87 38 33 116 69 64 176 130 125 
192 147 142 201 150 145 209 142 136 213 139 134 218 134 133 225 128 130 225 125 128 221 120 123 
209 114 116 199 114 113 192 116 111 186 121 112 183 124 113 179 121 109 169 110 98 179 122 109 
191 138 123 205 156 139 232 187 170 245 202 185 242 198 180 230 177 162 200 131 121 152 63 58 
164 65 62 175 65 60 185 63 50 190 67 54 194 70 58 197 72 60 198 71 58 198 71 57 
198 71 58 200 71 59 201 72 60 200 72 61 197 71 59 194 71 60 193 72 61 190 72 61 
185 71 60 178 70 59 171 67 56 163 63 53 154 60 50 144 53 44 130 44 34 115 32 23 
103 22 13 89 18 13 75 18 18 67 13 13 60 11 11 55 11 11 48 11 10 38 7 6 
27 3 1 22 4 2 19 6 4 16 8 6 10 3 2 20 13 13 38 31 32 61 52 55 
52 43 47 31 22 25 18 8 12 14 4 8 14 5 8 15 6 10 14 6 9 12 5 8 
12 5 8 10 7 8 9 9 8 9 7 7 11 6 6 14 6 7 21 7 9 25 7 10 
30 7 11 34 8 13 37 10 13 41 11 14 45 14 16 46 14 15 45 13 12 42 8 8 
43 9 8 45 11 8 46 11 8 45 10 5 45 9 3 48 12 5 59 22 15 70 31 25 
78 38 32 82 42 31 85 45 29 87 47 31 90 51 34 96 56 37 104 62 42 112 67 46 
120 72 49 127 74 51 134 74 50 140 73 48 145 71 47 158 77 54 166 80 56 167 77 53 
173 82 56 177 87 60 179 92 63 185 103 73 199 124 90 222 154 118 231 174 135 237 190 151 
239 204 163 239 214 172 238 214 170 236 202 158 224 186 142 213 169 126 205 152 111 194 131 92 
186 115 78 182 103 67 182 94 60 183 89 57 186 87 56 189 88 59 191 89 61 192 90 63 
188 91 64 181 89 62 171 85 58 158 79 53 145 73 47 132 68 41 120 62 35 111 57 31 
104 54 29 99 60 47 83 49 41 61 28 21 56 26 19 48 19 13 40 12 7 40 12 9 
43 15 13 48 18 19 52 21 22 54 19 22 54 16 21 57 15 23 60 16 25 62 17 27 
59 16 26 52 13 22 44 10 16 36 8 12 30 9 11 24 11 10 19 14 9 15 14 7 
11 11 5 8 3 1 29 22 21 56 47 47 71 65 62 39 34 33 2 1 0 2 3 0 
3 6 0 10 15 7 34 41 28 35 45 30 32 44 27 30 45 26 29 46 25 29 47 27 
31 51 31 35 56 35 37 59 38 37 58 39 33 55 36 30 52 34 27 50 31 27 50 31 
25 50 28 18 49 20 20 53 22 25 57 28 32 63 34 35 64 35 35 60 32 30 51 24 
24 41 15 21 34 9 24 33 8 33 38 12 48 49 22 72 69 39 83 77 46 94 86 52 
106 96 58 114 104 64 125 113 71 136 124 79 144 132 83 152 140 88 159 147 93 164 153 97 
168 158 100 171 163 102 172 164 104 177 169 110 186 178 122 197 190 135 208 201 148 218 212 159 
230 224 173 234 229 177 232 227 174 216 212 158 203 198 145 192 188 133 191 185 132 185 177 127 
176 165 119 172 160 118 117 102 73 31 14 2 40 21 3 41 20 3 39 16 3 45 21 12 
63 44 24 94 82 43 153 142 102 187 176 136 205 193 154 212 201 162 218 206 167 219 209 170 
211 201 163 198 188 152 176 166 132 116 106 74 66 57 37 29 20 15 27 19 12 22 14 6 
17 8 1 18 9 1 20 11 3 23 15 6 28 19 13 31 22 18 33 24 20 32 23 20 
18 14 11 4 4 2 2 2 1 7 7 4 20 18 14 46 43 37 68 63 56 97 91 82 
147 141 131 171 164 152 187 180 165 200 194 178 139 134 116 74 71 51 49 48 28 54 57 35 
71 77 54 98 107 83 119 133 107 134 151 123 136 155 127 147 169 139 160 185 154 175 201 170 
147 172 142 126 149 120 130 153 124 163 187 156 192 218 185 208 235 200 212 241 203 207 238 197 
189 225 181 168 208 161 152 194 145 142 187 135 99 144 93 66 109 59 48 88 41 37 70 29 
32 59 22 35 54 23 46 53 29 54 49 32 59 40 31 60 30 26 62 23 22 63 19 21 
72 19 25 77 18 27 79 17 27 85 17 25 91 17 24 97 19 24 103 23 26 108 27 28 
111 32 30 108 35 28 107 36 27 106 36 25 107 33 23 112 34 24 122 37 28 136 41 35 
147 45 41 155 49 47 168 60 61 169 63 65 164 62 65 187 94 96 196 109 110 197 114 114 
212 127 133 215 129 138 208 124 134 203 122 131 210 131 140 221 147 156 223 153 164 223 157 168 
222 160 170 230 173 181 227 173 182 219 168 177 217 169 176 207 160 168 197 151 160 202 157 164 
193 149 155 181 137 143 181 136 141 173 125 131 154 104 110 112 60 65 89 36 41 74 22 26 
60 10 16 62 12 18 67 17 24 67 17 23 64 14 21 62 13 19 66 16 22 66 16 23 
66 16 23 65 16 22 70 19 26 73 22 30 71 22 28 67 20 26 63 19 23 59 18 22 
51 15 17 44 13 13 38 12 12 29 9 6 22 7 3 21 10 5 21 13 6 24 14 8 
35 12 7 38 15 10 43 22 16 53 37 30 55 43 36 48 39 32 28 22 16 27 23 18 
27 25 21 27 24 22 
22 22 20 25 24 23 54 48 48 63 56 55 57 48 48 25 16 16 15 4 5 18 5 6 
18 4 6 20 6 8 22 8 10 21 9 10 20 9 9 18 8 8 15 6 6 15 6 6 
17 7 7 20 8 9 25 9 12 30 11 14 36 12 17 43 14 20 48 15 23 54 16 25 
58 16 26 60 16 25 59 12 16 62 14 17 66 16 20 68 18 20 67 17 17 65 15 14 
63 13 11 63 12 8 64 13 8 68 17 12 70 20 14 70 21 14 62 15 8 72 25 18 
78 33 26 69 30 23 61 25 19 55 20 14 52 14 6 53 16 10 78 42 37 145 112 103 
167 134 126 182 143 134 200 141 131 208 141 132 216 139 134 225 135 134 226 131 132 223 127 128 
215 121 122 206 117 116 196 115 110 187 114 105 184 114 105 178 110 100 168 97 88 174 105 94 
182 116 104 192 131 117 222 165 150 234 178 162 222 165 150 212 147 134 191 114 104 159 66 60 
168 66 63 178 66 61 188 65 54 193 69 57 196 71 60 197 73 61 197 70 59 197 69 57 
196 68 56 198 70 58 199 70 59 199 71 60 196 70 59 195 71 59 194 72 61 191 72 61 
186 72 61 180 70 59 173 67 56 165 64 54 157 61 51 147 55 44 134 45 35 119 34 25 
106 24 15 92 20 14 78 18 18 69 13 12 62 10 10 56 10 10 49 10 9 38 6 5 
27 3 1 22 4 1 19 5 3 17 7 4 9 2 1 20 13 13 40 33 32 61 53 55 
53 44 46 32 22 25 20 9 11 16 5 7 16 5 7 15 5 6 14 5 6 13 6 6 
14 6 6 13 7 5 12 7 4 13 6 4 17 7 6 21 8 7 27 10 9 30 9 9 
33 8 8 36 8 9 41 11 11 47 15 14 53 19 18 54 19 17 53 17 14 51 15 11 
51 15 9 51 15 9 52 15 7 50 14 6 51 14 5 55 18 9 64 27 17 73 35 25 
79 41 31 80 40 27 82 40 24 85 44 26 91 49 31 98 55 36 106 62 42 115 68 46 
122 72 49 129 74 51 135 73 48 139 72 46 143 70 45 157 77 53 165 81 56 167 79 55 
175 87 60 181 94 66 184 100 71 189 110 78 204 130 96 229 162 126 240 184 145 246 201 162 
248 214 175 250 228 188 250 230 190 246 220 179 236 206 165 226 191 150 216 174 134 206 156 117 
197 138 101 190 121 85 186 108 74 185 98 67 186 92 62 186 87 60 188 85 59 189 85 61 
187 86 61 181 84 60 172 82 57 158 76 52 143 70 45 128 64 37 114 59 31 104 55 27 
97 52 26 95 58 45 80 46 39 58 25 18 55 24 17 47 18 12 39 11 6 40 12 8 
43 14 13 48 17 18 52 19 21 54 18 21 55 16 22 58 16 24 61 17 26 62 18 28 
59 17 26 52 14 22 44 11 17 36 9 12 30 10 10 25 11 9 20 13 8 16 13 6 
12 11 4 9 3 1 31 23 23 58 49 49 73 66 64 40 35 34 3 1 0 3 3 0 
3 6 1 10 16 7 33 42 28 34 44 29 29 42 25 29 45 26 29 46 26 29 48 28 
31 52 31 34 56 35 36 59 38 36 59 38 32 55 35 27 50 32 24 47 29 24 47 29 
22 47 27 19 48 20 22 52 22 26 56 27 32 60 31 33 58 30 32 54 26 28 46 19 
25 39 14 27 37 12 34 41 15 45 47 20 60 58 30 80 75 44 89 81 49 97 87 52 
104 93 54 112 100 59 122 109 66 135 122 75 143 130 80 150 138 84 157 145 89 163 152 95 
167 157 97 169 160 97 173 164 102 182 173 112 195 187 128 208 200 143 218 211 156 227 219 166 
232 226 173 231 225 172 223 217 163 203 197 143 189 184 129 181 176 121 178 171 118 173 164 114 
165 155 109 164 151 110 120 106 74 53 36 17 64 45 26 66 45 29 63 40 29 67 44 36 
82 64 44 109 97 60 161 150 112 186 174 136 193 181 144 200 189 151 204 193 155 204 193 155 
196 185 148 182 172 136 158 148 115 94 84 53 50 40 19 24 14 2 27 17 3 28 19 5 
28 19 6 26 16 3 26 16 5 27 18 8 27 17 10 28 19 12 30 20 15 29 19 14 
18 13 9 6 7 3 4 5 2 6 6 2 12 10 6 28 25 20 44 39 32 74 68 59 
143 137 126 173 166 154 191 184 169 204 196 181 144 139 121 84 81 61 68 67 46 62 64 42 
70 76 52 105 115 89 124 138 110 142 159 130 167 187 157 175 198 168 180 206 175 187 214 183 
152 178 148 125 150 121 125 150 120 142 167 136 163 189 156 188 216 180 198 228 190 197 229 189 
182 217 174 169 208 162 160 202 153 157 200 150 111 154 104 73 114 66 51 88 43 39 70 30 
35 59 24 37 53 24 46 50 27 53 44 28 56 35 27 59 28 24 62 22 21 64 19 21 
70 20 24 73 19 26 75 18 25 81 17 24 87 17 23 93 20 23 99 23 25 103 26 27 
107 30 28 106 34 28 107 36 27 108 36 27 108 32 23 115 32 24 127 36 29 145 43 39 
161 51 50 175 59 61 188 71 75 190 74 80 185 73 79 201 97 102 207 110 114 208 116 119 
213 125 133 212 127 138 208 124 136 206 126 137 215 139 150 229 157 168 231 164 175 229 167 178 
226 169 179 233 181 190 230 182 191 223 178 186 219 176 183 215 172 180 211 169 177 215 172 179 
212 167 175 207 160 168 206 156 165 199 148 157 184 130 139 144 87 95 117 59 67 93 37 43 
62 13 16 60 10 15 67 14 21 66 15 22 64 13 20 62 12 18 66 16 22 67 17 24 
68 18 25 67 18 24 69 21 27 70 23 29 66 20 25 62 19 23 60 18 22 57 18 21 
52 17 19 46 15 16 37 11 10 31 9 8 30 12 9 34 19 15 43 30 25 54 38 33 
70 40 34 72 42 36 70 44 37 68 47 40 63 47 39 52 40 32 31 24 16 29 24 17 
29 26 20 28 25 21 
23 22 20 26 25 23 54 47 46 63 53 53 57 47 47 26 14 14 17 3 4 20 4 6 
22 5 7 25 7 9 27 9 11 26 9 11 25 9 11 23 9 10 20 6 7 19 7 7 
21 8 9 26 10 11 30 11 14 35 12 16 40 13 18 46 14 21 51 15 23 57 16 25 
60 17 27 62 17 26 63 15 19 63 15 18 64 15 17 63 14 16 63 15 15 62 15 14 
60 12 10 59 12 9 60 14 9 63 18 12 64 20 13 63 22 13 59 20 11 80 43 33 
99 63 52 98 64 53 89 57 47 74 45 34 53 26 15 37 12 5 49 26 21 111 90 79 
133 112 101 155 126 114 186 135 121 199 138 127 209 139 131 220 138 133 223 134 132 223 130 129 
219 127 126 211 121 119 201 115 111 190 109 102 187 108 100 182 103 95 174 93 85 174 94 86 
177 99 90 180 107 96 205 136 124 211 144 131 194 127 114 189 116 104 181 97 88 167 70 64 
173 69 65 181 69 63 191 68 57 195 71 60 197 73 62 198 73 63 197 70 60 196 68 58 
195 67 56 197 69 58 199 70 59 199 70 60 197 70 59 196 70 59 195 71 61 192 72 61 
187 72 60 181 70 59 174 68 56 167 65 54 159 62 51 150 56 45 138 47 36 123 36 26 
110 26 16 96 21 15 82 19 18 72 12 12 64 9 9 57 9 8 49 8 7 39 6 4 
28 3 1 24 4 1 20 5 2 17 6 3 9 2 1 21 13 13 41 33 32 62 54 53 
53 44 45 33 23 24 21 9 11 18 6 6 17 6 5 15 4 3 14 5 3 15 6 4 
17 8 5 17 8 4 17 7 2 20 7 3 24 10 6 29 12 9 33 13 10 35 12 9 
37 10 6 40 9 6 46 13 9 54 19 15 63 26 21 64 25 20 64 24 18 63 23 16 
62 23 14 61 22 13 59 20 10 58 19 9 59 21 10 65 27 15 70 34 21 75 39 26 
77 40 27 78 37 22 80 36 19 85 41 23 93 48 29 101 56 36 110 64 43 118 69 46 
125 72 49 131 74 50 135 73 47 139 71 45 143 69 44 155 77 52 164 82 57 167 83 57 
178 93 65 185 102 72 190 109 79 193 116 84 206 134 100 231 165 129 240 185 147 246 201 162 
248 212 174 250 227 190 250 232 196 246 226 190 241 218 181 234 209 170 227 196 158 220 182 145 
211 165 129 202 146 110 194 128 94 189 113 81 187 101 72 185 89 63 185 83 59 186 81 59 
185 81 59 181 81 59 174 80 58 161 77 54 146 72 47 129 65 39 114 60 33 103 56 28 
96 54 26 94 59 46 78 46 39 56 23 16 53 22 16 47 17 12 40 11 6 41 12 8 
44 13 12 48 15 17 51 17 19 53 17 21 55 17 22 58 17 24 61 18 26 62 20 28 
59 18 26 52 15 22 44 12 16 36 9 11 30 10 9 25 11 8 21 13 7 17 13 5 
13 11 4 11 3 2 33 23 24 60 50 51 74 67 65 41 35 34 5 2 0 5 5 1 
5 8 1 10 16 7 32 41 27 31 43 27 27 41 24 28 46 27 28 47 27 29 48 28 
31 52 31 33 56 35 35 59 38 34 59 38 30 54 34 25 48 30 21 44 26 21 44 26 
21 45 25 21 49 21 25 52 23 28 55 26 33 57 29 33 55 27 32 51 24 30 45 19 
31 42 16 37 44 18 48 51 23 59 58 30 72 68 38 86 79 47 93 83 49 98 87 50 
102 90 50 109 95 53 119 105 60 134 120 71 141 128 76 148 135 81 154 143 86 162 150 92 
167 155 95 167 158 93 175 165 102 187 179 116 204 196 135 217 210 151 226 218 161 230 222 167 
230 223 169 223 217 163 211 204 149 188 182 127 176 169 115 171 165 110 167 159 107 163 153 104 
158 147 101 157 145 104 129 114 80 84 67 41 95 76 56 99 78 63 97 74 65 98 75 68 
105 86 69 120 108 73 163 151 115 179 167 131 180 168 132 186 174 138 186 175 139 184 173 137 
176 165 130 163 152 118 142 130 98 87 76 46 56 45 19 40 29 8 47 36 15 48 38 18 
46 36 17 36 25 9 33 22 9 31 21 10 26 15 6 26 14 6 26 15 8 25 14 8 
16 11 6 8 9 5 7 8 3 5 5 2 6 5 1 13 10 5 23 19 12 54 49 39 
141 134 123 176 169 156 194 186 172 205 198 182 152 146 128 98 95 75 89 88 67 69 71 48 
65 71 46 102 111 85 114 127 99 133 151 121 182 202 171 193 217 185 197 223 192 201 228 197 
170 197 166 144 170 140 137 164 134 128 155 123 132 159 125 159 187 152 172 203 165 177 210 169 
171 206 163 171 209 164 173 213 166 176 217 170 126 166 119 85 123 77 61 95 53 47 75 37 
40 60 28 40 52 25 45 45 25 50 38 23 53 29 21 56 23 20 60 20 19 64 19 19 
67 20 23 70 20 24 71 18 23 77 17 22 83 17 22 90 20 22 95 22 24 99 25 26 
103 28 27 105 32 27 107 35 28 111 37 28 110 30 22 117 30 23 131 34 30 153 44 43 
172 53 56 189 64 69 200 74 81 201 76 85 196 75 83 210 97 105 217 111 118 220 119 125 
218 129 139 215 132 143 212 130 142 210 133 145 221 148 160 236 169 180 237 176 186 234 178 188 
231 180 189 237 191 201 235 194 202 230 191 198 227 189 196 225 187 194 222 183 191 217 176 185 
214 170 179 211 164 174 209 158 170 207 153 164 200 143 154 174 114 125 151 89 100 123 62 71 
71 20 23 64 12 16 70 15 23 69 15 22 65 12 19 62 11 17 66 15 22 68 18 25 
69 19 26 68 19 25 69 22 28 68 22 28 60 16 21 57 16 20 56 17 21 54 18 20 
53 19 21 49 18 19 39 12 11 38 14 13 43 22 20 55 36 33 76 58 55 97 75 70 
115 79 72 114 79 71 105 73 66 88 61 53 74 53 44 57 41 32 33 23 14 29 24 15 
28 25 18 27 25 19 
23 22 20 25 22 21 54 46 45 64 52 52 58 45 45 28 13 14 20 3 5 23 5 7 
26 5 8 29 8 11 32 10 14 32 10 14 31 10 13 29 10 12 25 7 9 25 7 9 
27 9 11 31 12 15 36 14 17 40 14 19 45 14 20 49 15 22 53 16 24 58 16 26 
62 17 27 65 18 27 68 19 23 68 18 22 66 17 20 63 16 17 62 15 16 60 15 14 
54 9 7 52 8 5 53 11 5 57 17 10 53 15 8 50 15 6 55 23 13 85 56 44 
114 87 75 128 103 91 121 99 86 102 82 69 65 49 34 34 20 13 30 17 13 74 63 50 
92 81 68 118 98 85 167 124 108 184 131 117 195 134 123 207 134 127 214 132 128 218 131 128 
219 129 126 215 125 121 207 118 115 197 110 105 193 106 101 188 100 95 180 91 85 173 85 79 
168 83 75 163 83 73 169 90 80 167 90 79 155 79 68 157 77 65 159 72 62 163 65 58 
173 70 65 183 72 65 192 71 60 195 74 63 198 76 65 201 76 67 199 74 64 198 72 62 
197 70 60 199 71 61 201 72 61 201 73 62 199 72 61 197 71 60 194 71 60 191 71 61 
187 71 60 182 70 58 175 68 56 169 66 54 162 63 52 153 57 46 140 48 37 125 37 26 
113 27 17 99 22 16 84 20 19 74 13 12 66 9 8 59 8 6 51 8 6 41 6 3 
31 3 1 26 5 1 22 7 2 18 7 4 10 2 1 21 13 12 40 32 30 61 53 51 
54 44 43 34 23 22 23 10 10 19 6 5 18 6 3 17 5 1 18 7 2 19 9 3 
23 13 6 25 12 5 27 11 3 31 13 6 35 16 10 39 19 12 42 18 13 42 16 10 
43 14 8 46 14 7 52 16 10 60 22 15 72 32 25 75 34 26 76 33 25 75 32 22 
76 32 22 75 31 20 68 26 14 66 26 13 68 29 15 75 38 22 78 42 26 78 42 26 
71 36 19 75 33 16 81 35 17 87 42 24 97 50 31 106 59 38 115 67 44 122 71 47 
127 73 48 131 74 49 135 72 47 139 71 45 143 70 45 153 77 50 161 82 55 166 84 58 
178 97 69 188 108 78 193 115 85 197 124 92 212 143 110 240 176 141 244 190 154 246 201 164 
247 209 173 250 228 195 251 237 206 251 235 205 249 233 200 248 229 194 246 224 188 239 212 175 
231 197 161 222 179 143 207 153 119 196 132 100 191 115 85 184 95 69 181 84 60 181 80 57 
181 78 57 179 78 58 175 80 59 166 80 59 154 78 55 138 73 48 123 68 41 112 64 36 
104 61 34 100 65 51 81 49 42 57 24 17 54 22 16 49 18 13 43 12 9 44 13 10 
45 14 12 47 14 14 51 16 18 54 17 21 56 17 23 58 17 23 60 18 25 61 19 27 
57 18 26 51 16 22 43 12 16 36 10 11 30 10 10 26 11 9 22 14 8 19 14 6 
16 11 5 14 3 4 35 23 25 60 49 50 73 65 64 41 35 34 7 4 1 10 9 3 
7 10 2 11 16 6 30 39 25 29 41 25 25 40 23 29 46 27 29 48 28 28 49 29 
29 52 31 32 56 35 34 58 37 32 57 36 28 52 32 23 47 28 19 42 25 18 42 24 
20 44 24 24 49 22 28 53 24 32 56 27 36 57 29 38 56 29 39 54 27 39 51 25 
44 52 25 52 55 28 63 62 34 73 69 39 82 75 43 89 78 45 94 82 46 98 85 46 
100 86 45 104 89 45 115 99 53 135 120 70 140 126 74 146 133 78 153 141 83 161 149 90 
166 155 93 166 157 91 177 168 103 192 184 120 212 204 141 222 214 154 226 218 160 223 215 160 
218 211 156 209 201 147 195 187 133 173 165 112 162 155 101 161 153 100 159 149 99 156 145 98 
154 141 97 153 139 100 139 124 92 120 103 77 129 110 91 134 113 101 136 114 107 134 111 107 
125 106 91 115 104 70 147 135 102 161 149 116 165 154 120 167 156 122 166 155 121 161 150 116 
152 140 107 141 130 98 128 117 86 103 91 62 77 65 38 57 46 22 72 61 38 76 64 43 
70 58 40 46 34 18 38 26 12 35 22 11 27 14 4 24 11 2 23 10 3 21 7 2 
14 8 4 9 10 6 9 10 5 6 7 3 5 4 0 8 5 1 16 11 5 49 43 33 
146 138 127 180 172 159 194 185 170 204 196 179 171 164 146 134 130 110 119 117 96 74 75 53 
47 51 27 74 83 57 80 93 65 103 121 91 176 196 165 200 224 193 214 240 209 223 248 220 
203 230 200 181 210 178 165 194 162 124 152 119 100 128 94 112 141 105 119 150 112 131 164 124 
152 187 145 172 209 165 188 225 181 197 235 190 141 177 133 98 131 89 80 110 70 62 84 50 
48 64 34 43 49 24 44 39 20 46 30 17 48 22 15 53 17 13 57 15 14 61 16 16 
65 19 22 67 20 23 68 17 21 74 16 20 81 17 21 88 20 22 93 22 23 97 24 24 
99 26 24 102 30 26 107 34 28 113 36 29 113 30 24 122 30 25 137 35 32 160 45 46 
179 54 59 194 62 70 202 68 79 201 69 81 197 69 81 222 103 114 232 120 128 231 125 133 
233 144 155 230 148 161 224 145 158 221 147 159 229 161 173 242 182 193 244 190 200 242 193 202 
240 195 204 245 209 218 246 213 221 245 212 219 243 211 217 240 208 215 237 203 211 229 192 200 
225 184 193 222 178 188 218 169 181 216 162 175 213 155 168 207 145 158 198 133 146 172 108 120 
95 36 45 78 22 29 81 24 33 76 20 28 68 13 21 62 8 16 66 13 20 69 17 24 
71 20 27 69 20 26 69 22 28 66 21 26 55 13 17 53 14 17 54 16 19 51 16 18 
52 19 21 52 21 22 46 18 18 52 26 26 65 40 40 86 63 62 124 101 100 156 128 126 
170 129 122 165 124 117 146 109 102 109 79 69 87 62 52 63 43 34 34 20 11 29 20 11 
28 23 14 27 24 16 
22 19 18 20 15 15 55 44 44 67 54 54 62 47 47 32 15 16 24 5 6 28 6 9 
31 7 10 34 9 12 36 10 14 36 11 15 36 11 14 34 10 13 30 7 10 30 8 11 
33 11 14 37 14 17 41 16 20 45 16 21 49 15 22 53 15 23 56 16 24 61 16 26 
64 17 28 67 18 28 68 19 24 68 18 22 67 17 21 64 15 17 62 16 16 60 15 15 
53 10 9 54 14 11 61 23 18 76 41 35 91 59 52 105 76 67 117 92 81 139 116 104 
156 137 124 161 145 132 143 129 115 113 101 86 68 60 44 31 25 16 23 18 13 66 63 48 
89 86 71 116 105 89 156 122 104 172 129 113 184 133 120 195 133 122 202 130 123 208 129 123 
213 129 123 210 123 119 205 116 112 196 107 102 194 103 98 190 98 94 185 91 86 176 83 77 
167 76 69 158 72 62 155 70 60 149 66 56 140 59 48 141 58 46 148 58 47 158 60 52 
168 67 60 178 69 62 186 68 58 190 72 62 195 75 65 199 77 68 199 76 66 198 75 65 
199 74 64 201 75 64 201 75 64 201 74 64 198 73 62 196 71 60 193 71 60 190 71 60 
187 71 59 182 70 57 176 68 56 170 65 55 163 63 52 154 58 47 142 49 37 128 38 27 
115 28 18 102 23 16 89 21 20 78 14 13 69 10 8 61 9 6 54 9 6 45 7 4 
34 5 2 29 7 3 26 9 4 22 8 5 13 2 1 21 12 10 39 29 27 61 51 48 
55 44 41 38 25 22 27 13 10 22 8 4 21 7 2 21 7 1 23 10 2 27 14 5 
34 21 12 37 20 11 40 19 9 45 22 13 49 26 16 52 28 19 54 27 19 53 24 16 
52 20 12 53 19 11 61 23 14 70 30 21 82 39 29 87 42 32 90 44 33 93 46 35 
99 52 39 103 58 43 106 61 45 112 69 53 122 82 64 137 99 79 138 103 82 132 98 78 
116 83 62 97 55 35 87 39 21 95 47 27 104 56 35 113 63 41 121 70 46 126 72 47 
129 73 48 132 73 47 136 73 47 140 73 47 144 74 48 154 81 53 163 87 59 171 93 65 
184 106 78 192 116 87 194 120 90 196 126 95 205 139 107 223 161 128 229 173 139 235 185 149 
241 196 160 248 221 192 251 234 209 250 234 209 251 237 209 252 238 207 252 239 205 247 231 195 
240 219 182 231 202 165 219 179 145 212 160 128 207 144 113 188 110 84 179 90 67 178 82 60 
176 77 57 175 76 57 175 80 60 171 83 63 162 83 61 148 81 56 133 75 49 122 71 44 
113 69 41 109 73 60 88 56 48 60 28 21 57 25 19 52 20 16 47 15 12 47 14 13 
47 14 13 48 13 14 51 14 17 55 16 21 57 18 23 56 16 21 57 16 23 59 18 25 
55 18 24 49 15 20 43 12 16 36 10 11 32 11 10 29 13 10 25 15 9 23 15 8 
20 13 7 18 5 6 36 23 25 58 46 48 71 61 61 42 35 33 11 7 3 14 13 7 
10 13 4 11 17 6 29 38 24 28 40 24 24 39 22 29 46 27 29 48 28 28 49 29 
29 51 30 31 54 33 32 56 35 30 54 33 25 49 30 21 44 26 17 40 23 16 39 22 
19 41 22 25 47 21 30 51 24 35 54 27 40 57 31 44 59 32 49 60 33 53 61 34 
59 63 36 67 66 38 75 71 41 81 74 43 85 75 43 88 76 41 93 79 42 96 81 42 
98 82 40 102 85 41 114 98 50 136 121 70 142 127 73 147 133 77 153 140 81 162 150 90 
168 156 94 169 160 93 183 173 107 199 190 125 217 210 147 223 215 155 221 212 155 211 203 147 
202 194 139 192 183 130 180 171 119 163 154 102 155 147 95 157 148 96 156 146 98 157 145 100 
158 145 102 158 144 107 159 143 112 159 143 118 159 141 123 160 140 129 162 141 136 163 140 138 
158 140 127 153 142 111 166 154 124 170 159 128 169 159 128 171 160 129 167 156 125 160 148 117 
153 142 110 143 132 101 131 120 90 120 108 79 103 91 64 89 78 52 105 93 69 115 102 81 
117 104 85 94 80 64 83 70 55 72 58 46 38 24 13 26 11 2 22 8 1 19 5 1 
14 8 4 10 12 7 9 11 6 7 8 3 5 5 0 7 5 0 16 11 4 50 43 33 
145 137 126 177 169 156 190 181 166 200 191 174 166 159 141 130 125 105 117 115 93 76 77 54 
57 62 38 101 110 84 116 130 102 142 159 130 203 223 192 204 228 197 192 219 187 176 203 171 
176 205 173 174 204 172 163 193 161 119 149 115 91 121 85 95 126 89 93 125 86 108 141 101 
149 184 143 175 210 168 194 230 187 209 244 202 150 183 141 100 129 90 72 96 59 55 73 41 
44 54 27 41 41 19 42 32 15 44 24 12 47 18 11 53 16 12 59 16 14 63 16 17 
65 19 21 66 19 22 67 16 20 73 15 19 79 16 20 87 20 22 91 21 22 95 23 22 
96 25 22 101 29 25 107 33 27 115 36 31 121 34 29 131 35 32 146 39 38 167 46 49 
183 53 60 197 59 69 201 63 75 201 65 77 199 68 80 226 105 117 236 124 134 236 132 141 
239 153 164 234 157 169 225 151 164 221 152 163 230 167 177 244 190 199 246 201 210 246 206 215 
246 210 218 249 224 231 250 228 234 250 227 233 249 227 232 248 226 232 246 223 229 240 210 217 
236 201 209 233 192 202 224 177 189 219 167 180 217 158 172 212 150 164 208 143 157 191 125 139 
128 67 78 111 52 61 107 48 58 93 34 43 78 21 28 66 10 17 66 12 18 68 15 21 
70 18 24 67 18 23 66 19 24 63 19 23 55 14 17 53 14 17 53 16 18 50 16 17 
53 20 21 56 25 25 60 30 29 79 50 49 103 75 74 130 101 101 154 126 125 173 140 138 
185 138 131 178 132 125 158 116 108 119 83 74 92 63 53 65 43 32 35 19 9 29 18 9 
28 22 13 30 27 18 
21 17 16 17 11 11 57 44 44 71 55 56 67 49 50 37 17 19 29 6 9 33 7 11 
36 9 13 39 10 14 41 11 15 41 11 16 40 11 15 38 10 14 35 8 12 36 9 13 
39 12 16 43 16 20 47 17 22 50 17 23 53 16 23 56 15 23 59 15 24 63 16 26 
67 18 28 69 18 28 68 17 22 68 17 21 67 16 20 64 14 16 63 16 16 61 16 16 
53 12 11 58 20 17 71 36 32 96 65 60 128 100 93 158 133 125 180 159 150 190 173 162 
193 181 168 188 179 165 159 152 137 120 115 99 70 68 52 31 31 20 22 23 14 63 67 51 
91 94 78 117 113 97 148 123 103 162 129 111 173 133 117 183 131 117 189 128 117 196 126 117 
204 126 119 203 120 114 199 112 107 192 102 97 191 99 95 190 96 91 187 91 86 178 82 77 
168 74 67 157 67 58 150 61 52 143 55 45 135 49 38 133 46 35 138 48 37 150 54 44 
159 61 52 168 63 55 176 62 52 182 67 57 188 71 62 194 75 66 196 76 66 197 76 66 
198 75 66 200 76 66 199 75 65 198 74 63 195 71 60 193 70 59 191 70 59 190 71 59 
186 70 59 181 70 57 176 67 56 170 65 55 164 63 52 155 58 47 144 49 38 130 39 27 
117 29 18 105 24 17 93 22 21 81 15 14 72 11 9 64 10 7 58 11 7 48 9 5 
38 7 3 33 9 5 29 11 6 25 10 6 16 3 2 23 11 9 40 27 24 62 50 47 
58 44 41 43 27 23 31 15 9 27 10 4 26 10 2 26 10 1 29 14 3 35 19 8 
45 30 18 51 31 19 56 30 18 59 32 21 63 35 24 66 37 26 67 37 25 65 33 22 
63 29 19 63 27 16 71 31 20 81 38 26 90 44 32 98 49 37 105 54 42 112 60 47 
122 71 57 132 83 67 142 95 77 157 112 92 174 132 110 193 154 131 193 157 133 182 150 124 
161 129 104 120 77 55 95 45 25 103 53 32 112 61 39 121 68 45 127 73 49 129 73 48 
131 73 47 133 72 46 138 73 47 142 75 49 147 78 51 157 86 58 168 95 66 176 102 73 
189 116 87 196 125 95 195 126 96 194 128 97 196 134 102 204 145 113 213 157 124 222 168 135 
233 181 146 243 212 188 249 229 210 249 230 211 251 237 214 252 243 216 253 247 216 249 243 208 
243 234 197 235 220 183 229 203 168 226 188 155 224 173 142 194 128 100 179 100 75 175 86 64 
172 78 58 173 76 57 175 80 61 175 86 66 169 88 66 158 87 63 143 82 57 132 78 51 
123 75 48 119 83 68 96 64 55 65 32 25 61 28 22 57 23 18 52 18 14 51 16 14 
50 14 14 50 13 14 52 14 16 56 16 20 59 18 24 54 14 19 55 14 20 56 16 22 
53 17 21 48 15 18 43 12 15 37 11 11 34 13 11 31 15 11 29 16 10 27 17 10 
25 15 9 22 7 8 37 22 25 56 43 45 69 58 58 42 34 32 14 9 5 19 17 11 
14 16 6 13 18 6 29 38 24 27 39 23 24 39 22 29 47 28 29 48 29 28 49 29 
28 51 30 30 53 32 30 54 33 28 52 31 23 47 27 19 41 23 15 37 20 15 37 20 
18 38 20 25 43 18 31 48 22 37 52 27 44 58 32 52 62 36 59 67 40 67 71 43 
73 74 46 79 75 47 83 76 45 85 75 43 86 73 40 87 73 36 91 75 37 95 77 37 
96 78 36 101 83 39 114 98 49 139 123 71 144 128 74 149 133 77 154 141 81 164 150 90 
170 159 96 174 166 98 189 180 114 206 197 132 223 215 153 224 215 156 216 207 150 199 191 135 
188 179 126 178 169 117 169 159 109 156 147 96 152 142 92 155 145 95 157 146 99 159 148 104 
163 150 109 164 151 115 173 159 129 186 170 147 180 163 146 179 160 150 181 161 158 183 162 162 
186 168 158 188 178 150 187 176 149 183 172 145 179 168 140 180 169 142 175 163 135 166 154 126 
162 150 121 151 139 111 139 127 99 134 122 95 125 113 87 119 107 81 131 119 95 145 132 110 
153 140 120 135 122 104 125 111 96 107 92 79 47 32 21 26 11 3 21 6 1 18 3 1 
13 8 5 10 14 9 10 12 7 7 9 3 5 5 0 6 5 0 15 11 4 48 41 32 
139 131 120 171 162 149 185 175 160 196 187 170 161 154 136 125 120 100 111 109 87 78 79 56 
71 75 51 129 138 112 157 171 142 185 202 173 227 247 217 204 227 196 165 192 159 122 151 116 
139 169 135 155 186 153 153 183 151 117 148 114 91 122 86 89 121 84 79 111 72 95 128 88 
154 189 147 178 213 172 197 231 190 214 247 206 157 186 147 103 128 91 63 82 49 48 60 31 
39 44 20 38 34 15 40 26 11 43 20 9 47 15 9 55 16 13 61 17 16 65 18 19 
66 19 21 67 18 21 68 15 18 72 14 17 79 15 18 87 19 21 90 21 22 93 22 21 
95 23 21 99 27 23 107 32 27 117 36 32 129 38 35 141 40 39 154 42 45 172 47 53 
186 52 60 198 57 68 203 62 75 204 66 79 204 71 84 228 106 119 238 127 138 239 138 148 
240 158 169 233 160 173 223 153 165 218 153 163 228 170 179 245 196 203 247 210 218 249 218 225 
250 224 230 252 236 241 252 239 244 252 237 241 252 238 241 252 239 243 252 238 243 248 225 231 
246 216 223 241 205 215 229 185 196 222 171 184 218 160 175 212 150 165 210 145 161 201 135 150 
163 101 112 148 88 97 138 77 86 114 52 62 90 30 38 71 13 20 68 10 16 68 12 18 
68 15 20 66 15 19 64 16 20 61 17 20 57 17 18 55 17 18 53 17 17 50 17 16 
51 19 18 59 27 26 78 47 46 108 76 76 139 106 106 166 132 133 175 141 141 181 142 141 
188 137 130 180 130 122 160 114 106 123 83 73 95 62 52 67 41 31 35 18 7 29 17 7 
29 22 13 34 31 21 
22 17 17 20 13 13 59 45 45 75 57 58 72 52 54 43 19 22 34 8 12 38 9 13 
42 10 15 44 11 17 45 11 17 45 11 17 44 9 16 42 8 14 40 7 13 41 9 15 
44 13 18 48 16 21 52 17 24 55 18 25 57 16 24 59 16 24 62 15 25 66 16 26 
69 17 28 71 17 28 67 14 20 66 14 18 65 14 17 63 14 16 62 15 16 60 16 16 
55 15 14 60 24 22 75 42 39 104 76 71 131 108 101 163 144 136 205 189 180 210 199 188 
205 198 186 197 193 180 166 164 150 125 126 111 78 80 65 38 42 27 25 30 15 57 65 48 
82 90 73 109 110 92 141 123 102 153 129 109 162 131 113 169 129 113 174 124 111 181 121 111 
190 121 112 192 115 109 191 108 103 187 99 95 187 96 91 186 92 88 184 87 84 176 80 75 
169 74 68 161 69 61 153 63 54 145 56 46 135 48 36 129 41 30 129 40 29 136 43 33 
145 50 40 153 53 43 161 52 43 168 58 49 176 64 55 184 70 61 188 72 63 190 73 64 
192 73 64 193 73 63 193 71 61 190 68 58 187 65 54 187 66 55 190 70 58 188 70 59 
185 70 59 181 70 58 176 67 57 171 65 55 165 63 52 156 58 46 145 49 38 131 38 27 
120 29 18 107 25 17 95 23 21 84 16 14 75 12 10 67 11 8 61 12 8 51 11 6 
41 9 4 37 12 7 33 13 8 28 12 7 20 5 2 26 12 9 41 27 23 65 50 46 
62 46 41 47 29 24 35 16 9 31 12 3 31 12 2 32 14 2 36 18 5 43 24 10 
56 38 23 67 42 28 74 43 31 75 44 32 75 44 31 75 43 30 76 42 29 76 42 28 
76 40 27 76 38 25 83 40 27 90 44 31 98 49 36 108 56 42 118 64 49 128 73 58 
141 86 70 153 100 82 163 111 92 179 130 108 195 151 126 209 169 143 205 169 140 194 160 131 
176 145 115 130 88 62 101 50 29 110 58 36 119 67 43 127 73 49 132 76 52 133 74 50 
133 73 48 134 71 46 139 74 48 145 78 51 150 82 55 161 93 65 172 103 74 180 112 82 
193 124 95 199 132 102 197 132 102 193 131 100 193 134 103 199 143 111 205 152 120 212 160 128 
220 168 135 238 203 184 248 223 211 248 227 213 249 234 215 250 241 217 251 248 219 246 246 213 
241 241 205 235 231 194 233 220 182 233 208 172 233 195 162 199 145 115 181 112 86 175 95 71 
170 82 61 171 78 59 175 82 63 178 89 69 175 92 71 167 91 69 152 86 62 141 82 56 
132 79 54 129 90 76 104 71 62 70 37 28 66 31 23 61 26 19 57 22 16 55 19 15 
53 16 14 53 13 14 54 15 17 57 17 20 59 18 22 53 13 17 52 13 17 53 15 20 
51 16 19 47 14 16 41 12 13 37 12 11 35 13 12 34 16 13 34 18 13 32 19 12 
30 16 11 24 7 9 37 21 23 55 40 41 68 55 55 43 32 32 17 10 7 23 20 13 
17 18 8 14 19 6 29 38 23 27 39 23 25 40 22 30 48 29 30 49 29 28 49 28 
28 50 29 29 52 31 29 52 31 27 50 30 23 45 26 18 40 22 14 36 18 14 35 18 
17 36 18 25 38 14 31 44 19 38 50 25 48 58 32 58 65 38 68 71 45 78 78 51 
83 81 52 86 80 50 87 77 45 84 72 38 83 69 34 86 69 33 90 72 33 93 75 34 
95 77 34 101 83 37 116 99 49 143 127 74 146 130 76 150 135 79 156 142 82 163 150 90 
172 160 98 182 174 109 197 189 125 213 205 142 230 222 160 225 217 158 213 203 148 192 183 129 
180 170 119 171 161 112 165 155 106 156 146 97 153 143 94 154 144 96 158 147 101 161 151 107 
165 154 114 168 156 121 174 161 132 183 168 146 184 169 154 188 170 162 191 172 170 193 174 174 
194 178 169 193 183 159 194 184 160 191 181 157 187 177 153 189 178 154 185 173 148 177 165 140 
171 159 133 160 148 121 148 136 109 141 129 103 136 124 99 134 121 97 143 130 107 151 138 116 
155 142 122 145 130 113 137 122 107 118 103 89 47 31 22 23 8 1 19 4 1 15 1 0 
13 8 6 12 16 10 11 13 7 7 9 3 4 4 0 4 2 0 8 3 1 36 29 24 
125 116 105 162 152 138 180 170 155 192 182 166 170 162 143 140 134 113 116 113 91 80 81 57 
72 77 52 132 141 115 168 182 154 199 216 186 226 249 217 194 219 187 146 174 140 91 119 85 
110 140 106 133 164 131 139 170 137 118 150 115 99 131 96 89 121 86 74 107 70 93 126 88 
165 198 158 183 216 176 196 227 188 210 239 201 162 187 150 113 133 99 70 83 53 51 58 32 
40 40 18 39 30 13 41 23 10 44 19 9 50 17 10 56 18 13 62 18 17 67 19 20 
68 19 20 68 17 19 68 14 16 73 13 16 79 15 17 87 18 21 90 20 21 92 21 21 
94 22 21 99 26 23 106 30 27 117 35 33 134 40 40 147 44 46 159 45 49 175 48 56 
189 53 62 201 58 71 212 69 84 216 77 92 217 83 98 231 111 123 238 129 141 239 143 152 
236 158 169 227 158 170 215 150 161 211 152 161 225 172 180 246 202 209 249 219 226 250 229 235 
251 235 240 253 244 247 253 245 247 253 242 244 253 243 244 253 244 246 253 244 247 251 235 240 
250 227 234 246 216 225 235 195 206 226 179 191 219 166 179 216 157 170 214 152 166 211 147 161 
198 136 146 186 124 133 169 106 115 135 72 81 103 40 49 78 17 23 70 10 16 69 10 15 
68 11 17 65 12 16 62 12 16 61 15 17 63 21 22 59 21 21 54 19 18 51 16 16 
46 12 11 57 24 23 105 71 71 135 100 100 159 122 123 180 141 142 186 146 148 189 145 145 
188 134 127 178 125 118 157 109 101 121 80 69 95 60 50 68 41 30 37 19 7 31 18 7 
31 23 13 36 33 23 
20 14 14 27 18 19 61 44 45 75 55 56 73 51 52 47 21 24 41 12 15 45 14 18 
49 14 19 51 14 20 53 14 20 53 14 20 52 13 19 51 12 18 48 10 16 49 12 17 
52 15 21 56 18 24 59 20 26 61 21 28 63 19 27 65 18 27 67 17 26 69 17 27 
71 17 28 73 17 27 72 17 22 71 17 21 69 16 19 61 11 14 56 9 11 52 10 9 
51 11 10 66 30 29 98 67 65 159 133 129 184 163 158 200 184 177 217 205 196 224 215 205 
226 221 210 224 223 210 206 206 193 176 179 164 132 136 122 99 105 89 88 96 80 117 126 110 
130 139 123 142 146 128 158 147 124 160 144 122 159 137 117 155 126 108 156 117 102 161 113 100 
174 115 104 182 114 106 185 109 103 180 97 92 180 93 88 179 90 85 177 87 82 171 80 74 
165 74 68 160 71 63 150 61 53 141 54 44 135 48 37 128 41 30 122 35 25 115 29 20 
122 35 24 129 38 27 138 38 29 148 45 36 159 54 46 173 66 56 179 69 61 184 72 64 
189 75 66 192 76 67 193 75 66 192 73 63 190 71 61 189 70 59 189 71 60 187 71 60 
185 71 60 182 71 60 178 69 59 172 66 56 165 62 52 155 57 45 145 49 38 134 41 29 
123 31 20 110 26 18 97 23 20 88 17 14 78 13 10 69 12 8 64 13 9 56 14 9 
48 14 8 41 13 8 34 12 6 27 9 4 21 5 1 31 16 12 49 32 28 64 47 42 
64 45 40 57 36 30 49 28 20 49 26 16 51 28 16 53 31 17 54 32 16 58 35 18 
73 50 33 84 56 40 91 56 43 87 52 39 89 55 40 93 59 44 99 63 49 99 62 47 
97 60 44 98 58 43 104 60 44 108 60 45 109 57 42 114 59 44 121 63 47 129 70 54 
149 90 72 169 111 92 184 128 108 202 150 127 218 173 146 231 194 165 220 185 154 204 171 139 
188 158 124 135 93 65 102 50 27 111 58 35 117 62 39 121 65 42 126 67 44 128 68 44 
130 68 44 132 68 43 134 69 43 136 70 43 137 71 44 152 87 59 169 105 75 187 123 93 
210 148 117 217 156 126 204 145 114 191 134 104 177 122 92 163 110 79 169 117 87 172 120 91 
170 118 90 210 170 157 233 202 196 238 211 203 243 225 211 247 238 217 250 248 223 246 250 219 
243 249 214 240 245 207 238 235 197 239 226 188 240 215 178 210 169 135 194 139 108 189 120 93 
162 83 60 158 72 51 169 79 60 172 85 65 172 88 67 167 88 67 154 83 60 143 77 53 
132 71 47 118 77 61 97 64 51 75 41 29 72 37 27 73 36 28 74 36 30 66 27 21 
58 18 15 52 12 11 54 13 13 55 14 15 57 15 18 56 16 18 58 19 22 59 22 25 
53 19 20 49 17 18 45 16 16 40 14 12 35 12 9 33 12 9 38 19 14 39 21 16 
36 19 14 25 6 7 40 22 24 61 43 46 67 52 53 42 30 29 16 8 5 14 10 6 
11 11 4 11 15 4 22 31 16 23 35 18 24 38 20 30 47 27 27 45 25 25 45 24 
34 55 33 31 53 32 28 49 29 26 46 26 19 38 19 13 32 14 12 32 14 12 31 14 
17 33 15 30 39 16 40 48 23 49 56 30 57 62 35 65 67 40 74 73 46 84 80 52 
89 82 53 90 80 49 86 73 41 83 68 34 83 66 31 88 70 33 91 73 33 95 76 34 
99 80 36 105 86 40 116 99 49 133 117 65 146 130 76 155 140 84 162 148 89 171 157 98 
182 170 110 195 188 125 204 197 135 211 204 143 216 208 150 209 201 145 196 188 135 177 167 118 
164 154 106 159 148 101 160 150 103 159 149 102 160 149 103 163 153 106 175 164 119 183 172 130 
189 178 140 194 182 149 201 188 161 209 196 175 214 200 185 218 202 194 221 204 201 222 205 205 
223 209 202 224 215 195 225 216 196 224 215 194 222 213 192 222 212 190 217 206 184 208 198 175 
199 188 164 185 173 150 169 158 133 155 144 119 148 136 112 146 133 110 151 138 116 156 143 122 
159 145 126 157 142 125 150 135 119 130 115 100 68 51 39 41 25 15 30 13 6 18 3 2 
13 8 5 11 16 9 10 13 7 7 9 3 4 5 0 5 3 0 10 5 1 37 30 23 
122 113 101 156 146 132 172 162 147 184 174 158 165 156 138 139 132 111 116 111 89 84 84 61 
71 76 50 101 111 83 127 141 112 160 179 147 210 232 199 194 220 187 167 196 162 142 172 137 
123 153 120 111 140 108 108 138 105 102 134 99 101 133 97 106 138 102 102 135 98 106 140 101 
124 157 118 132 162 125 140 169 132 153 178 143 113 134 100 78 93 62 54 62 35 41 42 20 
34 28 10 35 21 7 39 18 6 45 16 6 50 16 9 55 16 12 59 16 14 63 17 17 
67 16 17 70 15 17 71 14 16 77 15 18 84 17 20 91 21 24 93 22 24 96 23 24 
98 25 24 101 28 26 107 30 28 115 32 30 127 34 34 142 37 40 158 42 48 175 48 56 
191 54 65 203 61 74 212 70 85 218 81 96 223 93 108 234 120 132 239 137 147 239 149 157 
235 162 172 227 162 173 216 155 165 213 159 166 226 178 185 246 206 212 250 224 229 251 234 238 
252 240 243 253 247 247 254 249 249 254 249 249 254 249 250 254 249 251 254 249 251 253 244 247 
252 238 243 248 228 235 235 201 211 228 185 196 224 174 187 221 166 180 221 162 176 218 158 172 
209 147 157 203 140 149 194 130 139 172 107 116 147 81 90 119 52 60 85 20 26 77 14 19 
76 15 20 73 15 20 68 15 18 64 14 16 60 16 17 56 16 16 52 15 14 48 12 11 
50 15 13 76 41 40 155 118 118 180 141 142 196 155 157 216 175 177 186 142 145 159 110 110 
154 98 92 158 104 97 150 101 93 117 75 64 88 53 42 61 32 23 34 14 5 27 13 4 
27 18 8 33 28 18 
19 11 12 31 22 23 62 44 44 75 52 53 75 50 51 51 23 25 46 15 18 52 17 21 
55 17 21 58 17 22 60 17 23 60 16 23 60 16 22 58 15 22 55 13 19 56 14 20 
59 17 23 62 20 26 65 22 28 67 23 30 69 22 29 70 20 28 70 19 27 72 18 27 
73 17 27 74 17 26 75 19 23 75 20 23 72 18 21 60 9 13 52 5 7 48 6 5 
49 10 10 72 37 37 118 89 87 205 181 178 229 210 205 232 218 211 227 217 209 233 226 217 
239 236 226 243 243 232 234 236 224 213 217 203 173 178 164 148 155 140 144 152 137 174 182 167 
178 187 171 177 183 165 178 172 149 169 160 137 159 146 124 150 131 111 150 122 105 154 116 101 
162 113 101 171 112 102 174 105 99 169 92 87 168 88 83 169 86 81 169 86 80 164 79 73 
159 74 67 157 71 63 144 58 50 136 50 41 135 49 39 128 43 32 116 33 23 99 20 9 
101 23 12 108 25 15 118 27 18 129 34 25 143 45 36 161 60 51 168 65 57 175 70 62 
183 75 67 187 77 69 191 78 69 192 78 68 192 76 67 190 74 64 187 73 61 185 71 61 
183 72 61 182 72 61 179 71 61 173 68 57 165 62 52 154 56 45 145 49 38 137 43 31 
125 33 22 112 27 18 98 22 19 90 18 13 81 14 9 72 12 7 66 14 9 60 15 11 
53 16 11 44 14 8 35 11 5 27 7 1 23 6 1 36 19 14 54 36 31 63 44 39 
67 46 39 67 44 36 64 38 29 66 40 28 70 43 30 72 45 29 69 42 24 69 41 22 
83 55 35 95 62 45 102 64 50 96 58 44 100 63 48 107 71 55 117 79 64 117 79 62 
115 77 59 119 78 61 123 78 61 124 75 58 118 64 48 120 62 46 125 63 47 130 67 51 
156 92 74 182 119 99 200 140 119 218 164 139 234 188 160 246 213 183 230 197 165 211 178 143 
194 166 129 137 95 66 102 49 26 113 58 35 115 59 36 117 59 36 121 61 38 125 63 40 
129 66 41 132 67 43 131 66 40 129 65 38 125 62 35 148 85 57 171 111 82 195 137 107 
225 170 140 233 179 149 211 157 127 192 140 110 165 114 85 129 79 50 133 83 55 132 81 55 
123 71 47 183 138 130 219 179 180 227 194 192 237 215 205 245 233 217 249 247 225 246 251 223 
244 253 219 243 254 216 241 246 207 241 238 199 243 229 190 219 190 154 206 162 129 201 143 113 
157 86 61 148 68 46 163 78 57 167 82 61 167 83 63 165 84 63 154 79 57 142 71 47 
129 61 39 105 63 44 88 54 38 76 41 27 76 40 28 87 48 38 98 58 49 83 40 34 
68 26 21 57 15 11 54 11 9 54 12 11 57 15 15 57 17 18 60 22 24 62 25 27 
53 20 20 50 19 18 48 19 17 41 15 13 35 11 8 33 9 6 42 20 16 45 24 19 
41 21 16 26 6 6 43 22 24 65 45 48 70 54 54 54 41 39 35 25 21 24 19 17 
18 17 11 15 18 8 18 25 11 19 29 12 21 35 15 29 45 25 23 41 20 21 39 17 
33 53 31 28 48 27 22 40 22 20 37 19 13 29 12 7 24 7 13 29 12 14 29 13 
18 31 14 32 37 15 46 49 25 59 61 34 68 67 41 74 71 44 81 77 49 92 84 55 
94 83 54 92 79 48 87 71 39 85 68 34 86 68 32 92 72 35 94 75 34 97 77 35 
101 81 36 106 88 41 113 96 47 122 107 55 143 127 74 159 143 88 168 154 97 179 164 107 
190 178 120 203 196 137 206 199 141 205 197 141 198 190 136 192 184 132 181 173 124 167 156 111 
155 144 100 153 142 98 160 150 105 165 154 111 170 159 115 175 164 119 191 181 138 203 192 152 
211 199 163 217 205 173 224 212 186 232 220 200 238 225 212 242 228 220 243 229 225 244 229 229 
246 234 228 248 240 224 249 240 224 249 241 224 250 241 224 248 239 220 242 233 213 235 225 204 
224 213 192 207 196 175 187 176 154 168 157 134 159 147 125 155 143 121 157 144 123 159 145 126 
161 147 129 165 151 133 159 145 128 141 126 110 92 75 61 62 44 31 41 24 13 22 6 3 
13 8 4 9 15 7 8 12 5 5 8 2 4 4 0 5 4 0 11 7 1 39 32 23 
120 111 99 152 142 128 167 157 141 180 169 153 163 153 135 139 131 111 117 112 91 85 84 61 
67 71 45 85 95 66 103 117 86 131 150 117 183 206 172 186 212 178 181 210 175 181 213 177 
134 164 131 95 124 92 84 114 81 90 121 87 101 133 98 117 149 113 124 157 120 115 148 110 
83 115 77 82 111 75 89 114 80 102 124 91 69 86 55 44 55 28 39 42 19 33 29 10 
31 20 4 33 15 2 38 13 3 43 12 4 49 12 7 51 12 8 54 12 10 58 13 12 
66 13 14 72 13 15 73 13 14 80 15 18 87 18 21 94 22 25 96 24 25 98 25 26 
100 27 27 103 29 28 107 30 28 112 29 28 121 28 29 136 32 36 157 41 47 176 47 57 
192 55 68 205 63 78 211 71 86 219 84 99 228 102 116 236 128 139 240 145 153 240 155 161 
236 168 177 229 169 179 220 164 172 219 168 175 230 186 192 247 211 216 250 228 231 252 237 239 
253 243 243 253 247 246 254 251 249 254 254 252 254 253 253 254 253 254 254 252 254 254 250 251 
253 245 249 250 236 243 237 209 216 232 194 203 229 184 196 225 175 188 224 170 184 222 165 179 
214 153 161 213 149 156 212 146 154 201 133 142 186 116 125 159 88 97 106 35 43 91 22 28 
86 20 25 81 19 23 73 16 18 65 13 14 58 11 11 54 11 10 50 11 8 46 8 5 
55 19 16 94 57 54 191 152 150 208 166 165 213 168 169 227 182 185 173 125 127 128 76 76 
124 67 60 143 89 82 147 97 89 115 72 62 84 48 38 56 28 18 32 12 4 25 10 2 
24 14 6 30 24 15 
21 13 13 29 20 20 63 43 43 78 52 53 77 49 52 54 23 25 49 15 18 55 16 22 
59 17 21 62 17 23 65 17 24 65 16 23 64 15 23 63 15 22 61 13 19 61 14 21 
63 17 24 65 20 26 68 21 28 70 22 29 71 21 28 71 19 27 72 17 27 73 17 25 
74 17 26 75 17 26 73 17 21 73 19 21 72 18 21 62 11 14 56 8 11 53 10 11 
57 19 19 77 45 44 121 94 92 209 187 184 232 215 211 237 224 219 238 230 223 234 229 222 
232 230 221 236 237 227 223 225 215 200 203 193 163 169 157 147 153 140 153 160 146 194 200 187 
199 205 191 197 201 185 193 190 168 174 169 147 161 154 133 165 154 134 172 154 135 172 145 129 
160 121 109 156 106 97 153 93 86 150 81 76 149 77 72 152 78 72 159 85 78 153 78 71 
148 72 64 147 69 60 133 53 44 128 46 37 133 50 40 126 44 34 113 34 24 94 21 9 
91 19 8 95 20 9 106 22 12 115 28 20 128 38 30 144 51 43 152 57 49 160 62 54 
169 68 60 175 71 63 181 74 65 185 76 66 187 76 66 187 75 65 185 74 64 183 72 62 
182 72 62 181 73 62 179 72 62 172 68 58 164 63 52 155 57 46 146 50 39 136 42 31 
124 32 20 112 26 17 100 22 18 92 18 13 83 14 9 73 11 6 67 13 8 61 15 10 
54 16 10 45 13 7 37 11 4 30 8 1 27 7 1 38 18 13 55 35 29 68 45 40 
75 50 43 77 50 41 73 43 33 77 46 34 83 52 36 81 48 31 74 41 22 68 36 15 
75 42 21 89 52 35 102 61 47 101 61 47 105 66 51 110 72 55 115 77 59 119 81 63 
124 85 66 132 91 72 135 89 70 133 82 65 125 68 51 127 66 50 133 68 51 138 70 53 
165 96 78 191 124 104 204 140 119 221 163 138 236 188 160 247 215 185 231 200 166 212 179 143 
194 165 128 139 96 66 105 50 28 117 60 38 119 61 38 121 63 39 127 66 42 131 67 43 
134 69 45 137 71 47 135 71 45 131 68 41 125 63 36 158 99 70 187 132 102 207 153 124 
232 185 155 236 192 161 214 166 136 200 153 124 167 120 92 111 64 38 112 64 39 108 59 35 
96 47 24 166 118 113 208 163 167 219 180 181 234 207 201 243 228 215 246 241 222 241 245 218 
239 249 216 240 253 216 238 248 208 239 241 201 241 234 193 222 201 163 211 176 141 203 154 122 
159 97 69 149 77 52 162 83 60 164 82 60 164 82 60 162 81 59 152 74 51 139 64 41 
124 52 31 98 54 34 80 47 28 70 35 19 75 38 23 100 60 47 129 87 75 109 64 56 
91 44 38 73 27 22 57 12 8 57 12 10 61 18 17 52 12 12 52 14 15 55 19 19 
48 14 14 46 15 14 45 16 15 42 14 12 37 11 8 35 10 7 46 21 18 49 24 21 
46 21 19 33 8 10 43 19 22 61 39 42 83 65 64 94 79 76 95 84 79 81 74 67 
58 56 46 36 37 25 21 26 11 14 23 5 15 27 8 29 43 22 20 36 15 13 29 7 
18 35 13 12 27 9 6 19 4 6 19 4 4 16 3 7 18 5 17 30 14 20 33 17 
22 31 15 23 24 5 42 40 18 61 58 33 78 73 47 88 81 55 96 87 60 102 91 62 
100 87 57 97 82 50 93 75 42 96 77 42 97 77 41 97 76 38 96 75 35 96 75 33 
98 78 33 100 82 35 105 88 40 114 98 47 137 121 69 157 142 89 174 159 104 185 171 115 
192 180 126 196 188 135 197 190 138 193 185 135 182 174 126 180 171 125 175 166 122 167 157 116 
163 151 112 164 152 113 171 159 120 178 167 126 183 172 132 188 177 136 201 191 151 211 200 162 
218 206 171 222 211 181 228 218 192 235 225 205 239 228 215 242 230 223 243 230 227 244 232 231 
245 235 231 245 238 227 245 239 227 247 240 228 249 242 228 248 241 225 245 237 220 239 230 212 
230 220 202 214 203 185 193 182 164 175 164 144 165 153 134 160 148 128 159 145 127 158 145 126 
159 146 128 166 151 134 163 147 131 150 133 118 113 96 81 79 61 48 48 31 19 26 8 4 
12 7 3 5 13 5 5 11 2 4 7 1 2 3 0 4 2 0 9 5 1 35 28 21 
117 108 96 151 140 126 169 157 141 184 173 155 170 160 141 149 140 120 128 122 101 78 77 54 
59 63 37 119 127 99 138 153 122 145 165 132 145 169 135 153 180 145 158 188 152 155 187 151 
121 152 118 94 123 90 86 115 82 93 123 89 102 133 98 108 140 104 117 149 112 106 139 101 
65 96 59 62 89 54 71 94 60 88 108 77 57 70 42 37 43 18 36 34 14 38 28 12 
39 22 8 39 16 4 39 9 3 39 5 2 42 4 2 45 5 3 48 6 4 52 7 5 
66 11 11 73 12 12 71 9 9 77 11 12 84 15 17 92 21 22 95 23 25 98 25 26 
99 26 27 101 28 28 105 28 28 109 27 27 120 28 30 137 33 38 159 43 50 178 49 60 
193 56 70 206 65 80 212 75 90 221 90 104 231 109 122 237 134 143 240 150 156 241 160 164 
239 174 182 234 177 186 227 174 181 226 179 185 235 195 201 249 218 223 251 231 233 252 239 240 
253 244 243 252 247 245 252 251 248 252 254 251 251 253 252 251 252 252 252 252 252 254 251 251 
253 246 249 251 238 243 246 221 227 241 208 215 234 195 205 225 181 191 221 172 184 219 166 177 
217 155 161 217 152 157 216 148 154 204 134 141 197 125 132 182 107 115 138 63 70 115 41 47 
99 27 32 86 19 21 73 13 12 63 8 6 61 9 7 57 10 7 52 9 5 48 7 3 
59 19 15 97 57 53 187 144 141 192 146 144 181 132 131 174 120 121 140 84 86 115 59 58 
116 60 54 146 93 86 154 105 97 115 73 64 87 52 42 61 33 23 36 16 6 29 14 5 
27 17 9 32 25 16 
24 15 16 28 17 18 65 43 43 81 53 53 81 50 52 58 23 25 53 15 18 59 17 22 
64 17 22 67 17 24 70 18 25 70 17 23 69 16 23 69 16 23 67 15 21 67 16 22 
68 18 25 70 19 25 71 20 27 72 20 28 72 19 25 72 17 25 73 16 25 74 16 23 
76 16 24 75 16 24 68 13 17 69 16 18 70 18 20 62 13 16 60 14 17 64 23 24 
81 46 46 105 74 74 143 117 117 213 194 192 225 210 207 224 213 209 226 219 214 206 202 196 
182 181 174 161 162 154 142 144 135 131 133 124 132 136 127 139 143 132 162 166 155 215 219 207 
223 227 216 225 227 214 228 227 208 217 214 195 207 203 184 204 200 181 185 176 157 162 145 129 
137 108 95 118 78 67 105 55 47 100 41 35 107 44 39 117 53 47 130 67 59 126 61 53 
124 57 49 127 57 47 110 37 29 105 30 22 116 36 28 111 33 24 102 27 17 89 21 8 
86 20 7 86 18 7 90 16 8 96 20 12 104 25 18 115 32 24 121 35 27 129 40 32 
141 48 39 153 56 48 164 63 54 174 70 60 178 73 63 180 73 63 178 71 62 177 70 60 
177 70 60 177 71 61 176 71 61 170 68 58 162 62 52 154 56 46 146 50 39 136 43 31 
124 32 21 112 26 17 102 22 17 94 18 12 84 14 8 75 11 5 69 12 7 62 14 8 
55 15 9 47 13 7 39 10 4 33 9 3 31 8 2 42 19 14 58 35 30 75 50 43 
88 60 52 98 67 58 99 66 55 102 67 53 105 68 52 104 66 47 98 60 39 93 55 32 
92 54 32 97 56 37 102 59 45 105 63 48 104 64 48 103 64 46 102 63 45 109 71 52 
121 81 62 133 92 72 137 91 71 135 84 65 128 71 53 133 70 52 139 71 54 144 72 55 
167 95 77 191 120 100 203 136 114 217 156 131 232 182 154 246 214 183 232 200 165 213 180 143 
196 167 128 146 102 72 114 59 36 124 66 43 126 67 44 128 68 44 132 70 46 135 71 46 
137 71 47 137 71 47 134 71 45 129 68 41 119 60 33 169 114 85 206 155 126 219 171 142 
237 197 167 237 198 168 212 169 141 189 146 119 148 104 79 86 42 21 85 39 20 80 34 17 
69 22 11 131 81 82 174 125 132 196 153 156 223 191 189 237 216 207 236 227 210 234 234 209 
236 243 211 242 253 216 243 251 212 244 247 206 244 241 198 233 217 177 226 198 161 221 181 146 
177 123 92 160 96 68 163 92 66 162 86 62 160 82 58 158 78 55 147 70 47 135 59 36 
120 47 26 93 49 26 77 43 21 72 35 16 86 47 29 127 85 69 174 130 116 163 115 105 
148 99 91 132 83 75 111 62 57 97 50 46 84 39 36 54 14 13 48 10 9 52 15 14 
45 12 11 45 14 12 47 17 15 43 14 13 40 11 10 39 11 9 50 21 19 53 24 22 
51 22 21 42 15 17 47 20 23 62 38 38 96 76 75 129 113 110 153 140 134 149 140 132 
131 127 115 111 111 97 98 101 85 92 99 81 86 96 76 76 88 66 58 72 50 43 57 35 
37 51 29 22 34 15 8 20 3 4 15 1 2 11 1 3 10 2 9 17 7 10 17 8 
15 18 7 26 24 3 45 40 17 63 57 31 79 71 44 89 80 52 97 85 57 102 88 58 
97 82 51 93 75 43 89 69 36 94 73 38 98 76 40 99 77 38 98 76 36 96 75 33 
94 73 30 96 77 33 102 85 38 112 95 47 134 119 69 156 141 90 174 160 109 183 169 117 
187 175 125 186 179 133 178 171 126 171 165 120 167 160 117 162 154 114 164 155 117 173 163 128 
178 166 131 184 172 137 191 180 145 196 185 149 203 191 155 209 198 161 217 207 169 223 213 177 
226 217 184 230 221 192 235 227 202 240 233 214 244 235 223 245 235 229 244 235 233 246 236 236 
245 237 235 244 239 232 244 239 232 246 240 232 248 242 231 249 243 232 247 240 228 242 235 221 
239 230 216 225 217 202 207 198 181 186 177 159 175 164 146 168 157 139 163 151 133 158 145 128 
156 142 125 163 148 132 164 149 133 160 143 128 139 122 108 105 87 74 67 50 37 38 20 11 
17 12 3 3 12 2 4 10 1 3 6 0 2 3 0 4 3 0 9 5 1 37 30 22 
120 110 98 156 144 130 177 164 148 193 180 163 175 164 145 150 142 121 134 128 106 84 83 58 
69 73 46 148 155 126 169 183 152 164 185 151 134 158 124 132 159 124 129 159 123 114 146 109 
102 132 97 93 121 88 87 115 82 97 127 92 103 135 99 100 131 96 96 127 92 81 112 76 
50 78 44 46 70 37 48 68 37 57 72 45 43 51 27 37 38 17 47 40 22 68 53 38 
78 56 43 72 44 34 56 23 17 47 11 7 47 8 4 44 5 3 43 3 2 45 4 3 
70 16 15 81 19 18 76 13 12 78 11 12 82 13 14 89 19 19 92 21 22 93 23 23 
94 24 24 97 25 25 100 25 25 105 25 25 119 28 31 137 34 40 159 43 52 177 49 61 
192 56 71 205 65 82 212 76 93 221 93 108 231 113 126 237 139 147 241 155 159 241 165 167 
242 181 188 241 186 194 238 185 193 237 190 197 241 203 209 249 219 225 251 230 233 252 238 239 
253 243 243 253 249 247 251 251 248 249 252 249 248 252 249 249 252 250 251 253 251 253 251 250 
253 248 249 252 243 246 250 230 235 247 222 228 241 211 219 226 188 197 219 176 186 217 169 179 
223 161 165 224 157 160 221 152 156 211 138 143 205 128 135 193 114 121 164 83 90 139 58 65 
117 39 44 101 27 30 86 18 18 74 12 11 69 13 11 64 12 9 58 10 6 50 6 3 
59 16 12 93 49 44 175 129 125 173 123 121 154 100 98 135 76 76 134 73 73 142 82 81 
160 107 102 183 132 126 182 136 129 141 102 94 101 68 59 66 40 31 40 20 12 31 16 9 
28 17 10 31 23 16 
27 17 19 27 16 17 67 43 42 83 53 53 83 50 52 61 24 25 57 16 19 64 18 22 
68 18 23 72 18 24 74 18 26 74 17 24 75 17 24 74 17 24 73 17 23 72 18 24 
73 19 26 74 20 26 74 20 26 74 19 26 73 17 23 73 16 23 74 15 23 75 15 22 
77 15 23 75 14 22 65 10 14 66 14 16 68 17 19 62 15 17 60 17 19 71 32 33 
111 79 79 138 110 110 167 144 144 213 195 194 213 200 198 204 194 192 201 194 192 159 156 152 
114 113 108 82 83 76 62 64 57 65 68 61 109 111 103 137 139 131 174 176 166 231 232 223 
242 243 234 244 244 234 246 245 230 242 240 224 232 230 214 213 213 195 164 162 144 129 121 104 
121 101 88 104 74 63 90 50 42 82 33 27 94 41 36 107 54 47 119 68 58 116 63 54 
116 60 51 121 61 50 99 33 25 91 22 14 101 27 18 96 23 15 89 20 10 82 18 6 
80 19 6 78 17 6 76 10 5 79 11 5 83 14 6 89 17 8 93 18 9 101 22 14 
113 29 21 129 40 31 143 49 40 156 58 48 163 63 53 167 65 56 169 66 57 169 66 56 
170 66 57 172 68 59 172 69 60 168 67 57 161 62 52 153 55 45 145 49 38 136 43 32 
124 33 23 113 27 18 103 22 16 95 18 11 86 13 7 76 10 5 70 12 6 63 13 7 
56 14 7 48 12 6 42 10 5 37 10 4 36 10 4 46 20 15 62 36 30 80 51 43 
98 67 58 115 80 70 120 83 70 122 82 67 122 80 63 122 79 59 121 77 54 117 74 49 
113 69 45 108 64 44 106 60 46 109 65 50 102 60 44 92 53 35 85 47 29 95 57 38 
111 71 51 127 85 64 132 85 65 133 80 61 132 73 55 137 72 54 144 72 55 148 73 55 
169 94 76 190 116 97 203 133 111 216 152 128 229 178 151 246 215 184 235 202 167 218 184 146 
201 171 131 154 110 79 124 68 44 131 73 49 133 73 49 134 73 48 135 72 48 137 72 48 
137 71 47 135 69 45 131 69 44 124 65 39 111 55 29 178 127 99 224 177 149 231 188 159 
242 209 179 233 202 173 198 160 133 164 125 100 120 81 58 67 26 7 64 22 5 59 16 4 
50 4 2 97 46 51 133 82 89 158 112 117 196 160 159 217 191 184 221 205 191 224 218 195 
232 233 203 243 249 214 247 252 214 249 251 210 249 246 203 243 231 190 241 217 179 237 203 166 
195 149 116 174 117 87 166 102 74 161 92 65 157 84 59 153 77 53 143 67 44 131 56 33 
117 45 23 92 47 22 79 44 19 78 40 17 101 60 38 152 108 88 210 163 146 205 155 141 
196 144 133 184 131 122 161 110 103 138 89 83 110 63 59 60 19 16 48 9 7 51 15 12 
46 12 10 47 15 13 49 18 16 46 16 15 43 12 11 43 11 10 53 21 20 57 23 23 
56 22 23 51 21 23 51 23 24 63 37 37 104 81 80 149 130 126 184 170 163 189 180 171 
183 177 165 174 172 157 169 170 153 164 169 150 155 162 141 134 144 121 114 125 102 97 108 85 
84 96 73 65 75 54 50 59 40 46 54 40 45 50 40 45 48 40 47 50 43 44 46 40 
43 43 32 48 42 19 59 52 26 71 62 35 82 71 43 89 77 48 96 81 52 100 84 53 
95 77 45 89 69 37 85 64 31 92 69 34 98 74 37 100 77 38 100 77 36 97 75 34 
93 71 30 96 77 34 104 86 41 117 99 53 136 121 73 155 140 92 171 158 109 173 160 112 
170 159 113 160 154 115 139 133 95 128 122 86 129 122 88 127 118 86 145 135 104 181 171 141 
191 180 150 200 189 159 210 199 169 215 204 173 221 210 177 227 216 182 231 221 186 233 224 190 
234 226 194 236 229 201 240 233 210 244 238 220 247 240 227 247 240 233 245 238 236 247 239 239 
246 240 239 243 240 237 244 240 238 245 241 237 246 241 235 249 244 237 248 243 234 246 239 230 
246 239 229 237 230 217 221 213 199 196 189 172 182 172 156 172 161 145 163 152 135 154 141 125 
147 133 117 154 139 124 159 144 128 162 145 130 154 136 122 123 105 91 84 66 53 48 30 17 
21 16 4 2 11 1 2 9 1 2 7 1 2 4 0 4 4 0 11 7 1 40 33 23 
125 115 103 163 151 137 186 172 157 203 190 173 178 166 148 147 138 117 132 126 103 87 86 60 
74 78 50 147 155 125 167 182 149 161 182 147 125 150 115 114 142 106 102 133 96 79 111 73 
78 107 72 81 107 74 80 107 74 100 129 95 108 139 104 92 123 88 73 104 69 54 84 50 
37 63 31 33 54 24 31 48 20 32 43 19 33 37 16 41 38 19 58 47 31 102 83 70 
128 102 91 126 94 85 104 68 62 91 53 48 92 52 47 82 44 41 76 40 38 77 39 37 
94 39 39 97 33 34 85 20 20 81 15 15 81 14 14 85 16 16 86 19 18 87 20 19 
88 20 20 91 22 21 95 22 22 102 23 23 118 28 31 137 35 41 157 43 52 174 48 60 
189 54 69 202 64 81 209 76 93 219 94 109 230 115 128 237 142 149 240 158 162 241 168 170 
244 185 191 244 191 199 242 190 198 240 193 200 241 202 208 245 214 219 247 225 227 249 233 234 
251 239 239 252 247 245 250 249 247 246 249 246 246 250 246 248 252 248 251 253 250 253 251 249 
253 249 250 253 246 249 252 238 241 251 233 238 247 224 231 230 197 204 220 182 191 217 173 181 
229 168 170 230 164 164 227 157 159 218 143 146 211 131 137 202 118 125 184 97 104 161 73 80 
138 52 58 121 39 43 106 29 31 92 22 21 82 19 17 73 16 12 64 12 7 53 6 3 
59 13 8 89 40 34 159 108 103 156 102 98 137 79 76 115 53 51 145 80 80 181 119 118 
207 158 153 219 173 168 208 166 160 162 126 119 109 79 71 67 42 34 42 23 16 33 18 12 
29 17 12 30 21 16 
30 20 22 29 16 18 68 43 42 85 53 53 84 50 51 64 25 27 61 17 20 67 18 22 
72 18 23 75 18 24 78 18 25 79 18 25 79 18 25 79 18 26 79 18 25 78 19 26 
78 19 26 77 20 26 76 19 26 75 18 24 74 16 22 74 14 21 75 13 20 76 13 20 
77 13 21 75 13 20 64 11 14 64 14 15 65 16 18 60 16 18 52 12 13 67 30 31 
144 113 114 173 148 149 188 168 169 201 186 185 191 180 180 175 168 167 158 154 151 86 84 81 
27 27 23 21 22 18 13 15 11 32 34 31 108 109 104 152 153 146 193 193 186 239 237 230 
247 245 238 241 238 230 224 218 206 218 214 201 197 196 182 148 153 136 78 81 65 59 57 43 
127 115 103 150 128 118 155 124 116 142 103 96 149 108 101 154 113 105 154 114 105 150 109 99 
148 104 94 150 100 89 116 58 49 97 32 25 98 27 20 86 18 12 76 11 5 68 10 4 
69 14 4 68 13 4 68 8 4 69 9 4 71 9 4 73 9 5 78 11 5 85 14 7 
93 18 10 105 25 16 116 31 21 127 37 28 135 42 32 145 49 39 156 58 49 158 59 50 
162 61 52 166 66 56 168 67 59 165 66 57 159 62 51 152 55 46 144 50 40 136 44 33 
125 34 25 114 27 19 103 22 15 95 17 10 86 13 7 78 10 5 72 12 5 64 12 5 
56 13 6 49 11 5 44 10 4 40 11 4 40 12 5 51 22 16 66 36 29 78 46 38 
99 64 55 120 81 71 122 81 68 124 79 64 125 77 60 127 78 58 130 81 58 132 83 57 
130 79 54 122 73 53 114 68 53 114 68 54 98 56 40 80 41 24 69 30 13 78 40 21 
93 54 34 108 66 46 117 69 50 125 70 52 135 74 56 140 72 56 144 71 54 149 71 55 
171 92 75 193 115 97 208 134 113 222 156 132 236 183 155 248 220 189 240 209 175 227 192 155 
209 179 139 161 116 86 131 74 50 137 79 55 137 77 53 136 74 50 136 71 48 134 68 46 
133 66 44 131 65 42 126 64 40 117 59 34 102 48 23 184 136 108 238 195 166 241 203 173 
248 225 195 224 204 175 160 128 102 118 85 60 86 51 29 64 26 6 59 19 4 54 12 3 
48 4 2 73 23 26 89 37 43 98 49 55 139 99 99 172 141 135 197 174 162 209 195 175 
224 216 190 242 239 208 248 245 209 252 248 209 253 247 206 251 240 200 248 228 189 243 211 172 
211 169 133 187 137 104 171 114 83 163 100 71 157 89 62 150 79 53 140 69 44 129 57 33 
117 46 23 96 51 23 88 52 23 91 53 25 119 76 49 168 121 97 220 170 149 212 160 142 
207 152 139 200 146 135 185 131 122 165 113 106 135 86 81 69 26 22 52 13 9 55 19 15 
50 17 14 51 19 17 53 22 20 50 18 18 46 13 13 45 11 11 56 20 21 59 21 22 
59 21 22 57 25 25 57 27 26 65 37 36 100 75 73 136 115 111 165 148 142 172 160 150 
180 172 159 188 184 169 195 196 178 190 193 172 186 191 169 194 202 179 188 196 172 179 187 164 
173 182 159 166 173 151 164 168 149 172 175 157 173 174 158 177 176 161 187 185 171 176 173 159 
150 144 128 101 92 65 94 84 56 93 81 53 90 77 48 91 77 48 95 79 49 101 82 51 
96 77 44 91 70 37 88 65 31 93 69 33 98 73 35 99 75 36 100 76 36 100 76 36 
96 75 34 102 83 41 114 96 53 133 115 71 146 130 85 155 142 96 162 149 102 153 140 95 
133 123 82 102 97 65 65 58 32 45 38 15 44 37 15 59 50 27 109 99 75 190 181 156 
197 187 162 208 197 172 223 212 186 232 222 193 236 225 195 235 224 193 237 228 196 237 230 198 
238 230 201 237 231 204 239 233 211 243 237 219 245 240 227 245 240 232 243 238 235 246 241 240 
245 242 243 243 241 243 244 241 242 244 241 241 245 241 239 246 242 239 248 243 238 249 244 237 
252 247 238 246 240 230 232 225 214 203 196 182 180 172 158 163 153 139 153 142 126 140 128 112 
129 116 100 134 120 105 141 127 112 147 131 116 140 123 109 120 102 88 91 73 59 51 33 20 
22 18 5 3 12 2 2 10 1 2 7 1 3 5 0 6 5 0 14 10 2 45 38 26 
132 123 109 172 160 145 196 182 166 214 201 183 180 168 148 140 129 108 118 111 88 80 79 53 
61 64 37 91 99 69 104 119 86 111 131 97 112 135 100 99 127 90 81 113 76 62 94 57 
48 75 41 45 69 37 60 85 53 101 129 95 117 147 112 84 114 79 54 84 49 34 62 28 
28 53 22 26 47 18 26 41 15 27 35 13 36 36 16 49 40 24 65 49 35 137 114 102 
190 161 151 212 178 170 206 169 163 206 167 163 215 176 171 200 161 157 190 152 147 187 149 145 
156 102 101 127 64 64 99 35 35 89 24 24 83 17 17 79 14 14 78 14 13 78 15 13 
79 15 14 84 18 17 90 20 19 98 21 21 116 28 30 135 34 40 153 40 50 169 44 57 
183 50 65 196 59 75 205 73 90 217 93 108 228 117 129 236 144 150 240 160 162 241 170 170 
243 184 190 241 186 194 234 181 188 227 179 185 228 186 191 233 199 202 237 210 213 241 221 222 
245 230 230 247 239 237 246 243 241 245 245 243 246 247 245 248 250 248 251 253 250 253 251 250 
254 250 249 253 247 248 252 241 244 252 238 242 249 232 236 237 209 215 226 193 199 220 181 187 
232 173 172 236 169 167 234 164 163 224 148 149 218 136 139 211 123 128 195 103 109 179 85 91 
162 69 75 148 58 62 133 49 51 118 39 40 98 28 26 84 21 17 71 15 10 56 6 4 
61 12 6 83 32 24 134 81 74 142 85 79 137 77 72 127 62 58 182 114 113 229 167 165 
237 193 188 241 201 196 222 184 180 163 130 125 101 73 68 57 33 28 40 23 16 33 19 14 
29 18 14 29 20 17 
32 20 22 31 17 19 71 44 44 87 54 54 87 51 52 66 25 27 63 17 20 69 18 23 
74 18 24 79 19 25 83 19 27 83 19 26 84 19 26 84 19 27 83 19 26 83 19 27 
82 20 27 81 20 27 79 19 26 78 18 24 76 15 22 76 13 20 76 12 19 76 11 19 
77 12 19 75 12 19 63 14 15 66 20 21 72 27 28 73 33 33 67 31 31 84 52 52 
170 143 144 196 175 175 204 187 187 206 194 194 190 181 181 165 160 159 132 131 128 66 66 63 
13 14 11 6 8 5 3 4 2 32 33 30 125 125 121 172 171 166 208 206 200 241 237 232 
246 241 236 243 236 231 237 226 219 228 221 212 203 201 190 153 158 145 65 70 58 43 45 34 
130 125 114 163 148 139 176 154 146 171 141 134 176 144 136 172 141 132 156 128 116 151 122 110 
150 116 105 152 111 101 123 72 64 107 47 40 107 40 34 96 29 24 84 21 16 72 17 9 
70 18 9 66 16 7 59 8 3 60 7 3 61 6 3 63 7 3 67 7 4 72 9 5 
79 12 6 89 17 9 99 22 13 109 26 17 117 30 21 127 37 27 140 46 37 145 49 40 
152 55 46 160 62 53 164 66 57 162 65 56 156 60 50 149 54 45 142 48 39 135 43 34 
126 35 27 115 28 20 104 21 14 96 17 9 88 14 7 79 11 5 73 11 5 65 12 5 
57 13 5 50 11 4 46 10 4 42 11 5 43 13 7 54 22 16 69 35 29 81 45 37 
103 63 54 125 81 70 127 80 67 127 77 61 126 73 55 130 76 55 136 81 57 140 85 58 
139 83 56 133 81 60 126 79 64 120 74 60 101 59 43 81 42 24 68 30 13 72 35 16 
81 43 23 90 48 28 100 52 33 114 59 40 134 71 54 139 70 54 142 66 50 146 65 50 
167 85 69 187 106 89 198 120 102 213 144 122 230 175 148 247 216 187 241 209 176 229 195 158 
213 183 144 164 118 88 131 73 49 134 76 53 134 73 50 133 70 47 132 67 45 131 65 43 
129 62 41 125 60 39 122 60 37 114 57 33 102 50 26 186 142 114 241 203 174 243 210 180 
248 227 198 216 198 170 137 111 85 100 71 47 76 45 24 66 32 15 66 28 15 65 25 15 
63 21 14 64 17 17 68 20 23 76 30 33 107 66 65 141 107 100 179 149 139 195 172 154 
214 195 172 235 219 191 243 228 196 248 233 198 252 236 198 252 238 200 251 233 194 247 221 181 
228 191 154 207 162 126 185 134 100 170 115 82 158 99 68 149 86 57 139 75 47 128 63 36 
116 52 26 101 57 26 97 60 26 102 63 31 133 89 58 173 125 96 210 158 134 209 154 133 
207 151 134 204 147 134 191 135 124 169 116 107 136 87 79 72 28 22 55 15 10 58 22 17 
53 20 15 53 22 18 56 24 22 53 20 20 49 14 15 48 11 12 59 19 21 61 20 22 
59 18 20 52 18 18 53 22 21 64 35 33 97 72 68 128 107 101 152 135 126 158 144 133 
170 160 146 182 176 159 191 189 170 182 184 163 176 179 157 186 191 167 186 191 167 184 189 165 
183 188 164 184 187 164 189 190 169 203 202 183 206 203 185 211 206 189 224 218 202 209 201 186 
176 166 149 123 111 83 111 98 70 105 91 63 95 80 51 91 74 45 90 72 41 94 74 42 
92 70 38 90 66 33 89 64 30 95 70 34 99 74 36 97 72 33 100 75 36 101 77 37 
98 77 36 115 95 54 131 113 71 147 130 87 151 136 93 151 138 95 147 135 92 121 109 67 
94 84 48 67 62 37 39 33 15 24 17 2 23 15 2 33 24 9 79 69 52 159 149 132 
177 166 148 194 184 164 213 202 181 225 214 191 232 222 196 234 225 197 238 230 201 240 233 203 
240 234 205 239 234 207 240 235 212 241 238 219 243 239 226 242 239 230 241 239 233 243 241 238 
244 242 243 243 242 247 243 241 246 243 241 245 244 242 244 243 241 241 246 242 241 250 245 242 
251 246 241 242 237 230 223 217 209 180 173 162 156 148 136 144 135 122 139 130 115 126 114 100 
113 100 86 122 108 94 128 113 99 130 115 101 127 111 97 106 89 76 79 61 48 51 33 20 
24 20 8 4 14 3 3 11 1 2 8 1 2 5 0 5 4 0 12 8 1 42 35 25 
132 122 108 174 162 147 200 186 170 219 206 188 179 166 146 132 121 99 109 101 78 82 80 54 
65 68 41 73 81 51 80 94 62 89 110 75 104 129 93 97 125 88 86 118 80 80 114 75 
59 86 51 49 73 41 66 90 58 101 128 94 111 140 106 75 104 69 50 78 45 33 60 28 
28 52 22 27 46 19 26 40 14 23 30 8 35 33 14 48 37 22 61 41 29 133 107 97 
190 158 150 220 183 177 229 191 186 235 196 192 239 201 196 224 186 181 211 174 169 202 165 160 
163 113 110 132 73 72 110 49 49 91 30 29 80 19 17 76 15 13 73 12 11 71 11 10 
72 12 10 78 16 15 86 19 18 95 21 22 113 26 30 131 32 38 150 38 48 165 41 54 
178 47 62 191 55 71 202 71 88 214 92 107 225 117 129 234 144 150 236 160 161 236 169 167 
242 184 189 235 180 188 221 164 172 206 156 162 209 164 169 221 182 186 231 199 203 238 212 215 
242 223 225 245 232 232 243 235 234 240 235 234 241 239 237 245 244 241 249 248 245 253 249 248 
254 249 249 254 247 248 252 241 243 252 236 239 249 229 232 238 211 215 227 197 202 220 184 188 
226 169 165 229 163 159 228 158 155 219 141 141 214 128 130 207 115 119 193 94 100 182 81 87 
171 70 76 160 62 67 147 55 58 132 47 47 112 35 32 97 27 23 81 19 14 62 8 5 
63 10 4 79 24 18 118 61 54 138 78 71 148 85 79 150 82 78 199 128 126 239 176 174 
246 209 205 248 222 218 225 202 198 157 130 126 100 75 71 58 38 33 40 24 19 33 20 16 
29 18 15 28 17 16 
32 20 22 32 18 20 72 44 44 89 55 54 89 52 52 68 25 27 64 17 20 71 19 23 
76 19 24 82 20 26 86 20 28 86 19 27 87 19 27 88 20 27 87 19 27 86 20 27 
86 20 28 84 20 27 82 19 26 81 18 25 78 15 21 77 13 19 76 11 18 76 10 18 
77 10 18 75 12 18 64 17 18 72 30 30 87 47 48 103 68 68 102 70 70 117 89 89 
192 169 170 214 196 196 218 205 205 217 208 208 196 191 190 164 163 162 123 124 122 60 61 59 
10 12 10 3 5 4 3 4 3 39 39 37 144 143 140 193 190 186 224 219 216 244 239 236 
245 237 235 245 234 232 250 234 232 229 217 213 198 193 187 157 162 152 74 81 71 56 61 52 
148 147 138 184 176 168 201 187 180 201 181 173 198 176 167 184 163 152 156 140 126 151 132 119 
150 126 113 153 120 109 134 91 82 125 72 65 128 65 60 117 53 48 101 40 34 79 26 17 
72 24 13 63 19 9 51 10 3 52 7 3 53 6 3 56 7 3 61 9 4 65 9 5 
70 9 4 77 11 5 85 15 7 94 19 10 102 22 13 112 28 19 125 36 27 132 40 31 
142 48 39 153 59 49 159 63 55 158 63 54 153 58 49 145 52 44 139 47 39 134 42 34 
126 35 27 115 28 20 104 21 13 97 17 9 89 14 7 80 11 6 74 12 5 66 12 5 
58 13 5 51 11 3 47 10 3 44 10 5 46 13 7 56 22 16 71 35 28 85 45 37 
108 64 55 130 82 70 132 80 66 129 75 58 127 70 51 132 73 51 140 79 55 147 86 58 
146 85 57 142 87 65 134 87 73 125 79 65 106 63 47 86 47 29 74 37 19 73 36 17 
75 37 18 75 33 15 85 37 19 102 47 29 128 66 49 136 65 50 139 61 47 142 59 45 
161 77 62 179 95 79 185 104 87 199 127 106 218 161 136 244 212 184 241 207 175 229 194 158 
214 184 146 164 119 89 129 72 48 131 73 50 130 69 47 129 65 44 128 63 42 128 61 41 
126 60 39 121 57 37 119 59 37 113 57 34 101 51 27 186 144 118 241 207 179 243 215 186 
248 228 200 213 195 168 127 104 79 91 66 43 72 44 24 69 38 22 73 38 24 76 38 26 
77 37 27 60 17 14 54 11 12 61 18 19 81 40 37 112 74 67 154 117 108 171 138 123 
194 163 143 222 193 168 231 203 175 239 211 179 245 218 183 249 229 192 251 232 193 250 226 187 
241 207 169 225 184 146 202 157 120 182 134 98 165 114 80 151 96 64 139 83 52 127 70 40 
115 59 29 105 63 28 107 69 32 119 78 42 151 106 71 180 130 99 204 150 122 206 149 125 
206 147 127 203 143 128 191 133 121 167 112 102 132 81 72 72 27 20 56 16 10 59 23 17 
53 20 15 54 22 18 57 24 23 55 20 20 51 15 15 50 11 12 61 19 21 64 19 22 
61 17 20 51 16 16 53 21 20 66 35 33 97 70 65 124 101 93 143 124 113 144 128 116 
150 139 123 158 150 132 162 159 139 152 152 130 145 146 123 154 156 132 159 161 137 163 165 140 
166 167 143 172 171 149 183 180 159 203 198 178 209 202 184 218 209 191 236 225 208 219 206 191 
183 169 151 125 112 84 115 100 71 109 93 64 97 80 51 88 69 40 83 63 33 84 63 31 
85 62 29 86 61 28 89 63 29 97 72 36 101 75 37 95 70 31 99 75 36 103 79 40 
104 82 42 128 108 68 147 129 88 158 141 100 155 140 99 146 132 92 130 119 78 96 85 46 
68 59 28 46 41 24 28 22 9 17 11 1 15 8 1 19 11 1 52 41 32 111 100 90 
132 121 109 153 142 128 175 164 149 202 192 173 220 211 188 228 220 195 234 227 201 239 233 205 
241 237 208 240 237 210 240 237 214 240 239 219 240 239 224 239 239 229 239 239 232 241 241 236 
241 241 242 241 241 250 241 241 249 243 242 249 245 244 249 242 241 245 244 242 244 247 245 244 
244 241 238 231 227 223 207 202 195 148 143 134 116 109 100 101 93 84 102 93 83 92 81 71 
81 69 58 91 78 68 94 80 70 95 80 70 97 82 70 83 67 54 63 46 34 47 30 18 
24 21 9 5 16 4 4 12 2 2 8 1 2 5 0 4 3 0 10 6 1 40 33 23 
129 120 106 173 161 146 200 187 170 221 207 189 172 159 139 118 106 84 97 88 64 79 76 50 
69 71 44 74 81 52 77 91 59 81 102 67 91 117 80 90 119 81 90 122 83 98 132 92 
82 109 74 73 95 64 83 107 75 101 127 94 99 127 93 65 93 59 46 74 41 34 60 29 
29 51 23 28 46 19 25 36 13 18 22 4 31 26 10 45 29 16 55 31 21 116 86 78 
169 134 128 206 167 163 227 188 183 238 199 194 239 200 196 220 183 178 203 168 162 188 154 148 
155 109 105 129 75 72 110 55 52 88 32 29 76 19 16 72 15 12 68 12 9 66 10 7 
66 10 8 74 16 14 83 19 18 93 21 22 110 25 29 127 30 37 146 36 46 161 38 51 
175 44 59 187 52 69 201 70 87 212 92 108 223 116 128 231 143 148 232 158 158 229 164 162 
232 172 178 219 160 169 197 137 145 177 123 129 185 136 142 209 166 170 225 189 193 235 205 209 
241 217 220 243 225 225 239 225 225 233 224 223 233 227 225 238 233 231 245 240 238 251 245 243 
253 247 246 253 246 246 252 239 240 251 234 235 248 226 227 235 211 213 226 199 201 219 186 187 
218 162 156 220 154 148 220 149 144 211 132 129 207 118 119 202 105 108 189 86 90 181 74 80 
174 66 72 164 59 63 152 53 55 139 46 47 123 38 36 107 32 27 91 24 18 71 12 6 
69 11 5 79 21 15 111 50 42 140 77 69 163 96 90 175 104 99 212 139 135 241 178 176 
247 216 214 249 230 228 224 209 206 154 131 127 101 80 76 62 44 40 40 26 23 33 20 18 
28 17 16 27 15 15 
31 18 21 32 18 20 71 43 43 89 53 53 90 50 52 69 25 27 66 17 20 73 19 24 
78 18 25 84 19 26 89 20 28 90 20 28 91 20 28 90 20 28 88 19 27 88 19 27 
88 20 28 86 20 28 85 20 27 83 18 25 80 15 22 78 12 19 76 10 18 77 10 17 
78 10 17 76 13 18 66 23 23 83 46 45 114 79 79 161 131 129 165 138 137 169 145 145 
208 190 189 224 211 210 231 222 222 232 227 226 210 208 208 179 179 179 139 141 141 61 63 62 
3 5 3 7 10 9 9 10 10 48 47 47 162 159 158 214 209 208 243 237 235 252 247 246 
247 240 238 245 232 232 250 229 232 201 183 185 158 148 147 139 143 136 97 105 97 105 112 104 
193 196 187 230 229 221 247 242 235 246 233 227 222 207 199 194 181 170 165 158 144 159 149 135 
157 141 128 160 133 122 158 121 112 159 111 105 164 104 101 153 91 88 128 68 64 86 36 28 
71 26 16 58 18 8 45 12 4 47 11 3 50 10 3 54 10 3 63 15 8 67 15 9 
68 11 4 71 10 4 76 10 5 83 12 6 90 15 8 101 21 14 114 31 21 121 34 24 
132 43 33 148 55 47 152 58 50 152 58 50 149 56 48 142 50 42 136 45 37 131 40 32 
125 35 27 115 28 20 104 21 12 98 17 9 90 15 7 82 13 6 76 14 6 68 14 6 
60 13 5 52 11 3 48 10 3 45 11 4 47 13 6 57 21 15 72 33 26 88 46 38 
112 66 57 135 85 73 135 80 66 132 73 57 130 68 49 134 70 48 143 78 53 151 85 58 
153 86 57 147 89 67 138 90 76 127 81 66 111 69 53 97 58 40 88 51 32 81 44 25 
74 36 17 66 25 8 74 27 11 91 36 20 118 55 39 130 59 45 137 58 45 139 54 42 
155 68 55 169 83 68 172 89 73 181 106 86 201 142 118 242 210 183 239 205 174 227 190 155 
212 182 144 163 118 88 129 72 48 131 73 49 128 67 45 127 62 41 126 60 39 126 60 39 
125 59 39 122 59 38 121 61 39 112 58 35 94 47 24 183 143 117 240 208 181 243 218 189 
249 231 204 216 201 175 135 115 91 90 68 47 68 43 25 71 41 26 76 42 30 81 43 33 
84 44 37 60 21 18 47 8 7 45 5 4 58 18 14 80 39 32 112 70 61 127 86 72 
157 115 98 200 158 137 209 167 142 219 178 150 230 192 159 243 211 176 249 220 183 249 221 183 
247 214 174 238 200 160 222 182 143 204 163 124 182 138 100 157 111 75 143 96 60 128 80 46 
114 65 33 107 67 29 120 81 40 145 103 63 174 128 90 196 145 110 210 154 125 209 149 123 
205 143 122 199 137 120 188 129 114 163 106 95 126 73 64 69 23 18 54 13 8 58 20 13 
52 18 13 53 20 16 55 23 20 54 19 18 52 14 14 52 10 13 63 18 22 67 19 23 
66 20 23 63 27 25 64 32 29 73 42 38 99 71 65 122 97 88 135 114 103 127 110 97 
116 104 88 107 98 80 101 96 75 92 90 67 89 89 64 102 102 77 113 113 88 121 120 96 
125 123 99 135 131 108 151 144 124 176 168 148 190 179 160 207 193 177 236 220 204 221 204 189 
180 163 145 104 89 61 98 83 54 100 83 54 94 75 46 83 63 33 76 54 24 74 51 20 
77 52 20 81 55 23 88 62 28 100 74 38 104 78 40 95 70 31 99 75 37 107 84 45 
116 95 55 141 121 81 157 139 100 162 146 107 157 142 103 139 127 89 110 99 62 89 79 42 
68 60 32 47 41 31 26 19 11 13 6 1 10 3 0 14 6 2 26 16 12 45 33 29 
52 40 34 68 57 48 95 84 73 162 151 136 200 191 172 214 206 183 224 218 193 234 229 203 
243 239 212 241 238 213 240 238 215 239 238 219 238 238 223 238 238 228 238 239 232 239 240 235 
239 240 242 239 240 251 240 241 252 244 244 252 249 249 253 245 244 249 244 243 247 242 242 243 
228 227 226 212 210 207 185 181 176 111 106 99 56 50 45 19 12 11 22 13 11 21 11 9 
19 9 8 22 10 9 23 11 9 26 13 10 37 22 11 45 29 17 49 33 20 40 23 11 
23 19 8 8 18 7 5 14 3 3 9 2 2 5 0 3 3 0 10 6 1 39 32 23 
128 118 104 170 159 143 197 183 167 217 203 185 155 142 121 92 80 57 76 68 44 63 60 34 
64 67 39 96 104 74 100 114 82 90 111 76 65 90 54 70 98 61 83 115 76 101 136 95 
112 139 104 117 138 107 112 135 104 101 126 93 82 108 75 53 79 46 40 66 34 32 56 26 
28 49 21 25 41 15 19 29 8 10 12 2 22 14 2 36 18 6 49 23 14 88 55 48 
132 95 90 181 140 136 207 167 162 222 183 178 226 187 183 196 161 155 171 139 132 155 123 116 
137 96 90 117 69 64 93 43 39 80 28 24 71 19 15 66 14 9 62 12 7 62 11 7 
64 12 9 72 18 15 81 21 20 91 21 23 107 24 28 125 28 35 143 33 43 158 36 48 
173 42 57 187 52 70 202 71 89 214 93 109 223 116 128 228 140 145 227 152 152 219 153 152 
205 139 145 183 117 126 156 92 100 136 77 83 157 103 109 198 151 156 220 179 184 234 199 203 
242 212 216 238 214 216 233 214 215 227 212 213 220 209 208 226 217 216 238 229 229 246 235 235 
250 239 239 252 240 240 252 236 235 251 232 232 246 225 226 231 208 208 222 197 197 215 184 183 
209 153 145 209 143 135 209 137 132 201 121 117 199 108 108 196 96 99 188 81 84 182 70 75 
173 60 65 158 48 51 144 40 41 133 36 36 128 38 35 115 34 30 101 27 21 83 18 9 
80 18 8 88 26 17 114 51 41 150 84 75 180 111 104 197 124 118 223 150 146 242 180 177 
243 212 210 241 216 214 217 195 192 157 136 132 104 86 82 64 48 45 42 29 28 33 21 21 
28 16 16 25 12 14 
32 19 21 33 18 20 73 43 44 90 53 54 91 51 52 70 24 27 67 17 20 75 19 24 
81 19 26 86 20 27 89 20 28 92 20 28 92 20 28 92 19 28 89 18 26 89 19 27 
89 20 28 88 21 28 87 20 28 84 19 26 82 16 23 79 13 20 78 11 18 77 10 17 
78 10 16 77 15 19 73 33 32 91 58 56 127 97 95 193 167 164 201 179 176 200 181 179 
222 208 205 231 221 219 235 230 228 236 234 233 213 214 214 179 182 182 133 138 138 58 63 62 
3 7 6 4 7 7 6 7 7 48 47 47 171 168 167 224 220 218 250 244 243 252 244 243 
245 235 234 242 226 227 247 220 228 198 176 182 163 151 153 163 166 162 151 160 154 162 171 164 
209 214 207 232 233 227 233 230 225 210 200 195 185 175 167 151 144 133 106 105 91 106 102 88 
113 103 90 125 105 94 149 116 109 167 122 118 179 121 120 178 117 116 155 97 94 109 60 53 
98 54 45 92 54 45 90 62 54 89 58 51 89 54 48 89 50 43 87 44 37 82 34 28 
74 22 15 72 15 8 73 11 5 76 10 5 83 12 6 93 17 10 104 24 15 111 27 18 
121 33 24 133 44 35 141 50 42 144 52 45 142 51 44 138 48 41 134 44 37 128 39 32 
122 33 26 113 26 19 104 20 11 98 17 9 91 15 7 84 15 6 78 15 7 70 15 7 
61 13 6 53 10 3 48 9 3 46 10 3 48 12 5 57 20 13 71 31 24 86 42 35 
111 62 53 134 81 69 135 77 63 132 70 53 129 64 44 133 65 43 141 72 47 150 80 53 
154 83 54 147 87 66 136 89 76 127 81 67 116 75 59 107 69 51 98 62 44 86 50 31 
74 38 19 67 27 9 76 28 12 90 35 19 109 46 31 127 55 41 140 59 47 142 55 43 
157 68 56 169 81 67 169 85 69 179 103 84 201 141 118 243 212 186 239 206 175 226 189 155 
211 179 143 164 118 89 131 74 51 130 72 49 125 63 42 122 58 37 124 58 38 128 61 41 
128 62 42 125 61 41 118 60 38 105 52 30 82 35 15 175 138 113 237 208 180 242 219 191 
249 234 206 217 205 179 137 122 98 87 68 47 63 39 22 66 38 24 69 38 26 75 39 30 
82 43 36 56 22 17 42 9 5 39 4 1 47 9 5 63 21 16 88 42 33 105 55 44 
136 83 70 179 125 108 187 133 112 200 148 122 217 167 137 231 187 153 238 198 162 239 202 164 
242 205 165 239 202 161 229 193 152 218 182 140 203 166 125 186 148 109 176 137 98 165 126 87 
154 114 76 147 109 64 157 118 72 176 135 90 195 148 107 206 155 118 212 156 124 206 145 117 
200 137 113 191 127 108 165 104 88 140 82 69 112 58 47 66 19 14 54 13 7 57 19 12 
51 17 10 52 19 14 54 21 18 54 18 17 52 13 14 53 10 13 65 18 23 69 19 25 
68 19 24 59 21 20 60 26 22 69 37 32 92 62 56 113 87 78 128 106 94 125 108 93 
114 100 83 103 92 73 96 89 67 93 88 65 90 88 62 87 85 60 96 93 68 103 100 75 
102 98 73 109 102 79 122 112 92 145 134 114 161 146 128 182 165 148 219 200 184 207 187 172 
168 148 130 93 77 49 93 76 46 99 81 51 95 75 45 84 63 32 76 53 22 74 50 19 
80 55 23 87 61 28 95 69 34 105 78 42 106 80 43 97 72 34 101 77 39 111 88 50 
126 105 66 144 124 86 155 137 99 156 140 103 146 131 95 127 114 79 100 89 54 90 80 45 
75 67 42 55 50 46 32 26 23 18 11 9 14 6 7 17 8 9 32 23 23 59 49 49 
55 44 42 57 46 41 66 55 46 113 103 91 148 139 122 171 165 144 197 191 168 218 213 188 
233 230 204 236 234 209 237 236 213 236 237 217 237 238 223 237 239 228 236 239 231 237 241 234 
238 240 242 238 240 253 240 241 253 244 245 254 248 249 254 246 247 252 240 241 245 230 230 233 
208 208 208 173 171 169 128 124 121 76 72 66 36 31 27 12 5 3 32 24 20 56 47 40 
77 67 60 85 73 66 80 67 60 67 53 45 49 34 23 45 29 17 44 28 16 39 23 11 
24 21 9 10 20 9 7 15 5 3 10 2 2 5 0 4 3 0 11 7 1 41 33 23 
129 118 103 169 156 140 193 178 162 211 197 179 164 150 130 112 100 77 91 83 59 69 66 40 
67 69 41 109 117 86 117 132 99 105 126 91 67 93 56 77 106 68 95 127 88 112 146 106 
114 141 105 111 132 100 103 125 93 73 97 64 48 73 41 36 62 30 31 57 25 27 51 21 
24 44 17 21 35 10 15 23 4 6 7 1 17 7 1 30 10 3 42 14 6 69 35 29 
102 63 59 140 97 95 159 118 115 169 129 125 167 130 125 142 108 102 121 90 83 107 76 69 
97 59 51 86 43 35 72 29 21 66 20 14 61 15 9 59 13 7 58 12 6 58 12 7 
61 14 9 69 18 15 77 20 18 88 20 21 104 23 26 122 27 33 141 32 42 157 36 48 
174 43 58 190 54 73 205 73 92 215 94 110 222 114 126 223 134 140 219 143 144 209 142 140 
182 113 119 160 92 100 143 75 84 126 62 69 156 98 105 210 158 164 229 182 188 240 203 208 
246 218 224 244 218 221 238 215 217 229 209 211 214 198 198 214 200 200 222 208 209 229 215 215 
241 226 226 251 236 236 249 232 231 248 228 228 243 222 221 225 202 200 216 192 190 212 183 180 
213 159 149 215 150 140 214 143 135 204 124 118 202 110 108 200 98 100 197 86 89 187 72 76 
175 58 63 158 44 46 145 37 38 137 35 35 136 42 39 127 41 36 113 35 29 96 25 17 
91 24 15 99 34 24 128 63 51 160 92 83 187 116 108 202 127 119 223 147 141 233 169 165 
219 190 189 218 195 194 196 176 174 136 118 115 92 77 75 58 45 43 37 24 24 29 17 17 
25 13 15 25 12 16 
33 20 22 34 19 21 74 44 44 91 54 54 92 51 52 70 24 27 68 17 20 76 19 24 
82 19 26 87 20 27 90 20 28 93 20 28 94 19 28 93 19 28 90 17 26 90 18 26 
90 19 28 90 21 29 88 20 28 86 19 27 83 17 24 81 14 21 79 11 18 78 10 17 
78 10 16 79 17 20 82 45 43 101 73 69 139 112 109 212 190 186 223 204 201 219 204 201 
231 220 217 235 228 225 236 234 231 235 236 235 212 216 215 175 181 181 123 130 130 55 62 62 
5 11 11 1 5 5 2 3 3 44 44 44 169 166 165 225 220 220 252 246 245 251 240 239 
242 230 229 236 218 221 238 206 218 198 171 181 171 156 162 181 182 180 191 200 195 204 214 208 
218 225 219 230 232 227 214 212 208 161 153 149 139 132 125 103 100 90 46 49 38 54 55 42 
71 66 53 94 78 68 140 111 104 173 130 127 188 132 131 196 137 137 179 122 120 133 85 79 
130 87 79 128 94 85 129 105 98 127 101 94 123 94 87 119 85 77 110 72 64 97 54 47 
83 34 26 75 20 13 72 13 6 72 9 4 79 10 5 87 14 7 95 18 9 101 21 11 
109 25 17 119 32 24 130 41 33 135 46 38 136 46 39 135 46 39 132 43 36 127 38 32 
119 31 24 111 25 17 103 19 10 99 17 9 93 16 8 86 16 7 80 17 8 72 16 8 
62 14 7 53 10 3 48 8 2 45 8 2 47 10 4 57 18 12 71 30 23 88 43 35 
111 61 51 132 77 64 134 73 59 131 66 49 128 60 40 131 61 38 139 67 42 147 74 47 
153 79 50 146 85 64 136 88 77 128 82 69 122 80 65 115 78 61 106 70 53 90 55 36 
76 40 21 72 31 14 81 34 17 93 38 22 104 41 26 125 52 39 142 61 49 144 57 46 
159 69 57 171 81 68 170 84 69 181 104 85 203 143 120 243 214 188 239 206 176 225 189 155 
210 178 143 165 119 91 133 76 53 130 72 49 121 60 39 117 53 33 122 56 36 129 62 43 
132 66 46 128 64 44 117 59 37 98 46 26 70 25 7 168 132 109 234 207 180 241 219 191 
248 235 207 217 206 180 135 122 98 83 66 45 57 35 18 59 34 21 63 33 22 69 35 26 
78 40 33 52 22 15 38 11 4 36 5 1 41 4 2 52 10 6 72 22 15 89 33 24 
118 57 46 157 93 79 166 101 83 180 117 94 199 140 112 217 163 131 226 177 142 228 185 147 
234 195 154 235 199 157 232 199 156 227 196 151 219 188 145 210 179 137 204 172 130 197 164 123 
189 157 114 186 150 102 192 153 104 203 162 114 211 164 120 214 161 123 212 154 121 202 140 111 
193 129 104 181 116 96 144 81 64 120 60 45 99 44 32 64 17 11 55 13 7 57 20 11 
51 17 10 51 18 13 54 20 18 54 17 17 53 13 14 54 10 13 67 18 24 71 19 26 
69 18 24 57 18 16 59 24 20 70 36 31 89 59 51 108 81 71 122 99 87 124 106 91 
115 101 83 105 94 74 98 89 67 98 92 67 95 90 65 78 75 49 85 81 55 91 87 61 
85 79 54 87 79 56 96 85 64 117 103 83 133 116 98 157 137 121 200 178 163 191 168 154 
156 133 116 88 71 42 90 72 42 97 78 47 93 72 41 81 59 28 73 50 19 74 50 19 
84 58 26 93 66 32 99 72 37 104 77 41 105 78 41 99 74 36 102 78 41 113 90 52 
134 112 74 144 124 87 147 130 93 144 129 93 132 117 83 116 103 70 97 86 54 95 85 52 
85 77 54 65 60 60 40 34 35 24 18 19 17 10 13 20 12 16 45 36 40 90 80 83 
74 63 64 58 48 45 45 34 28 66 56 46 98 89 75 138 132 113 172 167 145 202 197 173 
226 223 197 231 230 205 234 234 211 234 236 216 236 239 224 237 241 229 237 242 232 238 242 235 
238 241 243 237 240 254 239 242 254 242 245 254 245 248 254 244 246 253 233 235 241 215 216 220 
186 187 188 131 130 129 68 65 62 42 39 35 23 18 14 17 10 6 52 44 36 95 86 75 
135 125 112 144 132 120 133 120 108 109 95 82 65 50 38 48 33 20 42 27 15 40 25 12 
25 22 10 10 20 9 7 15 5 4 10 2 2 5 0 4 4 0 12 8 1 43 34 23 
129 117 103 167 153 138 189 174 157 205 191 173 172 159 138 132 120 97 107 98 74 78 75 48 
71 74 45 114 122 91 128 143 110 121 142 107 82 108 71 88 118 80 101 134 94 107 142 102 
106 132 96 101 121 88 92 113 80 50 73 41 22 46 15 25 50 18 26 50 20 24 48 18 
20 40 13 17 31 6 13 19 2 6 4 0 15 3 0 25 4 1 34 6 1 53 18 15 
73 33 31 96 52 51 106 64 62 110 70 66 105 68 63 89 55 49 75 44 37 66 36 28 
62 28 19 58 21 12 54 16 8 52 12 5 52 10 4 54 12 4 53 12 4 55 12 6 
58 14 9 65 18 13 74 19 16 84 19 19 101 21 24 119 25 31 140 31 40 157 36 48 
175 44 60 193 56 76 208 76 95 217 94 111 220 111 124 218 128 133 212 135 136 200 131 130 
163 93 98 144 73 81 135 65 73 122 54 62 159 97 105 222 166 174 238 188 194 246 208 215 
250 225 232 250 224 228 244 218 222 233 209 212 209 189 191 203 185 186 206 189 190 211 194 195 
228 211 212 246 228 229 245 226 226 244 224 223 239 218 216 220 196 194 211 187 185 210 181 177 
221 168 156 224 160 149 222 151 142 211 129 123 207 113 111 205 100 102 201 88 91 189 70 75 
174 54 58 160 43 44 150 38 38 144 38 37 146 48 45 139 48 44 126 43 37 106 33 24 
100 31 21 108 40 30 139 72 60 165 96 86 187 114 106 200 124 116 218 140 133 221 155 151 
193 168 166 192 173 173 173 156 155 114 98 97 79 65 65 51 39 39 30 19 19 23 12 13 
22 9 13 25 12 16 
35 22 24 35 20 22 74 44 45 91 53 54 92 50 52 70 23 26 68 16 20 76 19 24 
82 19 26 87 19 27 91 20 28 94 19 28 95 19 28 94 19 28 90 17 25 90 17 26 
90 19 28 90 20 29 89 21 29 88 20 27 85 18 25 83 15 22 80 12 19 78 10 17 
77 10 15 80 19 22 94 60 57 116 89 85 150 126 123 217 197 192 227 211 206 224 211 207 
233 225 220 236 232 228 235 235 232 230 233 232 207 212 211 169 177 176 111 120 120 52 61 61 
10 16 17 2 4 4 0 1 2 37 37 38 148 145 145 214 208 208 250 241 242 250 238 238 
239 225 225 228 208 212 221 186 199 192 163 175 172 154 162 170 170 170 195 203 200 216 226 222 
223 232 225 234 238 232 204 203 198 115 110 105 94 90 82 62 61 54 10 14 8 26 29 19 
51 50 37 83 70 59 143 115 109 181 140 137 194 139 138 206 148 148 194 138 136 153 106 101 
161 119 112 158 124 117 142 120 113 140 117 109 136 109 102 129 99 91 123 87 79 109 68 60 
91 44 36 79 26 18 74 16 8 73 10 5 77 10 5 82 11 6 88 13 7 92 14 8 
99 19 11 109 25 16 118 31 23 125 37 30 131 42 36 133 44 38 131 42 36 126 38 31 
118 32 24 111 25 17 103 19 10 99 17 9 93 16 8 87 16 7 81 18 9 73 17 9 
64 14 7 55 10 4 48 8 2 45 8 2 46 9 3 56 18 11 72 31 23 98 51 43 
117 65 55 130 73 62 132 71 57 130 64 46 126 57 37 129 57 34 135 62 37 143 69 41 
150 75 46 146 84 63 139 90 79 131 85 73 127 86 71 122 84 68 110 75 57 92 57 39 
78 42 23 80 39 22 91 44 27 101 46 31 106 41 28 126 52 40 143 61 50 147 58 48 
161 70 59 173 82 69 173 86 72 184 107 88 205 146 123 244 215 189 238 206 176 224 188 154 
210 178 143 166 120 92 134 77 54 131 72 50 118 57 36 112 48 28 120 54 34 129 62 43 
133 67 47 131 67 47 117 60 38 95 44 25 62 18 6 164 129 108 233 206 179 239 218 191 
247 233 207 213 202 177 125 112 89 77 60 40 52 32 16 54 30 17 59 29 19 65 31 23 
74 37 31 49 21 14 36 11 4 35 7 1 39 4 2 48 5 2 61 9 5 78 20 11 
103 37 26 134 63 50 143 73 56 157 89 67 175 110 84 201 142 113 215 163 129 220 174 137 
225 185 144 228 193 151 231 200 156 229 201 156 224 197 152 217 191 146 212 185 141 207 179 136 
203 174 131 211 177 127 217 178 127 221 179 130 220 172 128 216 162 123 208 149 115 196 133 103 
185 120 95 171 105 84 131 67 49 107 47 32 90 35 23 64 17 8 58 16 7 60 21 12 
52 18 11 52 19 14 55 21 18 55 17 17 54 12 14 55 10 13 67 17 23 71 19 26 
70 18 24 61 21 19 69 33 29 83 49 44 97 66 58 108 81 70 116 93 81 121 101 86 
115 99 82 106 93 74 95 86 63 92 86 61 87 81 56 69 65 39 76 71 45 82 76 51 
73 65 41 72 61 38 78 64 43 96 79 60 112 93 75 138 116 99 185 160 145 178 152 138 
147 123 104 89 70 42 89 71 41 92 73 42 83 63 31 70 47 18 63 39 10 69 45 13 
83 57 25 93 66 32 95 69 33 94 66 31 95 68 32 101 76 39 101 77 40 111 88 51 
137 116 78 140 120 83 135 118 82 125 110 74 116 102 69 109 97 65 106 94 62 107 96 64 
96 88 67 74 69 72 49 44 47 30 24 29 19 11 18 24 16 22 60 51 57 123 114 119 
93 83 86 59 48 48 22 11 7 24 14 7 62 54 42 129 123 104 156 150 130 188 184 160 
224 221 195 228 227 203 232 233 210 234 237 216 238 241 225 240 244 231 241 247 236 240 246 237 
239 243 244 237 241 254 238 242 254 240 243 254 241 244 254 238 240 250 223 225 233 199 201 205 
163 163 166 92 91 91 14 12 11 9 6 5 9 5 2 19 13 7 57 50 41 108 100 90 
155 145 133 154 142 130 142 129 116 118 105 91 64 50 37 47 32 19 44 29 16 41 26 13 
24 22 10 8 18 7 5 13 3 2 8 1 2 5 0 5 4 0 14 9 1 44 36 23 
130 118 103 166 152 137 186 171 155 200 185 167 172 159 138 137 126 103 110 102 78 84 81 55 
77 80 51 108 117 85 130 145 111 134 155 120 109 135 98 100 130 91 90 123 84 75 110 70 
87 113 78 96 115 83 90 110 78 44 67 35 16 39 9 22 47 16 24 49 19 24 46 17 
19 38 11 15 28 5 12 18 2 10 7 1 13 3 0 19 1 0 27 2 1 37 4 3 
45 7 5 51 10 8 52 12 9 52 13 10 51 14 10 45 12 8 43 12 6 42 14 5 
44 12 4 44 9 3 40 4 2 43 5 2 46 6 2 49 9 3 49 10 3 51 12 4 
55 14 7 62 16 11 70 16 14 80 16 16 99 20 22 118 25 30 138 30 39 158 36 48 
177 45 61 196 58 78 210 77 96 217 94 111 219 109 122 212 122 128 204 127 128 192 124 122 
153 80 86 135 61 69 129 56 64 117 49 57 159 96 104 227 169 178 241 191 198 248 212 219 
250 229 236 250 229 234 248 224 228 239 213 215 205 183 185 195 175 177 197 178 179 194 177 178 
212 194 195 234 215 216 238 219 218 240 219 218 236 214 213 216 194 191 208 185 182 210 181 177 
231 178 166 235 171 159 231 160 150 219 136 130 212 118 115 206 100 101 196 82 85 180 61 64 
166 46 48 164 44 46 158 42 43 154 44 44 156 56 54 149 57 53 136 51 45 114 40 30 
106 36 25 112 43 33 142 74 63 160 90 80 177 104 94 194 117 110 210 131 124 208 142 137 
172 148 147 168 151 150 150 135 134 98 85 84 68 56 56 44 33 32 23 13 12 18 7 9 
19 6 10 25 11 16 
42 22 21 40 18 18 76 41 47 92 50 59 94 48 57 74 22 29 73 16 22 83 19 25 
88 18 22 95 19 23 102 22 25 106 23 24 108 24 24 108 25 25 105 24 23 101 23 21 
96 22 20 92 23 21 88 22 22 84 22 22 81 22 23 76 19 22 70 16 19 65 14 17 
62 13 16 69 23 25 103 74 68 130 107 99 163 140 133 215 196 188 228 211 203 230 215 207 
237 224 217 237 227 220 237 229 223 241 237 231 231 228 223 213 212 207 191 191 187 135 135 131 
89 89 85 83 83 78 93 92 88 124 123 118 190 189 182 226 224 217 244 240 234 238 233 226 
226 220 213 213 204 199 201 184 184 206 191 192 211 202 203 213 212 212 224 227 229 221 224 227 
191 194 198 169 171 178 127 128 135 53 52 58 38 37 41 24 23 25 2 4 3 67 67 61 
118 115 104 143 134 121 174 157 143 193 168 154 196 164 149 198 163 148 189 152 136 165 131 112 
165 132 113 160 130 111 147 124 106 146 121 104 145 117 101 143 110 97 141 103 91 134 92 83 
126 79 72 117 67 61 109 56 52 101 46 45 98 43 42 93 38 37 87 31 30 75 18 17 
73 15 12 79 18 14 90 25 21 99 29 27 108 33 31 116 35 35 120 35 35 122 34 33 
117 28 26 108 23 20 96 19 15 93 18 14 89 17 13 84 16 12 79 16 13 73 14 11 
66 12 9 59 9 7 55 8 6 52 8 5 52 9 5 59 16 11 72 28 21 95 47 38 
114 63 52 130 75 60 135 76 58 136 72 52 136 68 45 138 68 42 142 69 41 146 72 42 
148 72 42 144 73 52 136 72 62 127 67 56 119 67 53 110 66 50 99 61 45 82 50 33 
68 40 23 69 41 25 73 41 26 76 38 25 77 30 20 96 39 29 117 51 42 136 62 55 
156 78 69 170 90 80 170 92 79 187 116 98 211 155 130 243 210 181 242 210 175 230 198 159 
212 184 142 172 131 97 141 88 61 129 76 50 111 57 32 100 45 22 103 47 25 113 58 35 
123 69 47 130 78 57 112 63 43 89 43 26 63 21 8 160 124 108 225 193 175 229 202 185 
244 226 211 214 200 187 128 108 97 68 49 38 35 16 7 33 14 7 36 15 10 44 22 17 
56 34 30 29 19 12 15 9 2 15 5 1 23 11 2 36 19 7 52 27 17 52 22 10 
63 27 13 82 40 26 87 41 26 99 51 33 119 68 47 141 89 65 159 106 80 173 120 92 
196 142 112 213 159 127 224 169 136 219 163 128 223 168 132 232 178 141 229 171 134 227 170 134 
226 174 137 230 173 131 232 171 129 232 170 129 227 164 127 220 158 123 212 149 119 200 138 112 
187 127 105 165 108 90 98 45 35 76 27 18 74 27 18 59 15 9 55 14 10 57 16 14 
54 16 16 56 17 19 59 17 22 61 16 23 63 14 22 65 13 22 71 16 28 73 17 29 
72 17 27 67 20 22 72 28 28 81 41 39 94 60 55 80 51 46 63 41 35 69 52 41 
71 59 46 76 68 53 89 85 66 95 93 72 96 94 72 89 87 64 95 91 68 100 93 70 
95 86 62 91 79 55 90 74 51 95 77 53 106 86 62 124 103 78 153 131 106 155 133 108 
135 113 88 83 64 39 81 62 37 84 65 38 81 61 32 74 53 23 70 49 18 73 52 18 
82 60 24 89 66 28 91 68 28 89 66 25 91 68 27 98 75 33 103 81 39 112 91 50 
127 107 67 126 106 69 122 103 68 117 98 66 117 99 70 118 100 73 119 101 77 165 148 124 
172 159 146 135 131 139 73 69 77 40 36 43 39 33 40 54 48 53 105 98 101 188 180 181 
161 153 151 138 129 125 117 109 99 88 78 66 87 77 62 109 101 81 111 103 81 141 132 108 
189 181 155 198 192 165 215 209 183 235 229 204 236 231 208 241 236 215 247 244 222 247 243 223 
242 241 232 237 241 246 243 247 252 239 242 247 227 230 235 214 217 222 159 161 165 89 91 92 
72 72 73 40 40 40 12 12 10 46 43 43 65 61 59 77 73 69 99 93 88 130 123 117 
155 146 140 138 128 122 117 106 99 91 80 72 53 42 35 37 25 18 31 18 11 28 15 8 
19 13 6 10 11 5 6 7 2 4 8 1 8 13 4 25 29 17 45 46 31 82 79 61 
164 154 136 189 170 155 195 170 158 199 170 159 166 136 126 130 101 91 109 84 74 84 70 57 
75 73 55 104 111 89 119 136 109 124 149 117 115 146 111 95 128 90 70 105 64 42 76 35 
44 74 43 47 75 51 45 71 47 25 46 22 14 30 5 22 31 8 27 30 9 30 26 8 
30 20 5 30 15 3 28 11 1 26 5 1 22 3 1 20 2 1 19 1 0 23 3 4 
28 4 6 31 4 8 35 4 6 38 4 4 43 4 3 48 5 3 51 6 2 53 8 3 
42 8 3 36 6 2 33 3 1 34 3 1 36 4 1 39 5 2 43 7 2 49 9 4 
57 12 9 67 15 13 78 17 16 89 18 19 101 19 21 115 22 25 130 26 32 145 32 39 
162 41 52 182 57 70 195 75 88 201 88 98 200 95 103 191 99 103 181 97 98 165 87 87 
114 49 48 101 40 39 111 49 50 116 54 55 162 101 103 224 168 171 238 191 193 246 213 214 
251 232 232 250 241 237 248 242 237 242 235 231 219 209 206 208 190 191 204 176 180 202 160 170 
216 166 179 235 180 194 234 182 195 230 186 195 220 185 191 187 168 168 179 170 166 190 181 174 
231 197 187 241 195 186 237 181 175 224 152 151 212 125 128 198 100 106 184 76 85 171 59 68 
158 47 54 145 41 45 168 68 73 191 98 101 183 99 99 161 83 81 137 64 60 117 47 43 
112 43 38 117 47 42 136 64 61 147 73 71 153 79 77 156 81 80 179 104 103 193 130 130 
183 157 155 192 172 170 181 162 161 127 112 110 83 69 68 47 35 34 22 12 11 23 14 15 
27 17 20 29 18 21 
46 21 18 42 15 14 76 38 48 93 47 61 95 45 59 76 20 31 77 14 23 87 18 25 
93 17 21 102 20 21 111 24 24 115 26 22 118 28 23 120 30 24 117 30 24 110 29 21 
102 26 18 95 27 18 89 26 19 83 26 20 79 28 23 70 24 21 61 19 18 55 17 17 
52 15 16 61 27 28 109 85 77 142 120 110 171 150 140 212 192 183 225 207 197 230 212 202 
233 216 207 231 217 208 234 221 213 248 237 229 248 238 230 246 237 230 247 239 233 195 188 181 
150 145 137 150 146 138 168 165 156 193 190 182 224 223 213 237 236 225 239 238 227 228 227 216 
215 214 203 199 197 187 177 174 164 211 208 200 240 237 233 245 243 244 246 245 249 224 223 231 
166 166 178 124 124 140 75 76 92 12 14 29 3 4 16 1 1 9 4 4 7 90 88 85 
151 147 139 174 168 155 186 176 158 193 180 158 195 178 154 192 172 147 186 162 136 174 148 120 
168 140 113 160 133 107 149 126 100 149 123 99 150 121 100 153 119 101 153 113 99 152 109 98 
150 105 97 144 97 92 134 87 85 122 75 75 114 69 69 101 60 60 85 46 47 61 22 22 
52 12 12 56 13 12 67 19 19 78 22 23 89 24 26 100 27 29 108 28 31 115 28 31 
113 24 26 104 21 22 91 20 19 89 19 18 86 17 17 82 16 16 77 14 15 72 12 13 
66 10 10 63 9 9 60 9 9 57 9 8 56 9 6 62 16 11 73 26 19 93 44 35 
113 62 49 131 77 61 138 80 61 141 79 57 143 77 52 146 76 49 147 75 46 148 74 42 
147 71 40 142 66 45 135 60 50 126 56 45 115 55 42 104 55 40 94 54 40 78 48 32 
64 43 26 64 44 28 60 39 25 57 31 19 55 22 12 72 27 19 96 41 34 128 63 58 
153 83 77 169 96 87 169 97 85 189 124 106 215 161 136 243 207 176 244 212 174 234 205 161 
212 187 141 180 141 104 152 102 72 135 85 57 110 60 33 94 44 19 92 43 19 101 53 29 
112 66 43 124 79 58 106 62 43 85 42 27 66 25 11 154 116 103 214 178 167 222 189 179 
241 221 214 215 199 194 133 108 105 67 46 41 32 14 10 34 18 16 43 29 26 56 43 40 
73 60 57 50 51 44 38 45 36 36 41 35 45 50 36 59 60 43 75 71 56 64 56 40 
57 43 27 52 32 17 55 29 14 65 32 17 81 42 25 99 53 35 116 64 45 133 76 55 
166 104 82 191 124 100 208 136 111 206 132 105 218 143 114 238 164 133 236 157 125 236 158 126 
237 165 132 238 162 128 237 161 125 235 159 124 227 155 122 219 151 120 210 146 118 198 139 115 
184 129 109 159 109 93 74 30 25 53 12 7 61 21 14 56 15 12 54 13 13 55 14 17 
57 15 20 59 15 23 63 15 25 66 16 27 69 16 28 71 16 29 74 16 31 75 16 31 
74 16 29 71 19 23 73 25 26 79 34 35 92 54 53 60 30 29 26 4 2 30 15 7 
36 26 16 49 44 32 78 78 62 91 92 74 97 98 80 101 99 80 107 103 82 111 104 83 
112 102 79 107 94 70 102 85 61 97 79 52 103 84 56 114 95 65 131 111 79 139 118 86 
126 106 75 78 58 36 74 55 33 78 58 34 80 60 34 77 58 28 76 56 23 77 57 22 
81 62 24 85 66 25 88 68 25 89 69 25 92 72 27 97 77 31 106 85 40 113 92 49 
118 99 57 114 94 57 111 91 58 111 90 61 118 97 71 124 102 79 127 106 86 206 186 167 
224 209 201 172 169 181 80 78 88 38 35 43 47 43 49 69 64 69 124 119 120 211 205 202 
200 192 187 194 187 177 192 185 171 145 135 120 118 108 89 108 98 76 89 78 55 111 100 75 
162 151 125 173 162 134 197 186 158 229 218 189 231 219 191 239 227 199 250 239 210 251 240 211 
245 240 223 236 241 241 246 249 250 234 238 238 211 214 215 191 193 194 113 115 115 17 19 18 
17 18 17 17 16 16 26 25 23 89 86 85 120 117 115 133 129 127 138 133 130 146 140 137 
148 141 138 118 110 108 91 83 80 65 57 53 41 33 29 28 18 15 20 9 6 18 7 4 
16 6 4 13 5 3 7 3 1 7 8 1 15 22 9 47 53 36 75 79 59 114 113 92 
185 175 155 199 178 163 197 165 155 194 154 148 155 112 110 115 74 74 100 65 65 79 58 53 
72 66 57 101 108 93 111 130 108 116 144 115 117 151 117 91 127 89 58 95 53 24 57 17 
17 49 21 16 46 28 15 42 24 12 31 12 15 23 3 25 20 2 35 18 2 43 15 3 
46 10 2 48 12 3 48 12 4 44 9 5 37 9 6 30 9 7 24 8 8 24 10 12 
26 11 16 29 11 18 33 9 14 39 8 10 46 7 7 56 8 6 62 8 4 63 7 3 
45 8 5 34 8 5 32 5 3 31 5 3 31 4 2 32 4 1 38 4 1 46 7 4 
58 12 10 71 16 15 84 19 19 95 20 22 103 19 20 113 20 22 124 24 27 134 28 32 
149 38 44 168 54 62 180 70 77 184 79 85 182 81 86 173 79 82 162 72 73 143 59 59 
86 28 21 78 27 20 100 46 41 117 58 55 164 104 103 222 165 165 235 189 188 244 211 209 
251 233 228 251 249 238 249 254 243 245 251 242 234 232 226 224 208 208 216 181 188 214 155 171 
217 144 165 221 141 164 218 143 165 212 150 168 199 155 167 166 149 152 161 160 156 177 181 173 
232 212 204 246 213 206 241 196 194 226 161 164 209 128 136 191 98 108 173 70 83 161 57 68 
148 46 56 125 34 38 172 87 92 217 139 142 199 130 130 164 99 98 132 68 66 115 49 48 
113 44 44 117 46 46 129 54 57 134 59 63 135 60 64 128 56 59 160 88 92 187 128 130 
194 166 164 216 195 193 210 191 188 148 131 128 94 79 77 51 38 36 23 14 12 29 21 21 
35 27 28 33 23 25 
43 18 15 39 12 11 74 36 44 91 46 58 94 43 56 74 18 29 75 13 22 87 18 25 
94 18 21 104 22 22 114 26 25 117 28 25 121 31 26 123 33 27 120 35 28 114 33 26 
107 31 23 102 33 24 96 33 24 88 32 25 82 32 27 71 25 22 59 18 15 53 15 15 
51 15 15 62 29 28 114 90 82 146 125 114 174 153 142 207 188 178 218 199 190 220 201 191 
215 199 188 216 201 191 223 209 201 242 228 221 247 235 228 246 236 229 238 230 222 196 189 180 
163 157 148 170 164 155 188 183 174 209 205 195 230 227 217 238 235 224 237 234 223 224 221 210 
211 208 197 188 186 175 147 143 135 196 193 187 238 236 233 246 244 246 249 247 251 227 225 233 
167 166 180 128 128 145 79 80 98 11 13 29 2 3 17 5 5 14 16 16 20 66 63 62 
108 103 97 140 132 121 159 148 132 175 161 140 187 170 146 193 172 147 191 166 140 178 151 125 
174 145 120 164 137 112 150 128 101 148 123 99 150 121 100 154 121 103 153 115 100 151 110 99 
149 105 97 143 98 93 133 88 85 119 75 74 112 70 69 98 59 58 79 42 42 54 18 17 
44 6 6 47 7 5 58 12 11 69 16 16 79 19 19 89 20 21 97 21 22 103 21 21 
105 19 21 100 20 21 93 22 21 90 21 20 86 19 18 81 17 16 76 14 14 71 12 12 
66 11 10 63 10 10 60 10 10 58 10 9 56 11 7 62 17 12 74 27 21 94 45 36 
115 64 51 133 79 63 140 82 63 143 81 59 145 79 54 147 77 50 147 76 46 148 73 42 
146 70 39 143 66 45 138 63 53 129 59 48 120 60 47 111 62 47 102 62 47 88 58 42 
76 53 37 69 50 34 63 41 27 57 31 19 53 19 9 67 22 15 91 35 28 124 60 54 
151 81 75 170 96 88 172 99 88 192 126 108 218 163 138 244 209 179 243 211 174 232 201 158 
210 184 138 188 146 110 169 115 87 156 102 75 121 67 42 98 44 21 97 43 21 100 49 27 
104 54 34 109 59 41 99 52 35 86 41 26 70 26 14 142 102 90 198 161 150 221 186 177 
241 219 212 217 199 194 137 113 109 79 58 54 56 38 34 75 59 57 104 91 88 129 117 114 
148 136 133 140 143 133 134 144 131 130 138 127 132 137 125 138 139 127 147 145 133 140 133 120 
112 99 86 64 46 32 73 49 35 79 48 34 82 44 29 100 57 39 108 60 41 111 57 38 
139 80 59 160 97 74 177 110 85 191 120 94 208 136 108 227 154 123 224 148 116 223 145 113 
223 146 113 226 150 116 226 152 118 224 151 117 216 146 114 207 141 112 197 135 109 185 128 105 
173 120 100 150 101 86 68 28 23 48 10 5 58 17 11 59 18 15 59 18 18 59 17 20 
59 16 22 60 16 24 63 15 25 66 15 26 68 15 27 71 15 28 74 16 29 76 17 30 
75 17 29 71 20 23 73 25 26 79 34 35 92 54 53 60 30 29 25 3 1 25 9 2 
26 16 6 34 29 17 60 60 44 73 74 58 83 83 66 91 90 70 99 96 75 106 100 78 
112 101 78 110 96 73 105 89 65 98 81 54 103 84 57 113 93 64 127 108 76 134 114 82 
121 100 71 74 55 33 70 51 29 74 54 30 79 59 32 76 57 28 75 55 23 75 56 21 
80 61 23 85 66 24 88 68 25 95 75 30 100 80 34 104 84 37 109 89 44 113 93 50 
114 94 54 108 88 51 105 84 51 106 85 56 116 94 68 123 101 78 127 105 86 208 189 171 
220 208 199 156 154 163 56 54 63 13 11 19 31 27 33 53 48 51 95 90 90 157 151 148 
174 168 161 190 183 172 203 196 182 164 155 139 144 134 116 138 128 106 110 99 76 119 108 83 
156 144 118 161 149 122 182 170 142 214 202 174 221 209 181 231 220 191 244 233 204 249 237 209 
245 240 223 237 241 241 242 246 246 224 227 228 193 196 197 171 173 174 107 108 109 32 33 33 
41 42 41 42 42 41 50 49 48 122 121 119 157 156 153 170 166 164 161 157 154 151 145 143 
135 128 126 97 90 88 72 65 61 52 44 40 31 22 18 22 13 9 18 9 5 17 6 3 
15 5 3 11 4 2 6 2 1 8 9 2 22 28 14 65 71 53 95 98 78 126 124 103 
172 162 142 185 163 148 185 152 143 179 139 133 134 92 89 92 50 50 82 48 47 68 48 43 
69 62 53 102 108 94 114 132 110 119 146 117 118 152 118 93 129 91 62 98 57 28 61 21 
19 50 21 15 44 25 15 40 20 12 28 9 15 20 2 28 20 2 41 20 3 51 19 3 
57 17 4 63 21 8 65 24 11 62 22 13 59 25 19 55 27 24 49 26 27 47 28 31 
46 28 32 46 26 31 48 23 26 51 19 21 54 15 16 61 14 12 65 12 8 64 7 4 
50 12 9 41 14 11 40 12 10 36 10 7 34 8 4 33 6 1 36 5 1 44 8 5 
56 14 12 71 20 19 84 23 23 95 24 25 102 21 23 111 21 24 121 24 28 129 28 32 
142 36 41 159 48 55 169 60 67 172 67 73 170 69 74 162 66 69 151 59 61 135 48 49 
83 24 18 79 27 20 103 47 43 120 58 57 166 102 103 222 162 163 234 183 184 243 206 206 
250 230 226 252 247 238 251 254 244 249 253 244 247 242 238 240 222 223 232 197 204 228 169 185 
204 130 152 178 98 121 183 108 129 182 119 137 177 132 144 169 150 153 166 164 161 178 181 174 
234 217 208 248 218 212 242 199 197 223 159 162 205 125 132 186 93 104 165 64 75 152 50 60 
137 38 47 112 23 26 163 79 84 213 137 140 194 126 126 153 89 88 117 54 52 105 41 39 
104 37 36 108 39 39 121 47 49 127 52 56 129 56 59 128 56 60 167 97 101 198 140 142 
198 170 168 228 210 208 222 207 204 143 127 124 93 77 75 54 41 39 27 18 16 34 26 25 
39 31 31 34 26 26 
39 13 11 36 8 7 72 33 41 90 44 55 92 42 53 73 17 27 75 13 20 87 19 24 
96 20 21 106 24 24 117 29 28 121 31 27 124 34 28 125 36 29 122 37 29 117 37 28 
111 36 27 105 38 27 97 36 26 88 34 25 78 30 23 65 22 17 53 14 10 48 12 10 
46 12 11 58 26 25 113 89 80 144 122 112 168 146 135 193 172 162 201 181 171 199 181 171 
187 169 159 190 173 164 201 185 176 219 204 196 230 216 209 238 224 218 241 230 222 215 205 196 
191 183 174 192 183 175 208 199 190 224 216 207 238 230 221 241 234 224 235 227 217 213 205 195 
195 187 177 167 160 151 119 115 110 189 186 183 244 242 242 244 243 248 244 243 252 221 219 232 
160 158 176 123 123 143 77 77 98 11 11 31 2 2 19 2 2 14 7 7 13 33 31 32 
58 53 49 80 71 62 120 108 94 153 138 120 178 159 138 191 168 145 192 166 143 182 154 130 
178 148 124 168 140 116 153 132 106 150 127 104 150 124 103 154 123 105 151 117 102 149 112 100 
146 106 97 140 99 93 130 89 86 117 78 75 109 73 70 95 61 59 74 43 42 52 21 19 
41 8 6 39 4 2 48 8 6 58 11 10 69 15 14 78 16 16 87 18 17 95 19 18 
99 19 20 97 21 21 91 24 22 88 22 20 83 19 18 78 16 14 73 14 13 68 13 12 
64 12 10 62 11 11 59 11 11 57 11 10 55 11 7 62 17 12 74 28 21 94 47 37 
116 66 53 134 81 65 142 85 65 145 84 61 147 81 55 148 79 52 149 77 47 148 74 43 
147 70 39 145 68 46 141 66 55 133 63 52 125 65 51 118 67 52 109 69 53 97 66 49 
85 61 44 76 55 39 65 43 29 56 28 17 50 14 6 65 19 12 89 33 26 122 57 52 
148 78 72 167 93 85 169 97 85 191 124 106 216 160 136 244 206 175 244 209 173 234 200 159 
213 184 140 196 149 116 183 121 96 172 110 86 133 71 49 105 44 24 103 43 23 104 46 27 
106 49 32 109 54 38 103 51 36 93 44 31 79 32 21 138 94 84 189 149 140 222 185 177 
241 219 213 216 199 194 135 110 107 74 53 49 56 38 35 88 73 71 138 125 122 179 168 165 
212 201 199 204 207 203 199 209 204 199 207 202 197 203 197 199 202 196 206 205 199 205 200 193 
158 147 139 69 53 44 79 58 48 76 49 37 62 29 17 66 28 19 69 27 18 73 26 17 
99 46 30 123 68 46 147 88 63 159 97 71 178 114 85 199 134 103 201 134 102 207 139 106 
215 146 113 214 145 112 214 146 114 215 148 117 209 145 115 201 139 112 191 132 108 181 126 104 
170 119 101 149 102 88 70 28 24 50 10 6 59 17 12 62 21 19 62 21 22 62 20 23 
62 18 24 63 17 24 64 16 24 65 15 24 68 15 25 72 15 26 74 16 28 76 17 29 
76 18 28 72 20 25 74 25 28 79 35 36 93 54 54 63 32 31 29 6 3 23 7 1 
19 9 2 22 17 9 43 43 29 57 57 42 68 69 52 81 80 61 92 89 69 101 95 75 
108 98 76 109 96 74 107 92 68 100 84 57 104 86 59 112 93 64 123 105 75 126 107 76 
112 92 63 69 49 28 65 45 24 69 49 27 76 56 30 75 56 27 74 55 23 74 55 20 
78 59 21 83 64 23 89 69 25 102 82 36 111 90 43 112 91 45 112 91 47 111 90 47 
106 85 46 100 78 42 97 76 43 101 80 51 112 90 64 119 97 75 123 101 81 207 191 173 
227 217 209 175 173 181 60 59 66 7 5 11 18 14 20 33 28 32 53 48 48 80 73 70 
133 127 120 178 171 160 212 205 191 189 180 164 177 166 148 172 163 141 135 124 101 129 118 93 
148 137 111 146 134 108 163 151 124 192 180 152 206 193 165 221 208 181 237 224 196 248 236 208 
248 243 226 242 246 245 237 241 241 204 208 207 155 158 158 120 122 122 68 70 69 18 20 18 
40 41 39 48 48 46 63 63 60 154 154 151 193 191 188 199 196 192 183 179 176 159 154 151 
127 122 118 80 73 71 52 45 42 33 27 22 18 11 8 12 5 3 11 4 2 11 3 1 
12 3 1 11 3 1 6 1 0 9 9 2 26 30 16 74 79 61 107 109 89 136 133 112 
171 159 140 174 151 137 164 130 121 141 100 94 105 62 59 75 34 33 70 36 35 63 42 38 
69 63 53 104 111 95 117 135 113 122 149 120 119 152 118 97 132 94 69 104 63 36 69 29 
22 52 21 14 41 17 13 34 11 12 23 5 17 16 2 32 17 2 47 19 3 61 20 4 
70 21 5 79 27 13 83 31 18 81 31 22 80 36 31 77 39 37 71 39 40 67 40 42 
64 39 43 62 38 41 61 34 36 62 30 30 63 26 23 67 23 18 67 20 13 65 15 7 
55 17 13 48 18 17 48 18 16 43 16 14 38 12 9 33 6 2 34 7 3 42 11 7 
54 18 14 70 26 24 82 29 29 93 29 30 97 24 26 104 22 25 113 24 27 124 28 33 
137 36 42 152 46 54 162 56 64 165 60 68 163 60 67 152 53 57 140 45 48 126 35 37 
84 21 17 84 28 23 110 50 48 129 61 62 171 101 105 222 154 159 231 174 178 241 196 199 
249 219 219 252 239 234 252 249 242 252 252 245 251 244 241 243 223 225 232 197 205 230 172 188 
183 112 133 131 54 75 137 64 84 132 69 86 128 81 93 148 126 130 160 154 152 179 179 173 
236 224 216 250 226 221 244 207 204 225 163 166 206 128 136 186 95 106 160 62 73 144 45 55 
128 33 40 103 19 21 162 81 86 216 144 146 190 126 125 142 81 80 102 43 40 95 33 31 
96 32 30 102 34 34 112 41 43 119 47 49 125 54 56 129 60 62 174 107 109 209 152 153 
208 180 178 232 211 209 223 205 201 147 130 127 97 82 79 59 46 44 38 29 27 44 35 35 
46 38 38 36 28 28 
36 10 8 33 5 5 71 32 39 89 42 53 91 40 51 72 17 25 75 13 19 88 19 24 
97 21 22 109 26 25 120 32 31 124 34 30 127 37 30 128 40 31 124 40 30 119 40 30 
113 40 29 106 41 29 97 38 27 87 34 24 75 29 20 62 21 14 50 13 7 41 9 6 
38 8 6 51 23 20 111 88 79 142 120 110 163 141 130 181 159 149 189 168 158 188 168 159 
172 152 142 177 158 150 191 173 165 209 192 183 223 206 198 235 219 211 243 228 220 227 214 205 
211 199 190 208 195 186 222 209 200 236 223 214 244 232 223 245 232 223 235 222 212 207 194 184 
186 173 162 153 143 134 99 96 93 183 180 180 246 243 247 241 239 248 239 237 250 213 211 229 
152 151 172 117 117 140 73 73 97 10 10 33 2 2 21 0 0 14 0 0 8 11 8 11 
25 18 16 41 31 23 96 82 70 141 124 108 174 153 134 189 165 145 193 166 145 185 156 134 
181 150 127 172 143 120 156 136 111 152 130 107 150 126 105 152 123 105 149 118 102 145 112 100 
142 105 97 135 99 92 125 90 85 112 78 74 106 75 71 91 62 59 69 43 40 50 24 20 
38 11 8 32 2 1 40 4 2 48 7 5 58 10 8 67 13 11 77 16 14 87 19 17 
94 21 20 94 24 23 90 26 24 86 23 21 80 19 17 74 16 13 70 14 13 66 13 12 
62 12 10 60 12 11 57 12 11 56 12 10 54 11 7 60 17 12 73 28 21 94 48 38 
116 67 53 135 83 66 143 88 67 147 86 63 149 83 58 151 81 54 151 79 49 150 76 44 
148 72 41 146 70 48 144 68 57 137 66 55 129 68 54 122 71 55 114 73 56 103 71 53 
91 66 48 80 58 41 66 42 28 54 25 14 47 10 4 64 17 11 89 32 26 121 56 51 
145 75 68 162 88 79 166 93 81 187 118 100 213 155 131 243 205 174 246 209 173 237 201 160 
218 186 143 205 151 120 192 122 101 179 110 89 140 71 51 112 44 26 108 41 24 108 43 28 
109 46 32 110 49 36 106 48 36 98 44 32 86 35 25 134 88 79 181 139 131 218 179 172 
240 218 212 215 199 194 133 108 104 70 49 46 57 39 36 101 86 84 157 145 142 207 196 193 
249 238 237 240 243 244 237 247 248 240 248 248 237 243 243 238 241 241 242 242 243 244 241 240 
184 176 174 69 56 52 77 58 52 66 43 35 40 14 6 37 6 3 40 4 2 48 7 3 
71 26 13 100 52 32 131 81 57 135 82 56 151 96 68 174 117 87 178 121 89 190 132 99 
205 147 114 201 139 108 203 141 111 207 146 118 202 143 116 194 137 112 184 130 108 175 123 104 
165 116 100 144 98 86 69 27 23 50 9 6 58 17 13 63 22 21 64 23 24 64 21 25 
64 19 25 65 18 25 66 16 24 66 15 23 69 15 24 73 16 25 74 17 26 76 17 27 
76 18 27 73 20 26 74 25 29 79 34 37 92 53 54 65 33 32 33 9 6 22 6 2 
14 4 1 13 8 4 29 29 17 42 43 28 55 56 40 75 74 56 89 86 67 100 95 75 
105 96 76 108 96 75 107 93 71 101 87 61 105 88 62 111 93 66 119 101 73 119 100 71 
104 85 57 64 45 24 61 41 21 65 46 24 73 53 28 74 54 26 74 55 23 73 54 19 
76 57 20 81 61 22 88 67 25 106 86 40 117 96 49 115 93 48 112 90 46 106 84 43 
98 76 37 92 69 34 92 69 37 98 76 47 109 87 61 117 95 72 119 97 77 206 191 174 
230 222 213 183 181 188 63 61 68 4 2 7 9 5 10 18 13 15 22 17 17 24 18 16 
106 99 92 171 164 154 221 213 199 209 200 184 198 188 169 185 175 154 145 135 111 133 122 97 
143 130 105 140 128 102 154 142 115 181 168 141 200 186 159 216 202 175 230 216 189 246 234 207 
249 243 227 243 246 245 237 240 239 196 199 198 136 138 138 90 91 90 48 50 48 19 20 18 
44 45 43 52 52 49 68 67 63 173 172 168 214 213 209 217 215 210 195 192 188 161 157 153 
118 115 111 69 63 60 38 33 28 19 13 9 9 4 2 7 1 0 8 2 1 9 3 1 
10 3 1 10 2 0 6 0 0 9 7 2 26 27 16 81 84 68 116 117 98 145 140 120 
175 162 143 171 147 133 152 117 108 117 76 69 87 44 40 66 25 23 63 29 28 61 41 36 
71 65 55 106 112 96 120 137 114 124 151 121 117 150 116 98 132 94 73 106 66 42 75 34 
25 52 20 14 37 11 13 30 5 15 20 2 23 15 2 40 17 3 55 18 4 68 19 5 
78 20 6 88 26 14 94 31 20 94 33 24 96 41 36 95 46 45 89 47 48 81 45 47 
76 45 47 74 46 47 72 43 42 71 40 36 70 36 28 69 31 22 68 26 16 65 22 10 
58 21 17 55 22 22 56 24 24 49 21 20 42 16 13 33 7 4 33 8 3 39 13 8 
52 22 17 66 30 26 78 34 32 88 34 34 91 27 28 96 23 25 103 23 26 117 29 34 
131 36 43 144 44 52 156 53 61 160 56 64 157 54 62 142 43 48 129 33 36 116 25 26 
85 18 16 89 29 27 116 51 51 137 63 67 176 99 106 222 146 155 230 163 172 238 185 191 
247 209 212 251 232 231 253 246 242 254 251 246 253 245 243 245 225 228 235 201 209 233 179 194 
170 103 122 98 26 44 103 34 52 96 36 51 94 48 60 135 112 116 158 148 147 181 179 174 
237 229 221 251 233 227 245 212 210 226 166 170 206 129 138 184 95 106 155 60 70 137 42 51 
121 30 37 98 19 21 160 84 88 215 146 148 184 124 123 132 75 73 92 35 33 89 30 28 
92 30 29 98 33 32 107 38 39 114 45 46 122 54 55 131 65 66 179 113 114 214 159 159 
213 185 183 234 213 211 223 205 202 149 132 129 99 84 82 63 51 49 44 35 33 49 41 40 
48 41 41 36 28 29 
34 9 7 31 5 5 71 32 39 90 43 53 92 41 50 73 17 23 76 13 17 90 20 22 
99 22 22 111 28 26 122 35 32 125 37 31 128 39 32 130 42 32 126 44 31 120 43 30 
114 42 29 106 42 29 96 39 25 84 34 21 74 30 17 65 25 15 53 19 12 32 6 3 
25 2 1 40 19 16 110 88 79 143 121 111 161 140 129 176 154 144 188 167 156 193 171 161 
177 155 145 187 166 157 204 185 175 219 200 190 233 214 205 243 224 215 240 222 212 226 209 199 
214 197 187 213 196 186 227 210 200 241 224 214 249 231 221 248 231 221 237 220 209 209 192 180 
189 172 160 155 142 133 94 90 89 176 173 176 239 237 243 236 234 245 232 229 246 206 204 224 
146 145 169 110 110 135 67 67 93 8 8 34 2 1 24 1 0 18 1 0 10 6 1 6 
17 9 9 37 27 20 97 82 72 145 126 112 176 155 137 191 165 147 194 166 146 186 156 136 
182 150 129 173 144 122 159 140 114 153 133 109 150 128 106 148 123 104 144 116 100 140 110 96 
135 104 94 129 98 90 118 88 81 104 75 69 101 74 70 85 61 58 60 39 34 46 25 20 
34 13 9 26 2 1 32 2 1 39 4 2 48 6 3 58 10 6 69 15 11 80 20 16 
91 26 24 94 29 27 90 30 27 85 26 23 78 22 19 72 17 14 67 15 13 63 14 11 
59 12 9 57 12 9 54 12 9 52 11 8 52 12 7 58 17 11 70 27 19 93 47 37 
115 67 53 135 83 66 145 89 68 149 88 65 152 86 60 153 84 56 154 82 52 153 79 47 
151 75 43 149 72 50 146 70 59 140 68 57 131 69 55 121 70 54 113 71 55 103 70 53 
92 66 49 80 57 40 64 39 24 50 20 9 44 7 3 64 17 12 92 35 28 124 58 52 
142 72 64 156 82 72 162 88 75 180 111 92 206 149 123 242 207 177 247 211 175 241 202 162 
224 189 147 211 152 124 196 118 101 175 98 80 140 65 47 116 42 26 111 39 23 113 42 28 
113 44 31 108 42 30 103 41 29 96 37 27 85 31 22 131 81 73 175 129 122 208 167 161 
236 213 207 215 199 193 132 108 102 72 51 46 65 47 43 119 105 102 162 150 147 203 193 189 
244 235 231 238 241 246 237 247 253 242 250 254 242 249 253 244 247 253 246 246 253 246 243 248 
183 177 179 65 55 56 63 48 46 47 29 27 20 2 1 23 2 1 32 5 1 46 13 3 
65 29 14 97 58 40 137 96 74 126 84 59 134 90 63 154 109 80 156 110 79 171 124 92 
191 143 112 186 133 104 191 136 110 200 147 120 192 139 115 184 132 111 175 126 108 166 119 103 
153 107 94 129 86 77 60 24 21 44 7 5 55 14 11 62 20 20 64 21 24 65 20 25 
65 19 24 66 18 24 68 17 24 69 17 24 71 17 24 73 17 24 74 17 24 75 17 24 
75 17 24 73 20 25 73 24 28 76 32 34 88 49 50 65 32 31 36 11 8 24 7 2 
13 4 1 9 5 2 18 18 7 29 30 16 44 46 31 74 73 57 93 91 73 105 100 81 
104 95 77 106 95 75 106 94 72 102 88 65 106 91 67 111 95 69 114 98 70 113 96 68 
98 81 55 62 44 23 59 40 19 62 43 21 69 49 25 72 53 26 74 54 24 72 52 19 
75 55 19 79 58 19 83 62 22 105 84 39 116 95 49 111 89 44 105 83 40 98 75 35 
89 66 29 85 62 28 88 65 33 98 75 46 108 86 60 114 93 70 116 93 74 205 191 174 
225 218 209 167 164 171 58 56 60 4 1 5 6 2 6 9 4 6 9 4 4 8 3 3 
101 96 89 174 168 157 227 220 206 222 213 197 199 189 171 162 152 130 132 121 98 126 114 91 
139 127 103 147 134 109 165 151 125 189 175 148 209 194 167 220 205 178 227 212 185 245 232 206 
247 240 224 238 240 239 243 245 244 209 211 210 151 152 151 99 99 97 65 65 64 49 49 47 
63 63 61 58 57 55 62 61 57 169 169 165 215 213 209 221 219 214 193 190 186 153 151 146 
109 106 102 66 62 58 34 30 25 11 7 2 8 3 1 10 5 1 14 8 3 16 10 5 
13 6 3 9 1 0 7 0 0 4 2 0 19 20 15 87 88 74 124 122 104 152 145 126 
184 169 151 178 152 139 157 120 112 121 79 73 89 45 41 66 24 22 63 29 26 63 43 37 
75 68 58 107 112 96 120 136 114 123 148 119 113 143 109 95 126 89 72 103 64 43 74 34 
26 50 17 17 33 5 18 28 3 24 22 2 36 20 3 54 23 4 65 19 5 74 15 5 
79 13 6 87 17 8 94 21 12 97 26 18 103 37 32 105 45 44 100 48 49 86 42 43 
79 42 43 82 50 49 79 48 44 76 45 38 73 41 31 67 34 21 64 29 15 64 28 13 
60 24 19 60 25 26 65 31 33 56 27 26 46 19 17 33 9 6 30 8 3 35 13 8 
48 23 18 59 30 26 70 34 31 80 36 34 83 29 29 87 24 25 91 21 24 108 28 32 
122 35 41 136 43 51 149 52 60 155 56 64 153 53 61 133 35 41 117 25 26 104 18 16 
86 16 15 95 28 28 122 49 52 144 62 70 181 95 106 222 137 150 229 153 165 237 175 185 
246 201 208 250 228 230 253 243 243 254 250 249 253 246 246 249 232 235 244 214 221 241 193 206 
168 109 125 85 21 36 88 26 41 84 30 43 90 47 58 139 118 120 162 154 152 184 182 177 
238 232 225 252 236 231 245 215 213 225 167 170 203 128 135 178 92 102 148 56 66 131 40 48 
117 30 36 99 22 24 156 84 87 205 142 142 174 119 117 125 72 68 87 34 30 88 31 29 
93 33 31 99 36 35 107 41 41 115 48 49 124 58 58 136 71 72 179 116 116 210 157 157 
208 180 178 234 219 217 224 215 212 145 129 126 98 84 81 64 53 50 41 33 31 44 37 35 
44 37 36 33 27 26 
34 9 7 33 5 5 74 34 40 92 45 53 94 42 50 75 18 23 77 14 17 91 21 22 
101 24 23 113 30 27 125 37 32 127 39 32 129 42 32 130 45 32 128 47 32 123 48 32 
117 48 31 108 46 29 98 44 27 88 42 25 83 42 27 90 53 39 100 67 55 106 79 71 
113 89 82 129 107 99 171 150 140 192 171 160 203 182 171 209 188 177 216 194 184 214 193 183 
191 170 159 191 170 160 196 175 165 197 176 166 201 180 169 206 185 174 210 190 179 204 184 172 
199 179 167 204 183 172 221 199 188 236 215 204 245 223 212 247 224 214 239 216 205 215 192 181 
198 176 164 167 150 141 109 105 106 183 181 185 240 238 245 237 235 247 229 227 244 202 199 221 
142 142 167 104 103 130 60 60 88 7 7 35 2 1 25 1 0 19 1 0 11 7 2 8 
25 16 17 55 43 38 119 103 94 165 145 133 187 164 148 197 170 153 197 167 149 187 155 136 
182 148 129 173 144 123 159 142 117 153 134 111 148 127 106 145 122 103 141 116 100 137 111 97 
133 105 94 125 97 89 109 84 76 89 66 59 82 61 56 67 49 43 46 31 24 35 20 13 
25 10 5 18 1 0 23 1 1 31 4 1 42 8 2 51 12 5 61 16 9 72 21 15 
88 32 27 97 41 36 101 46 41 96 42 39 90 38 34 82 32 28 74 26 23 66 21 18 
60 18 14 54 14 10 50 11 7 48 9 5 47 8 4 53 14 8 66 24 17 89 45 34 
113 65 51 134 83 65 145 89 68 150 90 66 154 88 62 156 87 59 157 85 55 157 83 51 
155 79 47 152 75 53 149 72 60 141 69 57 130 67 53 119 66 50 110 66 50 101 66 49 
91 63 46 79 53 37 64 36 22 50 19 8 46 7 3 63 15 10 86 28 22 111 45 39 
123 52 44 129 55 45 129 55 42 131 61 44 146 84 62 189 141 111 195 150 114 191 148 109 
181 142 100 200 135 108 211 127 110 198 114 99 180 98 82 162 82 66 146 68 53 131 55 41 
117 43 31 104 34 23 94 28 18 85 24 15 76 19 12 97 44 36 126 78 70 162 119 113 
216 185 178 212 186 179 133 107 101 94 72 66 110 92 87 190 175 171 209 196 191 227 218 213 
249 243 238 223 227 234 209 218 231 210 217 229 211 217 228 217 221 232 229 230 241 242 240 248 
219 214 220 164 156 161 172 163 165 170 161 160 155 146 145 88 72 69 57 36 29 56 30 20 
61 34 20 77 48 31 100 68 48 90 58 36 89 56 32 94 60 35 98 64 37 108 74 45 
120 85 56 124 81 56 137 91 67 152 107 84 156 111 90 155 111 92 152 108 93 148 105 93 
139 96 87 121 79 72 70 31 29 52 13 12 52 10 10 59 15 17 61 17 21 63 17 22 
65 18 23 67 18 24 70 19 24 72 19 25 74 19 25 75 18 24 75 18 23 75 18 22 
75 18 22 74 20 25 73 23 28 74 28 32 82 42 44 61 28 29 36 10 9 22 6 2 
12 3 0 7 3 1 10 10 3 16 17 7 24 25 13 31 32 23 50 48 36 66 63 46 
72 66 48 92 83 64 107 96 75 105 92 71 113 98 76 120 105 81 123 108 82 119 104 78 
102 87 62 65 48 29 60 42 22 63 44 23 69 50 27 72 52 27 73 53 24 72 52 20 
73 52 17 75 53 16 78 56 17 98 75 33 108 84 41 100 77 34 93 69 29 87 63 25 
82 58 22 83 59 26 89 65 34 100 76 48 110 87 61 116 93 71 117 95 76 205 191 173 
227 219 209 174 170 175 75 72 75 21 18 19 15 11 12 12 8 7 9 4 3 7 2 2 
110 104 97 188 181 170 242 235 221 239 229 214 230 220 202 214 206 185 180 169 147 160 148 125 
151 138 114 144 129 106 144 129 105 152 136 111 172 155 130 187 170 145 201 183 158 236 220 195 
243 233 218 232 233 232 239 240 238 199 199 198 129 129 128 60 60 57 29 28 26 21 21 20 
28 28 25 28 27 23 41 41 36 155 154 150 212 211 207 232 231 226 210 209 204 178 177 171 
137 136 130 79 77 71 38 35 29 9 6 1 6 2 0 6 2 1 8 4 1 10 6 2 
11 4 1 12 1 0 12 2 1 18 12 8 38 37 28 94 93 79 120 115 98 125 115 98 
102 84 71 94 65 57 90 51 47 85 41 36 75 30 27 65 24 21 62 28 25 64 44 37 
76 70 58 105 110 93 117 133 109 118 141 112 102 129 96 84 112 76 63 90 52 35 62 24 
26 42 11 24 29 4 30 28 4 45 31 7 65 38 15 91 49 26 110 54 35 126 58 42 
138 60 48 145 62 52 152 67 58 157 74 68 156 79 76 154 84 83 151 90 91 128 76 76 
112 69 68 109 72 70 97 64 58 87 57 48 80 52 40 71 42 27 65 36 19 64 35 17 
64 28 23 69 31 34 82 45 49 71 39 41 55 28 27 35 11 9 27 7 4 27 8 4 
35 15 10 46 23 18 57 29 25 68 33 30 80 37 36 84 32 33 83 23 25 97 28 31 
110 33 38 121 38 44 136 48 55 145 53 61 148 52 61 125 31 37 108 21 21 97 15 11 
89 15 15 102 27 30 129 47 54 150 58 70 182 86 101 218 121 139 226 138 155 235 160 175 
244 187 198 249 218 224 252 237 240 253 246 247 252 242 243 241 225 227 224 199 204 206 165 176 
145 96 109 87 33 46 117 66 79 145 101 111 172 139 146 202 186 187 202 197 194 201 201 195 
242 233 227 251 232 228 244 211 211 220 161 165 194 120 128 168 84 94 138 50 59 123 36 43 
113 29 35 101 27 31 138 71 74 170 111 111 152 100 97 118 68 65 92 41 37 91 37 34 
96 38 36 103 42 40 112 48 47 123 57 56 133 68 67 143 80 79 172 112 110 196 145 143 
201 173 171 228 208 205 221 203 201 149 131 128 97 83 80 59 48 45 37 29 27 38 32 30 
37 32 30 30 25 24 
37 10 8 36 7 6 76 35 40 94 46 53 95 43 50 77 19 23 79 15 17 92 22 22 
102 25 23 115 32 28 126 40 33 129 41 31 130 44 31 131 47 32 131 51 34 127 53 34 
120 53 33 109 49 30 100 49 29 94 50 30 94 55 37 112 78 60 138 108 91 161 134 120 
178 152 140 194 170 158 213 194 182 224 205 194 230 210 199 232 212 201 236 215 204 232 211 200 
208 186 175 200 178 167 196 173 162 186 163 152 180 157 146 180 157 145 188 164 152 185 162 149 
184 160 148 192 167 155 209 184 172 226 200 188 238 212 200 243 217 205 239 212 201 220 194 182 
206 179 167 179 159 150 130 126 128 191 189 194 239 237 245 239 237 249 229 226 244 198 196 219 
138 138 163 95 95 123 52 51 80 6 5 33 2 1 25 1 0 18 1 0 11 8 3 9 
28 18 20 63 50 46 134 117 109 181 160 149 196 173 158 203 175 159 201 169 152 189 155 137 
184 148 130 174 143 124 160 142 118 152 134 111 148 128 107 145 123 104 141 118 102 136 113 99 
131 106 95 120 97 87 100 79 71 72 54 46 63 48 40 50 36 29 32 22 14 23 13 6 
16 6 2 12 1 0 19 3 1 29 8 3 42 16 8 52 21 12 63 25 16 74 31 22 
92 45 36 104 56 48 112 63 57 109 61 55 103 56 51 95 50 44 85 42 37 74 34 29 
64 26 20 54 18 13 48 12 7 43 7 3 41 5 2 49 12 6 63 23 15 86 43 32 
110 64 50 133 82 64 144 89 68 151 90 67 155 89 64 158 89 61 160 88 58 160 86 54 
159 83 51 156 78 55 151 74 61 142 70 57 129 65 51 116 61 46 107 61 44 99 62 45 
92 61 44 81 53 37 67 37 23 54 21 10 51 12 5 65 16 10 84 26 19 105 39 33 
112 42 34 114 40 30 109 35 22 104 33 18 113 48 28 154 95 66 162 110 75 161 115 76 
159 116 75 195 127 99 221 133 116 215 128 112 208 122 106 196 112 96 176 94 78 152 72 58 
129 52 39 106 33 22 93 25 15 83 19 9 73 15 5 73 19 11 90 41 33 131 88 80 
203 165 157 211 178 170 135 108 100 110 87 80 143 124 117 240 225 218 241 230 222 244 235 227 
252 246 238 205 208 217 178 186 203 173 179 197 176 181 197 188 191 206 209 210 224 227 226 236 
236 232 240 237 231 238 246 240 244 250 245 246 245 240 238 134 122 117 78 62 54 69 50 40 
75 56 42 83 63 46 91 69 51 91 68 48 80 57 35 63 39 18 68 45 21 69 46 20 
68 43 18 78 44 22 93 55 34 109 71 51 123 85 67 127 88 73 124 86 74 125 86 77 
120 80 73 107 67 63 74 34 33 57 16 17 51 8 10 56 12 15 59 13 18 61 15 20 
65 16 22 69 18 24 72 20 25 75 21 26 76 21 25 77 20 24 76 19 22 76 19 20 
76 19 20 76 22 27 75 24 30 76 28 33 79 39 42 60 27 28 36 11 10 21 5 2 
13 3 0 8 3 0 5 4 0 7 8 1 8 10 1 4 5 1 19 19 9 36 33 19 
48 43 26 76 69 51 99 89 70 103 91 71 115 102 81 125 112 90 130 116 93 125 112 87 
107 94 70 70 54 35 63 46 27 64 46 26 69 50 28 72 52 27 73 53 24 72 52 20 
72 51 17 74 51 15 77 53 16 93 69 29 100 76 34 90 66 25 83 58 20 78 53 17 
77 52 18 83 58 25 91 66 36 103 79 51 112 88 63 118 94 72 119 97 78 205 188 171 
229 218 208 183 179 181 105 102 103 57 53 52 38 34 33 31 27 24 28 24 20 30 25 22 
131 125 117 204 198 186 252 245 231 250 241 225 247 238 220 242 233 213 210 199 177 185 172 149 
164 151 128 149 133 111 138 121 98 131 113 90 150 131 108 164 145 122 180 160 137 229 209 186 
241 230 215 233 233 230 240 240 238 195 195 193 117 117 114 38 36 34 7 6 4 7 6 4 
11 10 7 18 17 13 42 41 37 153 152 148 213 213 208 239 238 233 222 222 217 198 197 192 
162 162 154 90 88 82 41 40 33 9 8 2 4 2 0 3 1 0 4 2 0 7 5 0 
13 4 2 18 4 4 22 10 7 38 30 24 64 60 49 102 98 84 117 109 93 106 93 77 
46 25 16 39 7 2 48 7 4 59 14 9 63 18 15 64 22 20 60 26 23 65 45 38 
79 73 60 104 109 91 114 129 105 112 133 104 90 114 82 73 97 62 54 77 41 28 49 15 
26 33 6 33 25 3 43 29 4 67 41 15 93 56 27 122 71 45 146 81 58 166 89 69 
181 96 79 188 98 85 195 102 94 201 111 105 195 112 109 190 114 113 186 119 119 156 99 99 
134 86 85 126 86 82 109 75 68 96 67 55 86 61 47 73 48 31 65 41 22 64 41 20 
67 32 28 78 37 42 96 58 64 84 51 54 63 36 37 36 12 11 26 6 5 23 5 2 
25 8 4 35 17 12 46 25 20 59 31 27 82 47 46 87 45 45 79 28 29 90 30 33 
99 31 36 106 33 39 123 43 50 134 50 58 141 52 61 116 29 35 101 19 19 93 14 11 
92 15 16 108 27 32 135 46 56 157 57 72 185 80 99 215 109 130 223 125 147 232 147 166 
241 173 189 247 207 217 250 229 234 252 240 242 247 236 236 228 214 215 202 183 186 174 143 151 
133 96 105 104 63 73 147 108 117 189 157 163 224 201 204 234 225 223 223 224 219 215 217 211 
243 230 225 250 224 222 242 204 204 215 155 160 189 115 124 162 79 90 132 46 56 117 33 41 
109 28 35 101 30 34 118 54 57 134 78 78 126 77 74 108 61 57 93 45 41 93 41 37 
98 43 40 106 47 45 117 54 52 131 66 65 142 78 77 148 88 85 168 109 106 187 136 133 
199 170 167 225 201 198 221 198 195 156 137 134 99 84 81 55 44 41 32 24 21 32 26 23 
31 27 25 27 22 21 
41 13 11 39 10 9 79 38 41 96 48 53 97 44 49 77 20 21 80 17 16 93 23 21 
104 27 23 116 34 28 127 43 33 130 44 31 131 45 31 132 49 32 136 58 38 132 60 39 
123 58 36 109 52 30 103 54 31 101 59 36 103 66 45 126 95 74 155 127 108 173 147 130 
188 164 148 202 180 165 217 200 187 223 207 194 228 210 198 233 215 203 239 221 208 240 221 207 
225 205 191 217 195 182 209 186 173 197 174 161 186 163 150 179 155 142 179 154 140 173 148 134 
170 144 130 175 149 135 191 163 150 209 180 167 226 197 184 237 208 195 239 209 196 224 195 182 
211 182 169 191 168 159 156 152 154 199 197 202 235 233 241 241 239 251 229 227 245 196 194 217 
131 131 156 83 83 111 41 40 69 3 3 28 0 0 21 1 0 16 2 0 10 6 0 6 
22 12 13 53 38 35 135 116 108 188 165 154 203 178 164 208 180 163 205 172 155 192 156 138 
187 149 131 176 144 124 160 141 117 153 133 111 148 128 108 147 126 108 144 123 107 138 117 102 
129 108 95 116 96 85 91 73 63 55 41 32 47 34 26 34 25 16 19 12 3 12 6 1 
8 2 0 8 1 0 20 8 1 35 19 9 53 32 21 64 40 28 78 48 36 92 57 45 
106 68 56 116 75 65 122 79 71 122 78 71 117 75 68 110 69 63 101 63 57 87 51 45 
72 36 30 59 25 20 48 15 10 39 6 2 37 3 1 45 10 5 61 22 14 85 42 31 
109 63 49 132 81 64 143 88 67 150 89 66 155 89 64 159 90 62 163 90 60 164 89 57 
162 86 54 158 80 58 152 75 62 143 70 58 129 64 50 114 58 42 104 56 40 99 59 43 
95 61 45 88 57 41 74 42 27 62 27 15 61 20 9 71 21 13 87 29 21 111 46 38 
118 49 39 119 46 34 113 38 24 117 46 27 130 63 39 156 95 66 167 112 78 174 124 86 
179 132 92 205 134 106 222 134 115 218 130 112 211 125 106 202 117 99 190 107 89 176 95 78 
153 76 60 118 45 30 105 36 22 92 28 16 79 20 7 68 14 5 82 32 25 129 85 74 
203 165 154 213 180 169 140 112 102 115 91 81 148 130 120 248 236 226 246 235 225 244 234 223 
246 237 226 185 186 194 147 153 171 136 141 158 142 145 161 160 162 177 189 191 204 197 196 209 
219 216 225 252 248 253 242 236 241 239 231 234 237 228 227 136 126 122 88 76 70 86 72 64 
118 104 92 132 119 104 135 121 105 153 138 120 130 116 96 84 70 48 87 73 50 72 58 36 
50 35 14 62 37 18 71 41 24 80 49 33 98 67 53 100 68 57 94 61 51 95 60 53 
92 56 51 85 47 46 67 27 28 56 15 18 50 8 12 54 10 14 57 11 16 61 13 18 
66 16 21 71 19 23 75 21 26 78 22 26 79 23 24 79 22 22 78 20 19 78 19 18 
79 20 20 80 25 30 81 29 36 81 34 40 82 41 46 62 28 30 38 12 12 22 4 3 
15 5 1 10 6 1 3 4 0 1 3 0 3 5 0 9 10 1 17 17 6 27 25 12 
38 33 19 58 53 36 78 71 53 92 81 64 109 97 79 124 111 92 132 120 99 130 118 96 
114 101 79 76 60 42 68 51 33 66 49 30 68 51 30 71 52 28 72 52 24 71 51 20 
73 51 18 77 53 18 81 57 19 93 68 28 95 70 29 82 58 19 75 50 13 72 46 12 
74 49 16 84 57 26 94 68 39 106 81 55 115 90 67 120 96 75 121 99 80 205 182 165 
230 214 202 191 187 187 154 150 149 118 114 111 82 78 75 73 68 64 75 69 63 87 81 73 
168 162 152 223 217 205 253 248 234 253 245 229 240 231 213 217 208 188 201 189 168 187 174 153 
176 162 140 170 154 132 158 140 118 143 124 102 156 136 114 163 142 120 170 150 127 225 203 182 
245 231 218 243 243 239 251 250 247 206 205 202 128 127 124 49 46 43 19 17 14 20 19 15 
29 28 24 45 44 39 77 76 71 173 172 167 220 220 215 237 236 231 224 224 219 206 205 200 
174 174 166 94 94 87 43 43 36 11 11 5 3 3 1 3 3 0 6 5 0 10 8 1 
19 10 6 30 13 14 39 24 22 66 56 50 96 89 79 110 103 90 117 107 92 105 89 75 
44 20 15 42 7 2 53 9 3 53 6 3 57 12 9 61 18 16 59 24 22 68 47 40 
83 76 64 105 109 91 112 125 101 106 125 96 78 99 66 63 83 48 47 65 31 23 39 9 
29 25 3 44 20 3 57 29 5 89 51 25 119 70 42 141 82 56 159 87 65 176 93 74 
190 100 85 197 102 91 203 107 99 208 114 110 206 119 116 200 122 120 191 121 120 160 99 98 
136 85 82 124 83 77 111 77 68 99 70 59 88 64 50 71 50 32 63 43 23 65 46 25 
71 36 33 85 42 49 107 66 73 93 58 63 69 40 43 36 12 13 28 7 6 23 5 3 
22 6 2 30 14 9 41 22 18 55 31 28 90 61 59 97 62 61 81 39 40 88 37 40 
91 33 37 92 29 34 108 39 45 122 48 55 131 53 62 109 31 37 97 19 23 93 14 18 
95 15 20 114 27 36 142 47 60 165 61 79 191 81 103 215 103 128 221 117 142 229 137 160 
238 162 182 244 196 209 249 218 226 249 231 234 237 225 226 211 202 201 180 170 170 156 137 140 
143 120 124 142 116 121 169 144 148 194 174 176 212 200 199 207 207 202 210 218 210 220 226 217 
243 220 216 248 211 210 240 193 195 214 151 157 189 115 124 162 81 92 129 46 56 115 34 43 
106 29 36 94 26 30 94 35 36 97 45 44 97 51 48 90 46 42 87 42 37 94 43 39 
101 46 43 110 51 48 122 59 57 139 75 73 152 88 87 153 92 89 169 110 107 187 136 133 
203 173 170 231 206 203 228 206 202 168 149 144 106 90 86 56 43 39 25 17 13 26 20 16 
27 23 20 23 19 16 
44 16 15 43 13 12 81 38 41 98 48 52 98 44 48 78 20 20 80 17 15 95 24 21 
105 29 23 118 37 28 129 45 33 132 47 32 133 49 32 133 52 32 136 60 38 131 61 37 
120 58 33 110 55 29 108 60 34 111 70 44 119 84 59 145 116 92 175 150 127 190 166 145 
202 180 160 215 195 177 233 219 204 237 224 210 238 224 211 244 231 217 247 234 219 247 233 218 
241 223 208 231 211 196 220 198 183 209 187 171 196 173 158 185 161 146 179 154 138 167 141 125 
157 130 114 153 126 109 156 128 112 172 142 127 209 179 165 227 197 184 235 204 191 228 198 184 
218 188 174 200 176 166 171 166 165 205 203 206 236 234 240 244 243 252 239 237 250 205 203 221 
129 129 152 86 86 111 48 47 74 12 11 35 8 6 26 7 5 21 9 5 15 9 2 7 
26 16 15 66 51 46 141 121 112 189 166 153 205 179 163 209 179 161 205 171 151 191 155 135 
187 148 128 177 143 123 160 138 117 153 132 111 150 128 109 149 128 110 144 123 107 136 116 102 
126 106 94 105 87 77 77 61 53 44 31 23 33 23 15 23 15 7 13 7 1 8 3 0 
7 2 0 10 4 1 26 16 7 48 35 23 75 59 45 87 67 53 95 71 57 101 73 60 
111 81 67 116 83 70 118 81 71 119 81 73 118 81 72 114 79 70 107 73 66 97 64 57 
84 52 45 67 37 31 53 23 17 42 11 6 36 4 2 44 10 6 62 23 15 85 43 31 
109 63 49 131 81 63 142 87 66 149 88 65 154 88 63 159 90 62 163 90 60 165 90 58 
164 87 55 159 80 58 152 74 60 143 70 56 129 63 48 115 56 41 106 56 40 103 61 44 
101 65 48 95 63 46 82 48 34 70 33 21 68 26 15 77 27 18 93 35 27 117 53 44 
125 55 46 128 54 43 129 54 40 132 60 40 140 72 48 162 98 69 171 113 79 179 126 88 
188 138 98 209 140 109 223 140 116 221 139 115 216 134 111 209 129 106 200 121 99 190 113 92 
169 95 74 132 61 42 115 48 30 97 35 20 77 19 7 66 14 4 76 28 20 115 71 57 
175 137 122 190 157 142 146 118 104 125 101 86 151 131 116 231 216 202 238 224 210 243 232 217 
250 241 227 148 148 151 83 87 100 58 62 75 58 60 72 82 82 94 129 129 139 143 141 150 
184 181 187 248 244 248 242 236 238 240 232 233 237 229 227 155 146 142 121 112 105 129 119 111 
169 159 149 193 183 171 204 194 181 215 206 192 181 173 158 120 112 95 100 92 74 64 56 41 
23 14 5 32 15 7 40 18 10 47 23 13 54 29 21 58 31 24 60 31 24 62 31 27 
64 31 29 63 28 28 55 18 21 51 12 17 50 8 15 55 10 17 59 12 18 63 14 20 
68 16 21 72 19 23 76 21 25 79 23 24 80 23 23 82 23 21 81 22 19 81 21 18 
81 22 20 82 26 32 85 32 40 88 39 46 87 46 51 65 32 34 39 13 14 21 4 3 
17 7 3 15 10 5 6 6 1 2 5 0 2 6 0 6 10 1 11 13 3 17 16 5 
23 21 8 36 32 18 51 45 29 67 59 43 88 80 62 108 99 80 123 114 95 122 114 94 
108 98 79 74 59 43 67 50 33 66 49 30 67 50 29 68 49 26 69 49 23 71 50 21 
76 54 22 82 58 23 88 63 25 103 78 38 106 80 40 89 64 25 78 52 16 73 47 13 
77 50 17 86 60 28 96 70 41 104 79 53 113 88 65 118 95 74 120 97 78 191 168 152 
222 205 193 206 201 198 188 184 179 164 159 154 132 127 121 118 112 105 117 111 102 128 122 113 
182 175 165 221 214 202 246 239 224 243 234 218 235 226 208 224 215 195 215 203 182 204 190 169 
191 177 156 185 168 147 166 148 127 141 121 100 149 129 108 152 131 110 157 135 114 217 194 174 
238 223 210 234 232 228 243 241 237 196 194 190 116 114 110 45 42 38 26 24 19 39 37 31 
53 51 45 77 76 70 114 112 107 187 185 179 223 221 216 236 234 228 227 225 220 215 214 207 
186 186 178 96 96 87 43 43 34 11 11 4 3 3 1 2 2 0 4 4 0 9 8 1 
24 14 11 42 23 25 54 38 37 85 73 68 111 102 92 98 87 75 95 81 67 87 67 53 
52 25 15 51 14 5 58 13 5 61 12 8 62 14 11 62 17 15 61 24 21 71 48 40 
84 75 63 99 101 83 102 111 89 92 107 79 61 77 46 53 67 34 45 56 24 28 37 7 
43 26 4 63 23 5 76 32 8 103 52 26 127 68 42 143 75 53 159 82 62 175 91 74 
194 104 90 204 112 101 213 119 112 220 129 125 218 134 131 212 136 134 203 134 134 171 111 110 
146 94 91 129 86 81 113 77 69 99 70 59 89 65 51 71 49 33 62 42 24 64 46 26 
71 36 35 87 45 54 114 73 81 105 69 75 84 52 57 52 25 28 41 16 18 32 10 11 
27 8 6 32 14 12 42 22 20 56 33 31 90 63 62 95 64 63 77 41 42 84 42 44 
85 37 40 81 29 33 94 38 42 108 48 52 118 56 62 97 33 38 88 23 27 88 20 25 
94 17 23 113 26 37 141 45 61 165 59 80 189 78 102 211 99 126 219 113 140 224 130 155 
229 152 173 242 191 205 245 213 221 240 221 225 220 213 213 183 180 178 140 139 136 116 110 108 
129 120 119 161 150 150 199 189 188 223 216 213 230 229 224 201 210 201 194 210 198 201 212 201 
228 199 195 235 190 190 229 176 179 206 140 148 189 114 125 168 87 99 131 48 60 116 36 46 
105 31 39 89 26 29 82 26 27 79 29 29 81 37 35 80 37 34 83 37 33 93 41 39 
101 45 43 111 50 48 125 60 59 142 76 75 154 88 86 151 89 86 172 112 108 191 140 136 
202 172 169 230 204 201 226 202 199 161 142 137 97 80 76 46 33 29 18 10 6 23 17 14 
26 22 19 21 17 15 
48 19 17 46 15 14 82 39 41 98 48 50 98 44 46 78 19 18 81 17 14 96 25 20 
107 30 23 120 39 28 131 48 34 134 49 33 134 52 32 134 54 33 135 61 36 128 60 34 
118 57 30 108 55 27 116 70 40 130 91 62 144 110 83 167 139 112 192 167 141 204 181 157 
214 193 170 225 207 186 244 233 217 246 236 221 244 234 219 251 243 227 253 243 226 252 240 223 
250 236 219 239 222 205 227 208 190 220 199 181 207 184 166 193 170 152 185 161 142 167 141 123 
148 122 104 135 107 89 130 101 84 142 112 96 184 154 139 210 179 164 225 194 179 227 197 182 
221 190 175 205 182 169 178 173 169 208 206 205 236 234 237 247 245 252 243 241 252 210 208 223 
134 133 153 95 95 117 61 60 83 27 26 47 21 19 37 21 18 32 27 22 31 34 27 30 
57 46 44 100 85 77 155 136 124 192 169 153 208 181 162 209 179 157 203 169 147 190 152 130 
185 146 124 175 140 120 159 136 116 154 130 111 150 127 110 150 128 111 142 121 106 131 111 98 
117 99 87 91 74 65 62 49 40 33 23 15 21 14 6 14 8 2 11 6 1 7 3 0 
7 3 0 13 7 1 31 23 12 59 48 35 92 79 63 100 84 69 104 85 69 105 83 67 
111 87 71 112 84 70 110 78 66 112 79 69 113 81 72 114 83 73 110 80 72 103 74 66 
93 64 56 76 48 41 60 31 25 46 16 10 36 6 3 45 11 6 63 24 16 86 44 32 
109 63 49 131 80 63 142 86 66 149 88 64 154 87 62 159 89 61 163 90 60 166 90 58 
165 87 55 159 80 57 151 72 58 143 69 54 129 62 47 116 56 40 109 56 40 108 62 46 
106 68 52 102 66 51 89 52 38 77 38 26 75 31 20 84 33 24 101 43 35 129 66 57 
141 71 61 149 76 63 158 84 68 159 87 66 163 94 69 178 113 83 184 124 90 189 134 96 
198 145 105 214 147 113 225 148 118 223 148 119 220 145 116 215 141 113 210 136 108 201 130 103 
183 114 89 151 85 60 136 73 50 120 60 39 98 42 26 89 38 25 94 47 33 114 71 53 
153 115 96 171 138 119 161 133 114 144 120 101 158 137 118 208 190 171 214 198 179 220 207 189 
229 219 200 111 109 107 36 38 45 8 9 17 6 6 12 40 39 44 107 106 110 126 122 125 
174 169 171 247 243 244 234 229 227 223 215 213 209 201 198 159 151 145 140 131 124 147 139 130 
173 165 156 199 191 181 223 216 205 234 229 219 212 207 196 166 161 148 137 133 120 96 91 83 
51 46 44 55 44 41 47 32 28 34 15 10 31 12 7 35 13 9 41 17 13 44 17 16 
46 16 17 47 15 17 47 12 17 49 11 17 52 10 18 57 13 20 61 14 21 65 15 22 
70 17 23 74 19 24 77 21 24 79 22 22 82 23 21 84 23 21 84 23 19 84 23 18 
83 23 19 81 24 30 85 32 41 91 42 49 91 49 54 67 33 37 40 14 16 19 3 3 
17 7 5 17 12 7 7 7 2 3 6 1 2 7 1 5 10 1 7 10 1 9 10 1 
11 10 1 18 15 4 29 25 12 46 40 26 65 59 43 86 80 63 110 104 86 112 106 88 
100 92 75 71 56 41 64 48 33 64 47 29 65 48 28 66 47 25 67 47 22 71 50 22 
80 58 26 90 66 31 98 72 35 114 88 48 116 90 49 97 71 32 84 58 21 78 51 16 
80 53 20 89 62 30 97 71 42 103 78 52 111 86 63 115 91 71 117 94 75 177 154 138 
210 193 181 212 206 199 206 200 194 192 186 179 168 162 154 154 148 139 152 146 136 162 155 145 
193 187 175 218 211 198 237 230 214 232 223 207 230 220 203 230 220 201 226 214 194 217 204 184 
205 191 171 199 183 162 175 157 137 142 121 102 146 125 105 144 122 103 145 122 102 208 184 165 
229 213 200 224 221 216 240 237 232 200 197 192 129 126 121 76 72 68 72 69 63 95 92 85 
107 104 98 129 126 120 159 156 150 201 198 192 223 220 214 230 228 221 224 222 215 216 214 206 
190 190 181 94 93 84 41 41 32 13 13 5 5 5 1 4 4 1 6 6 2 10 10 3 
30 20 17 52 32 35 65 47 47 98 83 79 119 107 98 89 75 64 78 59 47 71 46 34 
57 25 14 59 18 9 64 16 9 68 16 12 66 16 13 63 17 14 62 24 20 72 47 39 
83 71 59 91 90 72 88 95 72 75 85 59 43 54 26 43 50 21 44 48 18 34 37 7 
59 29 6 84 29 10 96 38 15 116 53 30 134 65 42 143 69 49 153 73 56 168 84 70 
193 106 94 208 119 110 219 131 124 228 143 139 228 150 147 224 152 151 214 150 149 183 125 124 
155 105 101 134 92 87 114 77 70 98 68 58 88 63 51 69 47 33 60 39 24 61 42 25 
70 36 36 90 49 58 121 81 90 115 78 86 99 65 71 72 41 47 57 28 33 44 18 21 
33 9 11 36 13 14 44 21 21 57 32 32 85 59 58 87 59 58 70 38 38 79 43 44 
78 40 41 72 31 33 81 38 39 93 48 50 104 57 60 82 34 36 75 25 28 77 25 29 
87 17 24 108 25 36 134 42 59 158 57 78 179 73 97 196 90 116 202 101 128 202 112 136 
201 127 148 216 165 180 216 184 193 207 191 195 200 198 196 174 178 175 142 149 144 127 132 126 
151 153 148 190 191 187 220 222 217 237 240 234 236 242 235 192 208 196 178 198 184 181 195 181 
211 176 174 218 167 169 212 154 159 194 125 135 183 107 118 167 86 99 132 50 63 117 38 49 
104 33 41 85 25 29 72 20 21 66 20 19 71 29 27 74 32 29 80 34 31 92 40 38 
101 44 42 112 49 48 127 60 59 143 74 73 152 84 82 148 83 80 175 112 108 198 145 140 
204 172 170 229 201 199 223 197 195 157 135 132 92 74 71 43 29 25 18 9 6 26 20 17 
32 28 25 27 24 21 
50 20 19 48 16 15 83 38 39 97 46 47 97 43 43 77 18 17 80 16 13 96 25 19 
108 31 23 121 41 29 133 50 35 135 52 34 135 54 33 134 56 33 132 60 34 125 59 31 
115 56 27 104 53 23 129 85 52 164 126 95 180 148 117 192 163 134 201 177 149 212 191 164 
221 201 175 230 213 189 246 237 219 244 237 221 241 235 217 251 246 228 253 244 226 252 240 222 
252 240 222 241 226 207 230 212 193 229 210 189 217 196 176 205 183 163 199 174 155 173 148 128 
146 119 100 125 97 79 119 91 73 126 97 79 151 121 105 181 152 135 206 177 160 219 190 173 
218 188 171 205 182 168 177 172 165 205 203 199 234 231 230 248 246 250 238 236 245 206 205 218 
145 144 160 111 110 128 80 79 98 49 48 65 40 38 53 44 40 52 62 56 63 91 84 84 
124 113 107 160 145 133 182 162 147 199 175 156 212 185 162 208 177 154 199 165 141 186 149 125 
181 142 118 172 136 115 159 133 115 154 128 111 150 125 109 147 124 109 138 116 102 122 102 89 
100 83 71 73 58 48 47 35 26 24 16 7 13 6 2 9 4 1 12 9 1 9 6 1 
11 6 1 17 10 2 36 27 16 65 54 41 100 87 71 100 85 70 100 84 67 101 83 64 
106 85 67 104 79 63 99 69 57 100 72 60 104 77 65 108 81 70 109 82 72 105 78 69 
97 70 62 85 58 50 67 39 33 49 20 14 40 8 5 47 13 7 63 26 17 87 45 34 
110 64 50 131 80 62 141 86 65 148 87 64 154 87 61 159 88 61 163 88 59 165 88 56 
165 86 55 159 79 56 150 70 57 143 67 53 129 61 46 117 56 40 112 57 41 112 64 48 
112 70 54 105 67 52 92 54 40 81 41 28 80 35 24 91 40 30 113 55 46 150 88 77 
170 102 91 186 115 101 203 131 113 203 133 110 203 135 108 208 143 113 208 147 113 208 150 113 
210 155 116 221 158 120 227 159 123 226 157 122 223 156 121 221 154 119 218 152 119 209 146 113 
196 135 103 178 118 88 175 117 87 167 112 83 153 101 73 149 102 75 144 100 74 134 93 69 
144 108 83 161 130 105 188 160 136 176 152 128 171 150 126 178 159 136 170 153 129 167 152 128 
170 157 133 78 73 64 21 20 20 1 1 1 7 5 4 56 53 51 147 143 140 163 158 154 
200 195 190 253 249 245 216 211 204 179 172 163 141 133 125 141 133 124 134 126 117 122 114 105 
107 99 90 125 118 109 169 163 153 193 188 180 211 206 198 221 217 209 209 205 199 186 182 176 
158 154 148 156 147 139 113 100 93 50 36 30 42 27 22 42 25 22 46 26 25 46 22 23 
44 17 19 42 11 16 45 11 18 51 13 21 57 16 24 61 17 26 65 17 25 68 18 24 
72 19 24 75 20 24 78 21 24 81 21 21 83 22 20 86 23 20 86 23 18 87 24 18 
85 23 19 76 20 25 82 29 37 91 42 49 91 49 54 67 32 36 38 12 14 17 3 3 
15 6 4 15 11 7 7 8 2 3 7 1 2 8 1 6 12 2 6 10 2 5 7 1 
4 4 0 8 6 1 15 13 4 29 27 14 41 37 23 60 55 40 92 88 71 98 94 77 
90 84 68 66 52 39 60 45 31 59 44 27 62 45 27 64 45 24 66 47 23 72 51 23 
86 63 31 100 76 40 112 86 49 124 97 58 123 96 56 106 78 39 94 66 29 86 59 23 
85 56 23 91 63 32 98 70 42 105 77 52 109 83 60 112 86 67 112 88 71 164 140 125 
195 177 164 203 195 187 203 195 187 197 189 180 184 176 167 177 169 160 178 170 160 186 178 167 
204 197 184 218 211 196 228 219 204 224 214 198 224 214 197 228 218 200 230 217 199 225 212 193 
217 202 184 213 197 178 188 169 150 149 129 111 149 128 109 141 119 100 135 112 93 198 174 156 
219 202 189 216 211 204 244 242 236 226 223 217 183 178 171 159 154 148 172 168 161 202 199 191 
202 198 192 206 203 196 213 210 202 217 214 207 219 216 210 219 217 209 213 211 203 206 204 196 
182 180 172 87 85 76 40 38 30 17 17 9 11 11 2 11 11 3 14 14 5 17 17 9 
36 26 23 59 37 40 71 51 53 101 83 81 119 104 97 86 69 59 70 48 37 60 32 21 
56 20 9 63 18 10 71 20 14 73 18 14 69 17 14 65 17 15 64 23 20 70 43 36 
77 64 52 78 75 57 72 74 52 57 62 38 26 31 9 34 35 9 44 40 11 43 36 6 
77 34 10 107 37 17 118 46 26 131 56 36 141 63 44 142 64 46 141 61 46 153 72 59 
188 106 96 205 125 116 219 141 134 230 155 150 235 166 162 234 170 168 224 166 164 192 139 137 
163 116 112 139 98 94 114 78 72 95 64 56 84 57 48 65 41 30 55 33 21 55 34 21 
69 35 37 93 54 63 129 90 100 122 84 93 111 75 82 94 61 67 76 43 49 57 26 32 
40 11 15 41 13 15 46 18 20 55 27 29 73 45 46 72 44 44 56 28 28 70 40 41 
71 41 41 63 33 32 69 38 38 78 48 47 87 57 56 64 33 32 56 25 25 61 27 28 
76 15 23 96 22 35 120 39 55 144 53 73 159 65 87 168 73 97 166 75 99 157 75 98 
147 80 99 158 111 125 151 123 131 143 132 134 176 179 176 196 205 200 207 220 213 215 227 219 
226 236 228 234 242 235 227 235 227 226 235 227 219 230 221 178 195 182 162 183 167 163 175 162 
193 155 154 198 142 146 190 129 136 177 106 116 169 92 103 156 76 88 131 51 63 116 40 51 
102 33 42 82 24 28 67 17 18 58 15 14 65 25 24 71 30 28 78 33 32 92 38 38 
103 42 42 114 48 48 128 57 57 141 69 68 148 77 75 144 77 73 177 112 107 205 148 144 
209 174 173 228 199 197 220 193 190 159 134 132 97 77 74 50 35 31 28 19 13 39 33 28 
47 43 39 44 42 37 
51 20 19 48 14 14 84 38 39 98 46 47 96 41 41 79 20 18 84 20 15 100 29 23 
108 31 22 119 39 27 130 48 32 136 54 34 137 57 34 137 59 34 132 60 33 124 59 30 
114 56 26 102 51 20 132 89 54 175 137 103 191 158 126 201 173 141 208 185 154 216 195 166 
222 202 174 228 211 186 241 235 215 244 239 221 244 240 221 250 245 226 251 243 224 251 241 221 
251 240 219 245 232 210 238 222 200 232 214 192 222 203 180 213 192 170 209 186 165 177 153 132 
147 122 101 137 111 91 119 93 73 113 86 67 132 104 87 151 123 106 179 152 134 223 196 179 
214 187 170 195 174 158 175 170 158 199 196 187 225 222 216 243 241 239 236 234 237 214 212 220 
172 172 182 133 131 145 101 99 113 80 78 91 68 66 76 68 64 70 80 74 76 111 103 99 
145 134 124 179 165 149 194 175 156 203 180 158 207 180 155 202 171 145 194 160 134 186 148 122 
182 143 117 174 138 114 160 131 115 157 128 113 150 122 109 141 115 103 123 100 87 106 86 74 
91 74 63 50 36 30 26 15 10 17 9 3 12 5 1 10 5 1 11 6 1 8 3 0 
18 11 7 37 28 19 56 46 34 82 70 56 109 96 81 103 88 72 96 80 63 91 73 54 
96 76 58 92 70 53 84 59 45 92 66 54 97 72 60 100 76 64 101 77 67 99 75 65 
95 70 61 82 57 50 68 42 35 54 26 20 50 20 14 56 22 15 68 30 21 86 44 33 
109 61 47 131 79 62 145 88 68 151 89 66 154 87 62 158 87 60 163 88 59 167 88 57 
167 86 55 162 81 58 155 75 60 147 70 56 133 63 47 121 58 42 120 63 48 120 70 55 
119 75 59 113 72 57 105 64 50 95 53 40 83 37 25 92 41 30 117 61 49 162 101 89 
184 117 104 198 128 113 211 140 121 214 145 121 217 149 121 220 155 124 219 158 123 219 160 122 
219 162 122 219 163 120 219 162 119 218 161 118 216 160 117 214 159 116 213 158 117 207 154 114 
200 148 110 191 140 103 186 137 100 180 132 97 172 126 93 168 126 93 164 124 92 158 120 90 
155 122 91 164 134 104 187 160 131 184 159 130 176 154 126 165 145 117 159 141 113 160 144 115 
169 154 125 89 82 64 44 40 29 35 31 20 41 37 25 85 79 67 162 155 143 187 180 167 
212 203 191 235 226 213 208 199 185 173 163 149 133 123 109 148 138 124 144 133 120 122 111 100 
87 76 66 94 83 75 132 122 115 161 152 146 196 188 184 231 224 221 224 217 215 201 194 193 
173 165 164 176 166 162 118 108 102 34 22 18 35 21 19 39 24 23 45 27 28 46 24 26 
44 19 23 42 14 20 47 15 22 53 16 25 58 18 27 59 16 25 61 15 23 65 15 22 
69 16 22 74 18 22 78 20 22 81 20 19 82 20 17 85 21 16 93 27 21 93 27 21 
89 24 20 78 21 25 82 28 35 89 40 47 93 50 56 66 31 35 35 9 11 20 4 3 
15 6 3 12 8 5 7 9 4 4 9 3 2 9 2 3 10 2 3 9 1 3 7 1 
2 4 0 4 5 0 9 9 2 16 15 5 25 24 13 40 38 25 63 62 47 70 69 53 
71 67 52 67 55 42 64 50 37 62 47 32 61 45 27 60 41 21 61 41 18 66 45 19 
87 63 33 107 81 48 124 96 60 139 110 72 142 112 73 127 97 58 104 74 37 90 59 25 
87 57 25 89 60 30 96 68 39 106 79 53 114 88 65 120 95 75 124 99 83 154 130 114 
178 158 145 194 184 173 198 187 177 198 188 177 195 185 174 193 183 172 195 185 174 200 191 179 
210 201 188 219 210 195 226 217 201 228 218 201 230 220 203 233 223 206 234 221 204 230 217 199 
224 210 193 225 208 190 201 182 165 163 142 125 154 132 114 148 125 107 147 124 106 182 158 140 
202 185 171 213 207 199 233 228 222 227 222 215 206 200 192 192 186 179 202 196 189 222 217 209 
224 220 212 224 219 211 222 217 208 220 215 208 214 210 202 207 204 195 203 201 192 195 192 184 
172 169 161 93 91 82 44 41 33 13 11 4 7 6 1 13 12 6 24 23 15 37 36 27 
44 33 30 54 31 35 78 56 58 92 72 70 95 78 71 78 57 49 61 36 27 51 19 10 
56 17 8 66 19 12 76 21 16 80 22 19 74 19 17 67 18 15 65 24 20 69 40 33 
72 55 43 70 62 45 58 55 34 43 42 20 27 26 5 35 28 5 46 33 7 50 33 6 
94 38 18 130 46 29 139 55 39 149 66 50 154 72 58 151 71 58 144 66 54 146 70 60 
162 90 82 186 117 110 211 145 139 236 173 169 241 187 183 241 191 188 236 186 183 194 148 145 
161 118 115 141 101 98 117 81 77 97 66 60 84 55 49 60 33 26 47 22 14 50 25 17 
64 32 34 91 55 64 132 96 105 127 90 99 116 78 87 99 61 70 86 47 55 71 33 41 
57 19 26 48 12 17 45 9 14 46 13 15 56 24 27 61 31 33 63 34 36 67 42 43 
66 43 43 60 40 37 58 40 36 57 42 37 57 44 39 45 34 28 41 30 24 44 30 25 
67 25 30 84 28 39 97 37 50 114 46 61 128 56 74 140 66 86 143 72 92 141 77 96 
136 85 101 137 104 115 135 117 123 140 136 137 191 198 194 212 225 219 219 235 226 227 242 233 
235 247 239 240 249 241 234 243 235 231 239 230 220 228 218 179 190 178 162 176 162 162 166 155 
187 143 145 192 132 138 186 121 130 172 99 110 162 83 96 148 66 80 120 41 53 106 32 43 
94 28 37 78 23 28 63 16 18 54 13 13 61 22 21 68 27 26 79 33 31 96 41 41 
109 46 47 120 51 52 131 57 58 142 66 66 150 76 75 156 85 81 179 110 106 200 140 137 
212 174 173 225 192 191 214 184 183 160 135 133 95 74 71 49 33 29 38 28 22 40 33 29 
41 36 32 37 34 30 
51 20 19 47 13 13 84 38 39 98 46 46 96 41 40 81 21 18 87 22 17 104 33 25 
108 32 22 117 38 25 129 47 30 136 54 34 138 59 35 138 61 34 132 61 32 124 59 29 
115 56 25 101 50 19 134 90 54 180 143 106 195 164 128 205 178 143 212 188 155 218 196 164 
222 201 171 226 209 181 236 231 209 241 238 218 244 240 221 246 241 221 247 240 220 247 239 217 
247 237 214 245 233 209 240 226 202 231 216 190 223 205 180 216 196 172 213 192 168 177 155 132 
146 123 100 141 118 96 114 90 70 97 72 53 110 85 67 121 96 78 152 127 110 219 195 178 
210 186 170 191 173 156 177 172 155 198 194 180 221 217 206 238 235 228 233 231 229 220 218 220 
196 195 200 162 160 169 137 136 145 127 125 134 115 112 118 109 104 107 110 104 101 136 128 120 
165 154 141 193 179 160 203 185 162 206 184 159 204 177 150 197 166 138 191 157 128 184 148 119 
182 143 114 174 137 112 160 128 115 157 125 113 149 119 108 136 109 97 105 81 69 85 65 54 
74 59 49 34 22 16 15 4 1 13 5 1 12 5 1 12 5 1 12 6 1 10 3 1 
28 20 15 60 49 41 78 65 55 97 83 71 115 100 85 102 86 71 90 73 56 81 63 44 
85 66 47 79 58 41 70 47 33 81 58 44 88 65 52 91 69 56 93 71 60 94 72 62 
93 71 61 83 59 51 71 46 39 62 34 27 62 31 24 66 31 24 74 34 26 88 45 34 
110 62 48 134 81 64 150 92 73 156 93 70 157 89 64 160 88 61 165 89 60 170 91 60 
170 89 58 166 84 61 160 79 63 152 75 59 139 67 52 129 63 47 130 71 55 129 76 60 
126 79 63 120 76 60 115 72 57 106 62 48 85 39 26 94 44 31 121 66 53 172 112 98 
193 129 114 206 139 121 216 147 127 221 153 128 224 158 129 228 163 130 227 166 129 226 167 128 
225 167 127 220 170 124 217 172 121 216 171 121 216 171 120 215 170 121 215 170 123 213 169 123 
211 167 122 207 165 121 202 161 118 198 157 116 194 154 115 190 152 114 186 149 112 181 147 112 
175 144 109 180 151 116 197 170 137 199 174 142 191 169 136 173 153 121 169 151 118 174 156 124 
186 169 136 129 119 93 97 91 69 94 88 66 97 90 69 127 118 97 181 171 150 206 195 174 
220 208 187 223 210 189 206 193 172 178 165 145 144 130 111 162 147 130 157 142 126 131 116 103 
72 57 49 63 49 42 93 79 72 112 98 94 165 152 151 236 223 224 225 213 215 200 188 191 
171 159 161 173 163 161 110 100 97 20 9 7 27 15 14 35 20 21 42 25 27 43 23 27 
43 19 25 43 15 23 48 17 25 52 18 27 56 18 28 56 14 23 58 13 21 62 12 20 
67 15 19 73 17 20 78 19 21 82 19 19 82 18 16 85 20 15 98 30 24 98 29 24 
92 25 21 81 22 25 82 28 34 88 38 45 95 51 56 67 31 34 34 7 9 22 5 4 
15 6 3 10 8 3 8 11 5 5 11 5 3 11 3 2 9 1 1 8 1 1 7 1 
1 5 0 3 6 0 5 7 1 7 8 1 14 15 5 25 26 14 39 41 27 47 49 36 
57 56 43 72 61 49 71 58 46 68 53 40 64 48 32 59 41 22 57 37 16 60 39 14 
89 64 36 116 89 57 135 107 72 152 122 85 157 126 87 144 112 74 113 81 45 94 62 28 
89 58 27 89 59 29 95 65 38 106 78 53 116 89 67 123 97 78 127 102 85 147 121 106 
166 145 131 186 172 159 194 181 168 200 187 174 203 191 178 205 193 180 208 197 183 211 202 188 
217 207 192 222 212 196 226 218 200 232 222 205 235 225 208 237 227 210 237 225 208 234 220 204 
229 214 198 231 214 198 209 190 174 169 149 133 156 134 118 151 128 112 153 130 113 171 146 129 
189 171 158 208 201 192 228 221 213 230 223 215 222 215 206 213 206 198 218 211 203 230 224 215 
233 227 219 228 222 214 220 214 205 217 211 203 208 203 194 199 195 185 196 192 183 186 182 173 
161 158 149 92 88 80 44 40 33 12 9 2 11 8 4 22 19 14 38 35 27 55 52 44 
59 46 44 63 39 43 84 60 63 84 62 62 77 56 51 67 43 36 55 26 18 48 13 5 
59 16 8 71 20 14 82 23 19 87 27 25 80 22 20 71 19 16 68 25 21 70 38 31 
70 49 38 64 52 37 49 41 21 35 29 7 30 21 3 40 24 3 52 29 6 61 34 10 
111 43 26 151 55 41 160 65 53 168 77 66 171 85 75 166 86 77 152 77 69 142 73 66 
141 79 73 165 108 103 194 141 137 227 177 173 240 198 193 246 207 203 244 203 199 203 163 159 
170 131 127 149 111 108 122 87 83 101 68 64 87 55 52 57 27 24 43 14 11 47 19 15 
59 27 31 85 52 60 129 95 103 128 92 100 121 82 91 106 65 75 96 53 63 84 40 50 
71 26 35 56 12 21 47 4 11 42 3 7 46 10 14 56 23 27 70 41 44 70 47 48 
66 50 48 60 49 44 51 44 38 43 40 33 36 38 29 33 37 27 31 37 26 32 37 27 
58 37 37 72 38 44 80 41 50 93 47 58 107 58 71 122 71 85 130 81 96 134 91 105 
136 102 115 141 121 129 147 139 143 161 164 164 209 220 216 226 241 235 228 244 237 235 249 241 
240 251 243 242 250 243 240 245 238 235 239 231 223 226 217 186 190 180 170 174 164 168 163 155 
186 138 142 191 128 136 186 119 128 169 94 106 156 76 90 139 58 72 111 34 46 98 27 38 
89 26 35 76 24 29 61 17 19 52 13 13 58 21 20 67 26 25 79 33 32 99 43 44 
113 49 50 125 53 55 134 57 59 143 64 65 153 75 74 164 90 86 181 109 105 198 135 131 
212 171 170 225 191 191 214 184 184 160 133 131 95 73 70 51 33 30 43 31 26 38 29 25 
32 27 23 28 25 20 
51 20 19 49 15 14 85 39 40 99 46 47 98 41 41 83 22 18 88 23 17 104 33 25 
108 33 22 118 38 24 129 47 29 135 54 33 138 58 34 138 61 33 132 62 31 125 61 28 
116 58 24 100 50 17 133 90 53 180 143 105 195 164 127 205 177 141 211 186 152 217 194 160 
220 198 167 223 206 177 230 227 204 235 234 213 237 235 214 240 235 214 241 234 212 241 233 210 
241 232 207 239 227 202 235 221 195 227 212 185 219 201 175 212 193 167 209 189 163 173 152 127 
141 119 96 133 111 89 102 79 58 79 56 36 84 61 42 93 71 53 127 105 88 203 182 165 
208 186 170 198 181 164 186 180 159 204 199 180 223 217 201 233 228 217 230 227 220 223 221 218 
211 209 211 200 199 203 195 193 198 195 193 198 185 183 185 172 169 167 157 151 144 172 164 153 
189 178 163 206 192 170 210 192 167 209 187 159 204 177 148 196 166 135 188 155 124 181 146 114 
178 140 109 170 132 108 159 124 113 155 120 110 146 114 104 132 105 94 83 59 49 55 36 26 
48 33 24 28 16 8 17 7 1 12 3 0 10 3 0 13 5 2 18 9 4 18 8 2 
44 32 25 86 73 65 100 84 75 110 93 81 115 97 83 96 78 63 81 63 46 70 53 34 
71 53 34 65 45 28 57 35 20 68 45 32 76 54 40 81 60 47 86 64 53 91 69 58 
95 72 62 88 64 55 79 53 46 72 43 37 73 42 35 75 39 31 78 38 30 94 49 38 
117 67 54 142 87 71 157 98 79 162 97 75 162 93 68 164 91 65 170 93 64 176 95 65 
175 94 63 170 88 64 164 82 66 159 79 63 149 75 59 141 73 57 140 77 62 136 80 64 
130 80 64 124 77 61 120 74 59 110 65 50 88 42 28 98 49 35 126 73 59 178 121 105 
199 138 121 212 148 128 222 156 133 225 159 133 228 163 133 232 168 134 231 169 132 230 170 130 
229 171 129 226 181 131 225 189 133 225 189 134 226 190 135 228 192 137 230 194 140 230 194 142 
230 194 144 229 195 145 227 193 145 225 190 144 222 188 143 219 186 143 213 181 140 203 172 132 
203 174 136 210 183 145 225 199 162 226 203 166 221 199 163 208 188 152 204 186 150 208 191 154 
220 202 165 199 188 155 187 180 149 184 176 145 178 169 138 186 176 146 208 196 166 218 206 177 
224 210 181 223 208 180 210 194 167 193 176 151 173 156 132 180 161 140 173 153 134 150 130 115 
57 41 36 30 13 10 49 30 22 40 20 17 115 96 95 237 218 220 214 197 200 186 169 174 
157 140 146 149 137 137 91 80 79 13 2 1 22 9 9 30 16 16 37 20 22 40 20 24 
41 18 25 42 15 24 45 15 25 49 16 26 52 15 25 54 13 22 57 12 20 61 12 19 
66 13 18 73 16 19 79 19 20 82 19 18 84 19 16 88 20 16 102 30 26 101 29 24 
95 25 20 83 23 26 83 28 34 89 37 43 95 51 55 67 32 34 35 8 9 23 5 4 
16 6 3 12 9 5 10 13 7 7 13 6 4 12 5 2 10 1 2 9 1 1 8 1 
1 8 1 2 8 1 3 8 1 5 7 1 9 12 2 15 18 6 23 27 15 35 40 27 
53 54 42 81 71 61 81 69 58 77 63 50 71 56 41 65 47 29 59 38 18 54 32 8 
92 67 40 126 99 68 146 118 84 161 131 96 165 133 96 153 120 82 121 88 52 100 66 33 
93 61 30 92 60 32 95 64 38 103 74 51 113 84 63 117 90 71 116 89 73 142 116 101 
162 140 126 176 161 146 190 175 160 200 186 171 206 191 177 212 198 183 216 204 188 220 210 193 
225 215 198 228 218 202 230 221 204 235 225 208 237 227 211 238 227 211 239 226 211 236 222 207 
231 216 200 232 216 200 208 190 174 166 146 129 156 135 119 150 128 112 150 127 110 167 143 126 
183 165 152 200 192 183 231 223 214 238 231 221 231 223 214 222 214 206 225 218 209 233 226 217 
230 223 214 221 214 205 210 203 194 207 201 191 202 196 187 196 190 181 192 186 177 179 173 164 
152 146 137 80 74 66 39 33 26 18 13 5 26 21 14 40 35 28 55 52 44 68 65 57 
81 68 66 91 66 71 89 64 68 80 56 56 69 44 41 54 28 22 53 20 13 57 17 9 
64 17 10 78 22 17 90 27 24 96 31 30 86 25 24 75 20 18 72 26 22 72 37 31 
70 46 36 63 47 32 48 34 17 36 22 3 34 16 2 48 22 4 64 31 9 76 39 17 
127 51 35 168 64 53 178 76 67 186 91 83 191 103 97 188 110 103 163 94 88 142 81 76 
130 77 73 146 100 96 169 128 125 197 159 156 229 194 189 248 214 209 248 214 210 222 187 183 
194 158 154 165 129 126 130 95 92 106 71 69 93 59 59 59 26 25 43 11 11 48 17 18 
53 22 26 75 44 51 116 84 91 125 88 97 125 85 95 119 75 86 108 61 72 96 45 57 
81 29 41 65 15 25 54 6 15 46 4 9 48 8 13 58 23 28 76 48 50 77 57 57 
73 60 58 64 59 53 50 51 43 38 45 36 31 42 31 29 43 31 28 45 31 29 47 33 
49 48 44 63 51 51 71 56 58 84 63 67 100 75 82 118 91 99 128 102 111 137 115 123 
147 131 138 171 165 169 190 192 193 207 215 214 228 241 237 236 251 246 239 254 248 244 254 249 
246 253 248 246 249 244 243 241 237 239 233 229 228 220 216 201 193 188 187 179 173 183 166 162 
193 141 146 195 130 139 189 120 129 167 92 104 149 71 85 131 53 66 106 32 43 95 27 38 
88 28 37 77 29 34 62 21 23 52 15 16 57 22 22 66 27 27 79 34 34 101 44 46 
116 49 51 127 53 56 137 57 60 146 64 65 155 73 73 166 88 84 184 109 104 200 133 130 
207 163 163 231 199 198 224 197 196 156 128 125 99 75 72 58 40 35 40 27 23 32 22 18 
25 19 15 20 17 12 
51 18 18 50 15 15 87 39 40 101 47 48 98 41 42 84 23 19 89 24 18 105 34 26 
109 33 22 118 39 24 128 47 29 135 53 32 137 58 33 137 61 32 133 63 32 126 61 28 
115 57 24 101 50 17 134 89 52 180 142 104 196 163 125 205 176 139 212 185 151 217 191 158 
221 196 164 223 203 174 226 222 198 230 228 206 232 229 207 234 229 207 235 228 205 236 227 203 
236 226 200 235 223 196 232 217 190 224 208 180 216 198 171 210 190 164 208 188 161 177 156 130 
148 126 102 140 119 96 107 86 65 79 58 39 73 52 34 76 55 39 106 87 71 187 167 153 
203 184 170 206 190 173 202 194 170 216 209 185 227 221 200 232 226 210 229 225 213 225 222 215 
222 219 217 217 214 215 211 209 211 204 202 204 193 190 190 181 176 173 165 159 151 178 169 157 
192 181 163 204 191 168 208 190 164 206 184 156 200 174 144 193 164 132 185 153 121 177 142 110 
171 134 103 165 127 104 158 121 112 151 116 107 143 111 102 134 107 97 71 48 39 38 20 11 
32 18 11 20 10 4 13 4 1 10 3 0 9 2 0 10 2 1 13 4 2 21 10 4 
51 37 30 95 78 71 105 86 77 105 85 75 98 78 65 81 60 45 69 49 32 62 42 24 
59 39 21 56 36 18 54 33 18 64 42 28 71 49 36 76 55 42 82 60 49 88 66 55 
92 69 59 87 62 54 79 52 45 72 42 36 73 40 33 74 37 30 79 37 30 96 49 39 
120 69 56 145 89 73 161 100 81 164 98 77 163 92 68 165 90 64 170 92 64 176 95 65 
177 95 64 173 89 65 167 84 67 162 82 65 155 79 63 147 77 61 143 78 62 136 78 62 
129 77 60 121 71 56 116 68 54 109 62 48 91 45 31 103 54 39 131 80 65 183 128 112 
205 147 129 219 158 137 228 165 141 230 167 139 231 168 137 233 171 135 233 173 133 232 173 131 
230 172 129 222 182 129 216 189 129 216 189 130 218 190 131 220 191 134 223 194 138 226 197 141 
228 199 145 230 200 147 229 199 149 228 198 149 227 197 149 225 196 150 222 193 149 216 188 146 
217 190 149 221 196 155 229 206 165 231 210 170 228 209 169 221 202 164 221 203 164 223 206 167 
229 213 174 220 209 172 215 206 169 214 204 168 210 200 163 214 203 166 225 212 176 227 213 177 
227 211 176 224 206 172 216 198 165 207 187 156 196 175 146 199 175 150 193 168 146 177 153 132 
114 90 76 87 62 52 88 61 52 79 53 47 142 117 114 243 220 220 214 189 192 186 159 164 
160 134 140 157 140 141 106 91 91 32 18 18 31 16 16 31 15 16 33 16 18 35 15 19 
38 15 21 40 15 22 43 14 23 46 14 24 50 14 24 51 13 21 55 12 20 60 12 19 
64 12 18 72 15 19 79 19 20 84 19 19 87 19 17 92 21 18 105 30 27 105 30 26 
99 26 23 85 24 27 85 28 34 89 36 42 94 50 53 67 31 32 36 9 8 24 7 4 
17 8 4 13 11 6 12 14 8 10 16 9 7 16 8 3 12 4 2 9 2 1 8 1 
2 9 1 3 10 1 4 10 1 5 10 2 7 14 3 13 19 7 21 29 16 37 44 32 
60 63 52 96 87 77 98 86 76 93 79 68 84 69 54 74 56 39 65 44 25 57 35 12 
97 72 45 133 106 75 154 124 91 168 136 102 170 137 102 157 123 86 125 90 55 104 69 37 
98 64 34 95 62 34 96 64 39 101 72 48 109 80 60 113 85 67 111 85 69 141 115 100 
160 137 121 167 149 130 184 166 149 197 180 163 206 189 173 213 196 180 219 205 188 225 213 196 
230 218 202 232 221 205 234 224 207 237 227 211 239 228 212 238 228 213 241 229 214 239 226 211 
236 221 206 240 225 210 216 199 184 173 154 139 165 144 129 158 136 121 155 131 116 163 139 124 
171 153 139 181 172 162 223 214 204 239 230 219 237 228 217 231 222 213 232 223 214 235 228 217 
229 222 212 218 211 202 206 198 189 202 195 186 197 189 180 190 183 174 183 176 167 165 158 149 
134 127 119 73 66 58 46 39 31 39 31 24 51 44 36 61 54 47 67 60 54 67 60 54 
75 58 58 80 53 59 69 42 46 58 31 32 50 23 20 52 22 17 57 21 15 64 21 14 
72 21 15 83 24 20 94 28 26 99 31 31 91 27 27 82 24 22 78 28 25 77 39 32 
74 46 36 65 45 30 50 30 15 39 18 3 40 14 2 59 24 8 80 37 17 96 49 28 
140 57 43 175 68 59 185 81 73 196 101 95 204 119 114 206 133 128 193 131 127 180 128 125 
169 127 124 173 138 135 181 151 148 193 165 161 221 194 189 240 212 206 242 214 208 226 194 190 
202 167 164 169 133 130 132 94 92 106 68 68 95 58 59 61 25 26 44 9 11 46 13 16 
53 24 28 72 43 49 102 71 78 118 83 91 128 88 97 132 87 98 119 69 81 107 53 66 
95 38 51 77 21 34 65 11 22 56 6 15 49 6 13 54 18 23 67 38 43 70 51 51 
65 55 52 54 52 47 42 47 39 32 44 34 26 43 30 28 48 34 29 52 37 31 54 40 
43 58 49 53 63 58 62 70 66 75 79 76 91 92 91 109 107 108 122 120 122 133 133 135 
147 149 151 174 182 182 195 205 205 213 225 223 235 246 244 244 254 252 247 254 252 250 252 250 
250 246 245 248 239 238 245 230 231 243 223 224 236 213 214 214 190 190 200 175 175 194 162 162 
198 141 147 198 132 141 190 121 130 160 85 98 141 65 78 125 49 63 104 34 46 93 30 41 
85 30 40 76 33 38 63 27 29 53 21 22 57 25 24 66 29 29 80 35 36 102 45 47 
116 50 52 128 53 56 139 58 60 148 64 66 158 73 73 167 86 83 185 106 102 201 131 127 
209 162 162 232 197 197 224 194 193 155 124 123 101 75 73 62 41 38 43 28 24 33 23 18 
27 20 16 25 22 18 
50 17 16 50 15 15 88 40 41 102 47 49 99 42 42 85 24 20 90 25 19 106 35 27 
110 34 23 118 39 25 128 48 29 134 53 31 137 57 32 136 60 32 133 64 32 126 62 28 
115 57 23 102 50 16 134 89 51 180 140 101 196 161 123 206 175 138 213 184 149 218 190 156 
222 194 162 224 201 171 223 216 192 225 221 199 228 223 200 229 223 199 230 221 198 231 220 196 
231 219 193 231 217 190 228 212 184 221 203 175 214 194 166 208 187 159 205 183 156 177 155 130 
153 131 107 147 126 104 115 95 74 85 65 46 70 50 33 64 46 31 90 73 59 169 152 139 
194 178 165 207 192 177 215 205 178 225 216 190 232 224 201 233 225 206 230 224 210 229 224 214 
231 226 222 228 223 222 220 216 216 206 202 203 197 192 191 183 178 173 164 158 149 175 166 153 
188 177 158 199 186 163 203 186 160 203 182 154 199 173 144 192 164 133 184 153 121 175 139 109 
168 131 101 161 124 101 156 118 110 147 112 103 139 108 99 132 106 98 61 40 33 24 8 2 
21 9 2 14 5 1 9 3 0 8 2 0 8 1 0 9 1 0 13 3 1 25 12 7 
55 38 32 95 75 69 100 79 71 93 71 61 78 56 43 65 43 28 58 37 21 56 35 18 
50 30 12 50 29 12 53 33 17 63 42 27 69 48 34 75 53 40 80 58 47 86 64 53 
91 67 57 86 59 52 77 48 42 69 38 32 69 34 28 72 33 27 79 36 28 97 48 39 
122 69 57 148 90 74 163 100 82 166 98 77 164 91 67 165 88 63 170 90 62 175 94 64 
178 94 64 175 90 66 169 85 68 166 83 67 159 81 65 151 78 62 143 76 60 134 73 57 
124 69 53 114 62 47 110 61 46 105 58 43 92 45 30 105 56 41 133 83 67 184 132 114 
207 153 133 222 165 142 231 172 146 231 172 142 231 171 137 231 171 134 231 173 132 231 173 131 
229 171 128 218 181 127 210 189 127 210 188 128 211 188 129 213 190 131 217 193 135 220 196 139 
224 199 143 227 201 147 228 201 149 228 201 151 227 200 151 228 202 155 228 202 157 226 201 157 
226 203 159 228 206 164 232 212 169 234 216 174 234 216 175 231 214 175 232 216 176 233 218 178 
235 221 182 234 223 183 232 224 182 231 221 181 229 219 177 231 219 178 235 222 181 233 218 177 
230 213 173 227 208 169 225 204 166 220 198 162 215 190 157 214 186 157 210 181 154 200 171 147 
162 130 110 141 109 93 134 100 89 126 92 83 167 135 130 236 205 203 212 178 179 190 155 158 
170 136 140 163 140 140 116 98 97 52 34 34 42 24 25 36 18 19 33 14 17 34 13 17 
36 13 19 39 14 20 41 13 21 45 14 23 49 15 24 50 13 21 53 12 19 58 11 18 
63 11 17 71 15 19 80 18 21 85 19 20 90 20 19 96 22 20 108 31 29 110 30 28 
103 27 25 88 25 28 86 29 33 89 36 40 94 49 51 68 31 31 37 10 8 25 8 4 
19 10 4 15 13 7 14 17 10 12 19 11 9 19 10 4 14 6 2 11 3 2 9 1 
2 10 1 3 11 2 5 13 3 6 14 4 7 16 4 12 21 9 23 33 21 39 49 36 
64 70 58 106 97 89 110 98 90 105 92 82 96 81 67 82 65 49 70 50 31 61 39 17 
102 77 50 138 110 80 159 128 96 172 139 106 173 138 104 156 121 86 124 88 55 104 68 37 
101 66 37 99 64 37 98 66 41 100 70 47 107 77 57 110 82 64 109 82 67 139 113 98 
157 133 116 161 140 120 179 157 138 192 172 153 202 183 165 210 192 174 218 201 184 226 211 195 
230 217 201 233 221 205 235 224 208 238 228 212 239 229 213 238 227 213 240 229 214 240 228 213 
238 225 210 245 230 215 221 205 190 177 159 145 172 151 138 165 143 129 158 135 120 159 137 122 
164 147 133 175 166 154 219 210 198 239 229 217 241 232 221 236 226 216 235 226 216 235 227 216 
228 220 210 217 208 199 205 196 186 200 191 182 193 185 176 186 177 168 174 165 157 151 142 134 
118 109 101 68 59 51 51 42 34 52 43 35 67 57 49 71 61 55 69 58 53 59 49 44 
60 41 41 61 33 38 51 22 27 43 15 16 41 12 10 51 19 15 61 22 16 70 23 17 
77 23 18 87 24 21 97 27 26 103 32 33 97 29 30 89 27 27 85 32 29 83 41 35 
79 48 37 69 44 30 54 28 15 44 16 3 48 14 3 72 28 13 97 44 25 117 59 40 
153 65 52 180 72 63 187 83 76 196 103 97 205 124 119 214 146 142 214 160 157 211 168 166 
203 170 168 198 173 170 196 175 171 196 176 172 214 193 187 226 203 197 229 203 196 223 192 186 
205 171 166 174 137 133 136 98 95 110 71 70 97 58 60 63 25 28 44 8 11 44 9 14 
52 24 27 67 41 45 89 60 65 111 76 83 128 88 97 142 96 107 128 76 89 117 60 74 
107 47 62 89 29 43 75 18 30 64 10 22 50 5 13 48 13 18 57 28 33 59 40 42 
55 46 44 45 45 40 37 45 37 31 44 34 26 44 32 30 52 38 33 57 42 35 60 45 
41 65 55 48 72 64 57 80 72 68 90 83 84 104 98 101 120 115 117 134 130 129 147 143 
143 161 158 173 190 188 194 211 209 213 228 226 239 248 248 249 254 255 251 253 254 253 247 249 
251 238 241 248 228 231 246 219 224 245 215 220 242 209 214 225 189 192 212 174 177 202 159 163 
197 137 144 195 129 138 186 117 128 153 79 92 134 60 73 119 47 60 101 35 47 91 32 43 
83 33 42 74 37 41 63 32 34 54 27 27 56 27 26 65 30 30 79 36 37 101 45 48 
117 50 53 129 53 57 140 58 60 150 64 66 159 72 73 167 84 81 184 103 99 200 128 124 
210 161 160 233 194 194 223 190 190 155 121 120 103 75 73 66 43 40 46 30 26 39 26 23 
35 27 24 38 33 29 
47 14 14 49 13 14 88 40 41 103 48 49 101 44 44 86 24 21 91 26 20 107 36 28 
111 35 23 119 40 25 128 48 30 134 53 31 137 57 32 136 61 31 133 63 31 125 61 28 
115 56 23 104 50 16 135 88 50 180 138 98 196 159 120 206 173 136 214 183 148 220 189 156 
223 194 162 224 199 169 220 211 186 221 215 191 224 215 192 225 215 191 225 214 190 226 213 188 
227 212 185 227 210 182 224 206 178 218 198 169 211 189 161 204 181 153 195 171 146 172 150 125 
154 133 109 153 132 110 125 105 85 96 76 59 73 56 40 60 44 30 78 63 50 150 136 124 
179 165 154 201 187 172 223 212 182 232 222 193 237 226 202 236 226 206 234 226 210 234 227 216 
238 230 225 233 227 224 223 217 215 204 199 199 199 193 192 185 178 174 155 149 140 165 156 143 
179 167 149 192 178 157 198 181 155 201 181 152 203 178 150 196 168 138 187 156 125 175 141 112 
168 133 104 160 124 102 151 115 106 140 108 98 132 104 95 127 102 95 52 34 31 15 2 0 
12 4 1 9 3 0 7 2 0 4 0 0 7 2 0 11 4 1 19 8 2 32 17 12 
56 37 32 85 63 58 86 62 56 75 51 41 56 32 20 50 26 13 50 28 12 53 32 15 
45 24 7 47 27 10 55 35 19 65 43 29 72 49 36 76 54 41 81 58 48 86 63 53 
90 65 56 83 56 49 73 43 37 63 29 24 62 24 19 68 26 21 78 32 26 97 46 38 
123 68 56 149 89 75 164 99 82 166 96 76 163 89 66 163 85 60 168 88 60 174 92 62 
177 93 63 175 89 66 172 85 69 169 84 68 161 81 65 152 77 60 141 72 56 127 64 48 
114 56 41 105 51 36 102 52 36 99 51 36 89 42 27 103 56 39 131 83 66 179 130 111 
205 153 131 222 168 143 231 175 147 229 173 140 225 169 133 225 167 129 226 169 128 227 170 128 
227 169 126 216 180 126 208 189 127 208 188 128 208 188 129 209 189 130 213 191 133 216 193 137 
219 196 141 222 200 145 224 201 149 226 201 151 225 201 152 230 206 159 233 210 164 232 209 166 
233 212 169 235 216 173 237 219 177 238 221 180 239 223 183 239 224 185 239 225 185 239 226 186 
240 229 188 244 235 192 243 235 191 239 231 187 236 226 182 236 225 181 239 226 182 238 222 178 
236 218 174 235 214 171 234 211 170 232 206 168 228 200 164 225 194 160 222 188 158 218 182 156 
192 155 132 181 144 124 182 142 127 170 129 117 183 142 133 211 169 164 206 163 161 199 156 156 
189 148 149 161 133 132 119 95 94 71 47 46 56 34 34 45 24 25 38 17 19 37 15 18 
36 13 18 37 12 19 39 14 20 45 17 24 50 19 27 49 15 22 51 12 19 55 11 17 
62 11 16 70 14 18 80 18 21 86 19 21 92 20 21 99 23 22 113 32 31 114 31 30 
107 27 26 90 27 28 86 30 33 88 36 39 93 49 50 68 31 31 39 11 8 27 10 4 
20 12 5 17 16 8 17 21 12 14 22 13 10 20 11 4 16 7 3 13 4 2 11 2 
2 10 1 4 13 4 6 16 7 8 18 7 7 18 6 13 23 11 28 40 27 40 52 38 
63 71 58 110 102 94 115 104 96 112 100 91 107 93 80 89 72 57 74 54 36 66 42 20 
107 80 54 142 113 84 161 129 98 173 139 106 172 136 102 151 115 80 119 82 49 101 64 34 
104 68 39 102 68 41 101 68 44 101 70 47 106 76 56 109 80 63 109 82 66 135 109 95 
153 128 111 161 137 115 174 149 129 186 162 142 196 173 154 205 184 165 213 194 176 221 204 187 
226 211 195 230 217 201 233 221 205 238 227 211 239 228 212 235 225 210 237 227 212 238 226 212 
238 225 211 244 231 216 220 205 190 177 159 146 177 157 143 170 149 134 160 138 123 156 135 119 
166 150 135 188 178 165 221 212 199 240 230 217 246 237 224 236 226 215 233 224 213 234 224 214 
228 217 207 218 207 197 207 196 186 201 190 181 193 182 173 183 172 163 166 155 147 138 127 119 
103 91 85 64 52 45 52 40 33 55 43 36 69 56 49 68 54 48 58 44 40 43 29 25 
37 16 16 35 6 11 38 8 13 40 10 12 44 13 12 53 18 16 63 21 17 73 23 18 
80 23 19 89 23 21 98 26 26 108 34 34 103 32 33 96 31 31 92 35 34 90 44 39 
86 49 40 75 44 32 60 28 16 51 16 3 58 16 4 86 33 18 115 52 35 139 70 53 
165 73 60 183 76 67 186 85 77 185 95 89 190 114 109 209 148 143 223 175 171 229 194 191 
226 200 198 218 199 195 211 195 191 207 191 185 207 190 183 207 186 179 206 180 173 211 180 172 
204 168 161 180 141 137 147 107 104 120 79 78 101 60 62 66 28 30 45 9 12 42 6 11 
47 21 23 58 35 37 76 50 54 102 69 74 125 86 93 147 101 112 135 83 94 126 68 81 
118 56 72 99 39 54 83 26 39 70 17 28 50 7 13 42 8 12 45 17 21 44 26 28 
43 35 33 41 42 37 37 45 37 34 46 36 31 48 36 36 56 43 39 60 47 39 63 49 
42 70 58 47 77 67 54 85 76 64 95 86 79 110 101 97 128 119 113 144 136 125 155 147 
137 164 159 167 191 186 190 210 207 211 226 225 240 248 247 252 253 255 254 249 253 252 239 245 
249 229 235 247 218 224 245 210 217 246 211 218 246 210 217 236 191 197 223 175 181 208 157 163 
189 129 136 184 119 128 177 109 120 144 74 85 127 57 69 113 46 59 95 36 47 87 35 45 
80 37 44 72 41 44 61 36 38 53 31 31 52 28 28 62 31 31 77 37 37 100 45 48 
116 50 53 130 54 57 140 58 60 150 64 65 159 71 71 165 82 78 183 101 96 199 125 122 
209 158 158 232 190 191 223 186 186 155 118 117 105 74 72 69 44 41 51 33 28 48 34 30 
50 40 37 57 51 46 
46 11 11 48 11 11 88 39 40 103 48 50 101 44 44 86 25 22 93 27 21 108 37 29 
112 36 25 119 41 26 129 49 30 135 54 32 137 58 32 136 60 31 132 62 30 125 60 27 
117 58 24 114 61 25 140 92 54 175 132 93 194 155 117 207 171 134 215 182 147 222 189 156 
226 194 162 228 199 169 220 205 181 220 208 186 223 209 187 224 209 186 224 208 185 224 206 182 
224 206 179 224 203 176 222 199 172 216 191 165 208 183 156 198 172 146 182 156 130 160 135 112 
144 120 98 141 119 99 118 97 78 92 72 56 71 53 40 58 42 30 74 59 49 140 126 117 
169 155 148 194 180 168 222 209 179 230 217 188 233 221 196 233 221 200 229 218 202 225 216 206 
225 217 212 216 208 205 196 189 188 164 158 158 142 136 135 110 104 101 63 57 54 70 61 53 
90 78 64 120 106 87 164 147 124 191 171 146 198 174 149 194 167 140 186 156 129 175 141 116 
168 133 108 158 123 103 143 111 101 132 102 93 123 97 88 113 93 84 44 31 28 11 2 0 
10 6 1 5 3 0 3 2 0 3 2 0 5 2 0 19 13 10 43 32 27 53 38 32 
65 46 41 79 56 51 77 52 46 66 41 32 50 25 14 50 25 12 52 28 13 53 31 15 
42 21 6 43 22 8 52 31 16 64 41 27 71 48 35 77 54 41 83 59 48 89 63 54 
92 65 57 85 56 49 74 42 37 64 27 23 62 22 18 68 25 20 80 32 26 99 46 38 
125 67 57 152 90 76 166 100 83 168 97 77 165 89 66 165 85 61 169 87 60 175 91 62 
177 92 62 176 89 65 174 86 69 173 87 70 166 84 67 156 80 63 146 75 58 131 66 50 
118 57 42 109 53 38 105 53 38 100 51 36 89 42 27 100 53 37 124 78 60 169 122 101 
197 149 125 217 166 140 226 174 145 224 170 137 219 165 128 216 161 121 220 164 123 224 168 125 
226 169 124 217 181 128 211 189 131 210 187 132 209 187 131 210 187 132 211 187 134 215 191 138 
218 194 142 221 197 146 223 199 150 224 200 153 225 200 156 231 208 163 235 213 169 235 215 173 
237 218 176 238 221 180 240 225 184 241 227 187 242 229 190 242 231 192 241 231 192 241 232 193 
240 232 193 245 239 199 246 241 199 243 236 195 241 232 190 241 230 188 243 231 188 242 227 184 
241 223 180 240 218 175 238 213 172 234 207 166 230 199 160 231 197 161 232 195 161 232 192 161 
218 176 149 209 165 141 204 157 137 193 145 128 189 140 127 189 139 129 168 118 110 136 88 84 
100 57 56 91 57 56 75 45 44 57 27 26 49 22 21 43 17 17 37 13 14 36 12 14 
34 10 14 34 9 14 35 11 16 41 14 20 47 17 23 46 14 20 50 12 18 55 12 17 
60 11 17 69 14 19 80 17 21 87 19 21 94 20 22 102 23 24 114 30 31 118 31 32 
112 29 30 93 28 29 88 31 32 89 37 38 92 48 48 67 31 29 39 11 7 28 12 5 
21 13 6 17 16 8 16 21 12 14 22 13 12 22 13 6 19 9 4 16 5 2 13 3 
3 13 3 6 17 7 9 20 10 10 21 10 8 20 8 10 23 11 18 32 19 32 47 33 
58 68 56 108 100 94 116 105 98 115 103 94 110 95 84 94 77 63 81 61 44 73 49 28 
111 85 60 144 115 87 159 127 96 169 135 103 165 130 97 143 106 73 111 74 43 96 59 30 
104 67 38 105 69 43 104 70 46 102 70 47 104 74 54 106 77 60 105 79 63 128 102 87 
145 118 102 154 127 105 167 139 118 178 152 130 187 163 142 195 172 152 204 184 165 216 197 179 
222 206 188 228 214 197 234 221 205 239 227 211 239 229 213 236 226 211 238 228 214 239 227 215 
238 226 213 245 232 218 221 207 192 178 162 148 176 158 144 167 148 134 155 135 120 149 128 113 
142 126 111 138 128 114 160 150 136 180 170 157 199 189 175 207 197 184 216 206 194 225 214 202 
222 210 200 215 202 193 206 193 184 201 188 179 193 180 172 183 169 162 166 153 146 133 120 113 
94 80 73 58 44 37 43 28 22 40 25 19 48 31 26 49 31 27 45 27 24 34 16 13 
33 10 11 37 7 13 39 9 14 43 12 14 48 15 15 56 19 17 64 20 17 73 20 16 
79 19 16 92 23 21 105 29 28 112 35 35 107 33 34 99 31 32 96 36 35 94 45 40 
90 50 41 80 44 32 66 28 16 58 16 4 67 17 5 98 35 22 129 56 42 155 75 60 
176 84 70 191 92 79 197 103 92 202 120 111 210 143 134 225 171 165 237 198 194 243 217 214 
243 224 221 235 220 217 228 213 210 219 204 200 181 162 155 157 132 124 155 123 116 183 147 138 
190 149 141 164 121 114 138 95 90 116 74 70 99 59 56 63 26 25 41 6 7 37 4 5 
43 18 17 53 31 31 67 42 44 93 61 64 119 81 86 145 101 110 135 85 95 129 74 85 
126 68 82 106 49 61 88 34 45 73 23 33 46 9 12 35 6 7 38 13 15 39 23 23 
42 35 31 46 46 39 47 50 42 45 53 43 44 54 43 50 61 51 50 62 52 48 61 51 
54 75 67 57 82 76 59 86 80 64 93 86 76 106 99 91 123 115 104 137 129 115 148 140 
128 158 153 159 185 180 186 205 203 211 223 223 241 243 246 251 245 250 250 236 243 245 223 232 
233 204 213 221 185 194 220 179 188 225 181 190 228 183 191 217 169 175 209 159 165 198 146 152 
168 110 116 165 104 112 162 99 109 130 65 75 114 50 60 102 42 52 87 34 44 80 36 44 
76 41 47 70 47 49 59 41 42 49 34 33 48 30 27 57 31 30 72 36 36 96 44 46 
113 48 51 126 52 55 139 57 59 149 63 64 157 70 70 162 80 76 179 98 92 193 120 115 
202 147 148 226 179 180 219 176 176 151 111 111 103 69 68 69 42 39 54 34 30 54 40 36 
58 48 44 63 56 51 
45 9 10 47 9 10 87 38 40 103 48 50 101 44 44 87 26 23 93 27 22 109 38 30 
113 37 26 120 42 27 130 50 31 136 55 33 137 58 32 136 61 31 132 61 29 125 60 27 
119 59 25 121 67 30 142 93 54 169 125 85 188 147 110 203 165 128 214 178 143 221 186 153 
226 191 159 228 196 166 221 201 178 221 203 182 223 204 183 224 204 183 224 203 181 224 202 178 
224 201 175 223 198 172 221 194 168 214 186 160 206 177 152 194 165 140 175 146 122 154 126 104 
137 111 91 131 107 88 110 88 71 88 68 53 71 52 40 61 43 34 76 60 54 136 123 117 
166 152 148 190 176 166 216 201 171 221 206 177 222 208 183 221 208 186 213 201 185 207 196 186 
206 196 191 194 185 183 169 161 161 127 120 120 97 90 90 59 53 52 9 4 4 16 6 1 
38 26 15 75 61 44 146 128 109 188 168 147 195 172 149 192 166 142 185 155 132 172 140 117 
166 132 110 155 121 104 137 108 98 127 100 91 118 95 86 110 94 83 49 39 33 17 13 7 
14 14 5 5 7 2 1 4 0 2 3 0 3 3 0 24 19 16 59 48 43 67 52 47 
70 50 46 69 45 41 67 41 35 60 33 25 50 23 12 53 27 14 54 30 15 53 31 15 
40 19 6 42 20 7 53 29 15 65 41 27 73 49 36 80 56 43 87 60 50 92 64 55 
94 65 57 86 54 48 74 39 35 64 26 22 62 21 17 69 24 19 82 31 26 100 45 38 
126 66 56 152 88 75 167 98 82 169 96 76 165 88 66 165 84 60 169 86 60 174 89 60 
176 89 60 176 88 64 175 86 69 176 89 72 170 87 70 162 83 66 152 79 62 138 71 55 
125 63 48 115 59 44 110 57 42 103 53 38 89 42 26 97 52 35 119 75 55 156 112 90 
188 143 118 213 165 137 222 173 142 219 168 133 213 160 123 207 154 113 214 160 117 222 167 122 
226 170 124 219 181 131 213 188 136 212 187 135 211 185 134 210 184 134 210 184 135 214 187 139 
217 191 143 219 193 147 221 196 151 223 198 154 224 199 157 230 208 166 235 214 173 236 217 177 
238 221 181 240 225 186 241 229 190 242 231 193 243 233 196 243 235 198 242 235 198 241 235 198 
239 234 198 245 241 204 247 243 206 244 239 201 243 236 197 243 234 194 244 233 192 244 229 188 
242 223 181 237 215 172 231 206 164 222 194 152 212 179 138 226 190 151 235 195 158 239 196 161 
234 188 156 227 178 150 218 166 141 207 154 132 196 140 122 182 126 110 160 103 89 117 62 53 
67 19 13 66 26 24 59 24 23 50 16 14 46 14 13 42 13 12 39 11 11 38 12 13 
36 11 14 34 11 14 34 11 14 38 13 17 43 15 20 44 12 17 48 11 17 53 11 17 
59 11 17 69 14 19 80 17 22 88 18 22 96 20 23 104 23 25 118 31 34 122 32 35 
117 31 33 95 29 31 90 32 32 90 38 37 92 48 46 67 31 27 39 11 6 29 13 6 
22 14 6 17 16 7 16 21 11 14 22 13 12 23 13 7 20 10 4 17 6 3 15 4 
3 16 6 8 20 10 12 24 13 12 25 13 10 23 11 9 23 11 12 28 14 24 39 26 
48 59 47 95 88 82 105 94 89 107 94 87 104 90 80 92 75 62 82 62 45 75 51 31 
112 85 62 142 112 86 155 122 92 164 129 98 159 123 91 135 97 65 104 66 36 92 54 26 
104 67 38 107 71 45 107 72 48 103 70 48 103 72 53 103 73 57 101 74 58 121 94 79 
136 109 92 148 118 95 159 129 107 170 141 119 180 153 131 187 162 142 198 175 155 211 191 172 
219 202 184 226 212 194 234 221 204 239 227 212 240 230 214 238 228 213 240 230 217 240 229 217 
239 227 215 245 233 220 222 208 194 178 163 149 173 157 142 162 145 130 148 130 115 142 123 108 
129 113 98 114 104 90 126 117 102 147 137 123 173 163 148 194 184 170 209 198 186 219 207 195 
219 207 196 214 200 190 205 191 181 198 184 174 191 176 168 182 166 159 164 148 141 126 110 104 
83 66 60 53 36 30 37 19 14 30 11 7 33 13 9 36 15 12 36 15 13 29 7 5 
32 6 9 38 8 15 41 10 16 45 13 16 51 17 16 58 19 18 65 19 16 74 19 15 
82 19 16 96 25 23 110 31 31 115 35 37 109 33 34 101 31 31 98 35 34 96 44 39 
92 49 40 83 43 32 70 27 16 64 16 4 75 18 6 107 37 25 141 59 46 168 79 66 
184 91 76 194 103 87 200 114 100 208 134 121 219 158 148 235 187 180 245 214 209 251 233 229 
252 241 237 248 235 233 241 227 225 234 218 214 175 152 146 135 106 98 128 92 84 162 120 112 
173 127 118 149 101 93 129 83 76 112 68 62 97 57 51 60 25 21 38 6 4 33 3 1 
38 15 13 47 26 24 59 34 35 82 52 54 109 72 76 138 96 103 131 84 91 127 76 84 
125 72 83 111 59 69 95 46 55 77 33 41 44 12 14 28 4 3 30 8 8 34 20 18 
41 32 28 49 45 39 52 51 44 54 54 47 54 56 48 66 67 61 70 70 65 69 70 65 
73 83 81 73 88 87 71 89 88 70 93 90 78 105 100 89 120 114 98 131 124 107 140 133 
119 150 145 155 179 176 183 201 200 210 218 221 241 239 245 250 239 247 248 228 237 242 213 224 
224 188 199 204 163 174 204 160 169 208 161 170 211 163 171 202 154 160 197 149 154 186 137 142 
151 96 101 149 92 98 150 91 99 120 59 68 104 45 54 92 37 46 77 31 39 74 37 43 
74 46 51 72 56 56 57 47 46 44 35 33 42 30 26 51 30 27 67 34 33 92 42 43 
109 47 49 124 51 53 138 57 58 148 63 63 155 70 68 160 79 74 176 96 90 189 116 111 
194 137 138 219 168 169 214 166 167 147 106 106 101 66 65 70 41 39 57 35 31 59 43 39 
63 51 48 65 57 52 
44 9 10 46 8 9 87 38 40 103 48 50 101 44 44 87 26 23 94 28 23 110 39 31 
113 38 27 121 43 28 131 51 32 137 55 33 138 59 33 137 61 31 131 60 29 126 60 27 
122 60 26 123 67 30 139 88 49 160 114 75 177 134 97 193 153 118 208 170 136 216 179 147 
221 184 154 224 190 161 222 197 176 223 200 181 226 201 182 227 202 181 227 201 179 226 199 175 
226 198 173 224 195 170 220 190 165 212 181 155 204 172 147 192 160 137 176 144 121 155 125 103 
136 108 89 123 97 80 103 79 65 85 63 51 72 53 43 68 50 43 86 70 65 142 128 125 
169 156 155 189 175 167 206 189 160 206 189 160 202 187 162 198 184 163 186 172 157 179 165 156 
179 167 164 169 158 158 143 133 135 95 86 90 70 62 63 42 35 35 9 3 2 15 5 1 
34 22 13 67 53 38 148 132 115 194 174 157 194 172 152 191 165 145 182 153 133 166 136 116 
162 129 111 152 120 105 133 106 98 125 101 93 121 101 92 118 106 94 68 60 49 36 34 23 
23 26 14 10 15 5 2 7 1 1 4 0 2 3 0 24 21 17 62 52 47 71 57 52 
67 48 43 54 30 26 55 29 23 55 27 19 53 25 15 59 32 20 58 34 19 52 30 14 
40 19 5 43 21 8 57 31 18 70 44 31 79 53 41 86 60 48 91 62 53 95 64 57 
95 63 56 85 50 45 73 36 32 63 24 20 63 20 16 70 22 18 82 29 25 99 43 36 
124 63 53 150 84 71 165 95 79 168 93 74 165 87 65 165 83 59 168 84 58 172 86 58 
172 86 57 175 86 63 177 87 70 178 90 73 173 89 73 167 88 71 160 84 68 148 79 64 
136 73 58 126 68 53 118 65 49 108 59 42 88 43 25 96 53 34 115 73 52 142 101 77 
179 136 110 209 165 135 218 174 140 213 166 130 206 156 117 199 147 106 208 156 112 219 165 120 
227 172 126 221 181 134 216 187 140 215 186 139 213 183 136 211 181 135 212 181 137 213 183 139 
214 186 143 217 190 148 219 193 152 221 195 154 222 197 157 229 206 168 234 213 176 234 216 178 
236 221 184 239 225 189 241 229 194 242 233 198 242 236 201 242 238 204 240 237 202 239 236 201 
238 236 201 243 241 208 245 242 210 242 239 205 242 237 202 243 235 199 244 233 195 243 228 188 
236 218 176 224 203 160 213 188 146 194 164 123 170 136 95 209 170 129 230 188 148 237 191 154 
240 190 154 235 182 149 225 170 139 214 156 129 203 143 119 192 131 109 189 126 106 157 93 75 
111 47 32 101 54 48 81 39 38 55 16 15 49 13 12 45 12 11 43 12 11 43 16 16 
43 17 19 41 17 20 37 14 16 38 13 17 40 13 18 41 11 15 45 9 15 51 9 15 
59 11 17 69 14 20 80 17 23 89 18 23 96 19 23 106 23 26 125 34 39 129 35 40 
122 33 37 98 31 32 91 33 32 91 38 36 92 48 45 67 31 26 40 12 6 29 13 5 
21 14 5 16 16 5 15 20 9 13 22 10 10 22 11 5 19 8 3 17 6 3 16 5 
4 18 7 9 22 12 13 26 15 16 29 17 13 27 14 10 26 13 12 27 14 15 31 18 
31 41 30 69 63 58 79 69 65 84 73 66 89 75 66 82 65 53 76 55 40 73 48 30 
108 80 58 136 105 80 148 113 85 156 120 90 152 114 83 129 90 58 98 58 29 87 48 21 
104 67 38 109 72 46 108 74 50 103 71 48 101 70 51 99 69 53 98 69 54 112 85 71 
128 99 82 143 110 86 152 120 97 162 131 109 173 143 122 182 155 134 194 170 150 209 187 168 
217 198 180 224 209 192 232 219 202 240 227 213 242 231 217 240 230 216 243 233 220 242 232 219 
240 229 217 246 233 221 221 208 195 176 162 149 167 152 138 154 138 123 140 124 108 137 119 104 
131 116 101 125 115 101 131 122 107 151 141 126 178 167 153 203 193 178 215 203 189 218 206 192 
220 208 195 215 201 190 205 190 179 191 176 167 185 170 161 180 163 155 157 139 133 115 97 91 
70 51 46 48 28 23 36 14 10 29 6 2 28 5 1 31 7 5 33 8 7 29 5 4 
33 5 8 38 7 15 42 10 17 47 14 17 52 17 17 58 17 17 67 18 16 77 20 17 
89 23 21 103 28 27 114 33 33 118 36 38 110 32 34 102 30 30 99 33 33 97 41 37 
93 46 38 85 40 31 73 25 16 68 16 5 80 19 6 114 38 26 149 60 48 175 79 68 
186 95 78 191 107 87 194 116 97 198 132 116 210 156 143 235 193 182 246 223 215 253 243 237 
254 249 245 253 246 243 252 239 237 250 231 227 194 167 161 152 117 109 134 92 84 151 103 94 
154 102 93 135 83 73 123 73 64 110 64 56 96 55 48 60 26 20 38 8 3 31 4 1 
34 12 9 40 19 17 49 25 24 71 41 42 96 61 64 125 85 89 122 77 83 118 71 78 
114 65 73 115 69 76 105 63 69 85 47 53 44 16 17 23 2 1 21 4 2 27 14 12 
36 27 23 47 40 35 53 46 41 57 49 45 61 52 49 85 74 73 100 87 86 106 93 93 
102 96 100 97 96 102 92 96 101 85 97 100 87 106 106 93 118 116 98 128 123 101 132 127 
110 138 135 152 174 173 183 196 199 209 213 219 242 237 245 252 237 247 249 225 236 245 211 224 
223 183 196 199 155 166 199 155 164 200 155 163 199 155 161 194 151 154 188 146 149 175 132 135 
140 89 93 138 84 90 140 85 92 113 58 65 96 43 50 82 34 41 67 27 33 67 37 42 
73 52 55 77 68 67 57 54 51 37 35 31 34 27 23 44 27 24 61 31 29 86 40 40 
106 46 47 123 51 53 137 58 57 146 63 62 154 70 67 159 78 73 174 96 89 186 113 108 
186 127 129 211 156 159 207 157 159 145 102 103 101 65 65 71 41 39 58 35 32 61 43 40 
63 50 47 61 52 48 
46 11 12 47 9 10 87 38 40 102 48 49 100 43 44 87 26 23 94 28 23 111 39 32 
113 39 27 122 44 29 132 52 33 138 57 35 140 60 34 139 62 32 135 62 31 129 62 30 
125 63 29 125 68 32 135 83 45 149 101 62 161 117 81 183 141 106 203 163 129 208 169 138 
213 174 144 217 179 151 216 187 167 219 191 172 221 192 174 223 193 173 222 191 171 222 190 168 
221 188 165 218 184 160 213 178 154 204 169 144 195 159 135 184 148 126 172 136 114 154 121 101 
136 105 88 122 92 78 103 76 64 86 62 52 75 53 47 71 51 46 84 66 64 129 114 113 
149 134 135 168 153 147 194 175 149 185 166 139 168 150 126 147 130 110 116 100 86 95 80 72 
90 77 75 88 76 78 77 67 71 54 45 50 38 30 34 23 15 18 8 1 1 13 4 1 
32 20 13 65 50 39 147 130 117 192 172 158 191 168 152 188 162 145 180 152 135 167 137 120 
161 128 113 148 118 105 129 106 96 125 104 94 123 107 96 123 113 100 77 74 61 45 48 35 
27 35 21 11 20 7 2 11 1 1 6 0 2 6 0 20 20 14 50 43 37 65 52 46 
58 40 35 38 14 10 43 17 11 49 22 14 56 28 18 62 35 22 60 36 21 52 31 14 
46 27 10 51 29 14 64 37 24 77 50 38 86 58 47 92 64 53 95 64 56 95 63 56 
93 60 53 83 46 42 72 32 29 63 22 19 65 20 17 72 23 19 83 29 25 100 41 35 
124 61 52 149 82 69 165 93 78 168 92 74 166 87 65 166 83 60 169 84 57 171 85 56 
170 82 54 174 84 61 178 86 69 178 89 73 175 90 73 169 89 73 163 86 71 153 82 68 
142 78 63 132 73 58 123 69 53 109 60 43 82 36 19 88 45 26 105 64 42 129 88 64 
169 128 100 204 161 131 217 174 139 213 167 131 205 157 118 195 145 104 206 155 110 219 166 120 
228 176 128 226 183 139 222 187 146 220 185 144 218 182 142 216 181 141 215 180 142 216 183 144 
218 186 148 221 189 152 223 193 157 224 196 160 225 198 163 230 206 173 234 213 180 235 216 183 
236 221 188 238 226 193 240 231 198 241 235 202 241 238 205 241 239 207 238 238 206 237 238 205 
236 238 205 238 239 210 239 239 212 237 236 208 240 236 207 242 236 204 244 235 201 242 229 192 
228 211 172 204 182 142 185 160 119 167 137 96 153 117 76 201 160 119 228 183 142 237 188 148 
240 187 149 235 179 143 225 165 132 215 153 121 207 142 113 200 134 108 197 129 105 183 114 90 
163 94 73 148 95 87 108 63 60 58 15 13 51 11 9 46 8 7 41 7 7 41 12 11 
39 13 13 36 12 13 31 8 10 31 8 10 34 9 12 37 9 13 43 9 14 50 10 15 
59 11 17 70 14 21 80 17 23 88 17 23 96 18 23 106 22 26 127 34 41 133 37 44 
127 35 41 101 34 34 93 35 34 92 39 36 91 47 44 67 31 26 40 12 5 29 12 4 
20 13 3 15 15 3 12 19 7 11 21 9 9 21 10 5 20 9 3 17 6 3 15 4 
3 16 6 7 21 10 11 25 14 15 29 16 14 29 16 12 28 15 12 29 15 14 31 17 
23 35 24 48 43 39 57 48 43 63 52 45 70 56 47 69 53 41 68 48 33 66 41 23 
98 70 49 125 94 69 137 103 74 146 109 79 142 104 73 123 84 52 98 58 29 89 50 22 
102 64 35 109 72 46 109 73 50 102 69 46 99 67 48 98 67 51 99 70 55 110 82 68 
122 93 76 136 101 77 146 111 88 156 123 100 166 134 112 174 145 123 185 159 138 199 177 157 
208 189 170 218 202 184 228 214 198 236 223 209 239 228 214 238 229 214 241 231 218 240 230 217 
237 226 214 238 227 215 214 202 189 174 160 147 165 150 136 152 136 123 140 123 108 141 123 109 
137 123 108 131 122 106 136 127 111 155 145 129 183 172 157 210 199 184 219 208 194 219 206 192 
218 205 193 213 200 188 206 191 181 196 180 171 187 171 163 177 159 151 152 133 126 108 88 82 
63 41 36 47 25 20 40 17 13 37 12 10 35 11 7 36 11 8 37 11 9 32 5 4 
32 4 7 35 4 11 39 7 14 45 11 14 51 15 15 60 18 18 69 19 18 80 22 19 
93 25 24 105 29 28 114 32 33 120 36 38 113 33 35 105 31 31 100 33 33 97 40 37 
93 44 37 85 38 29 75 24 15 72 15 5 85 20 7 120 39 28 156 61 51 183 81 71 
191 103 85 195 120 96 196 126 104 203 143 125 216 167 152 237 200 187 247 223 214 252 239 233 
253 244 240 252 241 238 252 236 234 251 230 227 210 178 173 174 131 124 147 97 89 138 82 73 
130 72 61 122 65 52 114 62 50 105 58 46 93 53 42 57 25 17 35 9 2 30 6 1 
30 8 4 34 12 9 41 17 15 59 31 30 79 47 48 102 65 68 101 62 65 99 58 62 
96 54 59 128 88 93 127 91 94 95 64 66 46 23 22 21 4 1 18 4 1 18 7 4 
25 15 12 36 26 22 44 31 29 53 37 36 66 45 45 103 79 80 126 98 102 137 107 112 
123 94 107 114 89 105 107 89 104 100 93 104 100 103 110 104 115 120 101 119 121 96 116 117 
96 116 117 134 148 150 170 177 182 205 204 211 240 227 237 248 226 238 242 212 225 235 198 212 
212 172 185 188 147 157 189 149 156 186 148 153 181 146 149 174 143 142 168 139 137 159 127 126 
132 86 89 132 82 87 133 83 88 105 54 60 85 37 43 68 26 32 54 21 26 61 37 40 
73 59 60 82 79 76 52 53 48 23 25 20 26 25 18 38 26 21 56 30 27 82 39 38 
102 45 46 120 51 52 135 58 57 145 64 62 153 71 67 158 79 72 172 96 87 183 112 106 
185 126 128 208 152 155 203 151 153 143 98 100 104 65 65 76 44 43 64 39 37 64 45 42 
63 50 46 60 50 47 
48 13 13 48 11 12 87 38 41 102 47 50 100 43 44 87 26 23 94 28 24 111 40 33 
114 39 28 123 45 30 134 53 34 139 58 35 141 61 35 140 63 33 137 64 33 133 65 32 
128 66 31 127 70 33 132 79 41 140 91 53 148 102 67 172 128 94 197 154 122 201 159 129 
205 164 135 209 169 142 208 176 156 210 179 161 212 180 163 214 181 162 214 180 160 213 178 157 
212 176 153 208 171 148 202 164 140 193 154 130 182 143 121 172 133 112 160 123 101 146 110 92 
131 98 82 117 85 73 99 71 61 84 58 51 73 50 45 66 45 42 73 54 53 105 89 91 
116 101 104 129 113 109 154 134 109 144 124 98 127 107 83 104 86 67 71 53 40 46 30 23 
38 23 22 38 25 28 36 24 30 27 17 24 18 9 15 11 3 7 7 0 1 13 4 2 
30 18 13 60 46 38 140 122 112 184 163 152 183 160 146 181 156 141 174 147 132 163 133 120 
157 125 112 144 115 103 124 103 93 122 103 93 119 106 94 116 110 96 72 71 58 42 47 34 
26 37 22 11 22 8 2 13 2 2 9 1 4 10 3 20 21 14 45 39 32 64 52 45 
55 37 32 28 4 1 36 10 4 47 19 11 58 31 20 64 38 25 62 38 22 54 34 16 
55 36 17 60 38 21 68 41 27 82 53 41 91 61 50 96 66 55 96 65 57 95 62 55 
91 57 51 82 44 40 72 32 29 66 23 21 70 23 21 76 26 23 85 31 27 102 42 36 
125 61 52 150 82 70 167 93 79 170 93 75 168 89 67 169 85 62 171 85 59 172 85 57 
171 82 54 174 83 60 178 86 69 178 89 73 175 89 73 171 89 73 164 87 71 156 84 69 
146 81 66 136 77 61 127 73 56 111 62 45 80 35 17 83 40 21 96 56 34 117 76 52 
160 120 92 198 158 127 216 173 139 212 168 131 204 158 118 193 145 103 204 154 109 217 167 119 
229 177 129 229 185 143 227 188 151 224 184 149 222 182 147 220 180 146 217 180 145 219 182 148 
221 186 152 223 189 156 225 193 160 226 196 165 226 199 168 231 206 176 234 212 182 234 216 186 
235 221 190 237 225 195 239 231 201 240 235 204 239 238 207 239 239 209 236 239 208 235 239 208 
235 239 208 235 238 213 235 237 214 234 235 211 238 236 211 242 237 209 246 238 208 244 233 199 
230 214 178 205 183 145 186 161 120 165 135 94 147 111 69 199 158 116 228 182 140 238 186 145 
239 184 144 232 174 135 218 157 120 203 139 103 203 135 102 210 140 110 205 133 104 200 127 99 
194 122 96 179 123 113 129 81 78 66 21 17 58 16 12 51 11 9 44 8 7 41 12 10 
38 11 10 33 9 8 28 5 6 27 5 7 30 6 9 35 8 12 41 9 14 49 11 15 
59 12 18 70 15 21 80 17 24 88 17 23 95 17 23 106 21 26 129 34 42 136 37 46 
131 36 43 103 35 36 95 37 35 93 40 37 91 47 43 66 30 25 39 12 5 28 12 3 
20 12 2 14 14 2 10 17 4 9 20 8 8 21 10 6 21 9 4 18 7 3 15 4 
3 15 4 5 18 8 8 23 12 12 27 14 13 28 15 13 29 16 12 30 16 13 31 16 
18 30 19 33 28 25 40 31 27 47 35 29 55 41 32 59 42 31 62 42 27 64 39 22 
92 64 43 116 85 60 127 93 65 136 100 70 133 95 64 113 74 43 95 55 27 89 50 22 
98 61 32 108 70 45 109 73 50 101 67 45 97 65 46 96 66 49 99 70 55 107 80 65 
118 88 71 133 96 72 142 105 82 150 115 93 159 126 103 166 136 113 176 149 127 187 164 144 
198 179 159 210 193 175 222 209 192 231 218 204 236 225 211 238 228 214 240 231 217 240 230 217 
237 227 214 234 223 211 213 202 189 181 168 155 171 157 143 158 143 129 146 129 115 149 132 118 
151 137 122 152 143 126 148 140 122 166 157 140 197 187 170 218 207 192 223 211 197 218 206 192 
214 201 189 208 195 183 201 187 176 194 178 168 185 168 160 174 155 148 149 130 122 106 84 79 
61 38 34 47 23 19 42 17 14 40 15 12 38 12 10 40 13 10 40 12 10 35 7 5 
33 3 6 33 2 9 37 5 12 43 10 13 51 14 14 61 18 18 71 20 18 82 22 19 
93 24 23 104 27 27 114 32 32 121 35 38 116 34 36 108 32 34 103 34 35 99 40 37 
94 43 36 86 36 28 77 23 15 75 16 6 90 21 10 126 41 30 162 63 53 189 83 74 
200 114 95 207 139 112 210 147 121 215 162 140 224 181 162 238 204 189 242 218 208 243 227 220 
241 228 224 241 226 223 242 223 221 244 220 218 216 180 175 186 138 131 154 98 90 132 70 60 
118 55 43 114 53 39 110 55 41 103 55 41 93 52 39 57 26 16 35 11 2 29 8 1 
27 6 1 29 7 4 35 11 8 50 22 21 65 34 34 82 48 49 84 48 49 83 47 49 
81 44 47 141 108 110 152 122 123 117 91 91 66 48 45 37 23 19 24 13 9 17 7 4 
18 8 5 27 15 12 36 19 18 49 26 27 65 36 39 102 67 72 124 85 92 135 93 101 
127 80 100 119 75 99 112 76 98 106 83 101 106 96 109 108 109 118 98 108 114 87 101 105 
81 95 99 107 115 120 142 144 151 184 178 187 230 212 223 241 214 227 234 200 214 225 188 201 
204 165 177 182 143 152 181 145 151 175 143 146 167 139 140 157 135 131 151 131 126 144 121 117 
124 82 84 124 77 81 123 75 80 96 48 53 74 30 35 55 17 23 44 15 19 56 36 38 
73 64 64 88 89 85 51 56 50 15 20 14 22 23 17 35 26 20 53 30 26 79 39 37 
100 45 45 118 51 52 134 59 57 144 65 63 152 72 68 157 81 73 170 96 87 182 112 105 
186 126 128 205 148 151 197 144 147 140 92 94 105 65 65 81 48 47 68 43 40 65 47 43 
63 50 46 60 50 46 
50 15 15 49 12 13 87 38 41 101 47 50 100 43 45 87 26 24 95 28 24 112 40 34 
115 40 29 124 45 30 135 53 35 140 58 36 142 61 35 141 63 34 138 65 34 135 66 33 
131 68 33 128 71 34 130 77 40 135 84 48 137 91 56 161 117 83 188 145 112 193 151 121 
198 156 127 201 160 133 197 162 143 198 164 148 200 165 149 202 166 147 202 164 144 201 162 142 
198 160 139 194 155 133 189 148 125 178 136 114 167 126 104 155 115 94 140 101 81 130 93 75 
120 84 70 107 76 63 92 63 54 78 51 45 65 42 38 53 32 29 51 32 32 70 53 57 
71 55 60 73 56 53 81 61 36 81 60 35 79 58 36 75 55 38 56 37 26 39 22 16 
31 16 15 28 14 18 24 12 18 17 6 14 12 3 9 8 0 5 7 0 0 14 5 4 
30 17 14 54 39 32 126 108 100 168 148 137 170 148 136 169 144 132 164 136 125 154 124 113 
150 118 108 139 111 100 119 100 89 115 99 88 108 97 84 97 92 78 50 51 37 24 31 17 
19 31 16 8 21 7 3 15 3 3 14 3 9 16 8 24 26 18 48 42 35 70 58 51 
59 41 37 26 3 1 35 9 3 47 19 11 61 33 23 66 40 27 64 40 25 58 38 20 
65 47 27 68 46 28 70 40 27 82 53 41 91 61 50 96 65 55 96 64 56 94 60 54 
91 55 49 82 44 40 76 34 32 72 28 26 78 30 28 83 32 29 91 35 31 105 45 40 
128 64 55 153 84 72 170 96 82 174 97 79 173 93 72 174 90 66 175 90 63 176 89 61 
173 85 56 175 85 62 178 86 70 178 88 72 175 88 72 170 88 72 163 86 70 156 84 70 
149 82 68 139 79 64 130 76 60 114 66 48 84 38 21 82 39 19 91 50 28 107 67 43 
153 113 85 194 155 123 213 172 137 211 168 130 202 158 117 193 146 104 202 154 108 215 166 117 
228 178 129 232 185 145 231 188 155 228 184 151 225 182 150 222 180 148 220 180 148 221 181 150 
222 184 153 224 188 158 226 193 162 227 196 167 227 199 171 231 206 177 233 211 182 231 214 186 
233 220 190 235 225 195 237 230 202 237 234 205 237 237 207 236 239 209 234 239 208 234 239 209 
234 240 209 234 238 215 234 236 217 233 235 214 238 237 214 244 240 214 250 243 215 251 240 209 
245 229 195 231 210 172 220 195 155 192 161 121 154 116 75 205 163 120 231 185 142 238 186 144 
236 180 139 225 165 124 205 142 103 179 113 76 190 121 86 223 152 118 213 140 107 206 132 100 
201 127 98 190 132 122 143 93 90 81 33 29 71 25 22 61 20 17 53 16 14 46 15 13 
39 12 11 33 9 8 29 7 7 29 6 7 30 6 9 34 8 12 41 10 14 49 11 16 
60 14 19 70 15 22 80 17 23 88 17 24 95 17 23 106 20 25 130 34 43 138 38 47 
133 37 45 104 36 37 95 37 35 93 40 38 92 48 43 66 30 24 39 12 4 27 12 2 
19 12 1 13 14 1 9 16 2 8 19 6 8 22 9 8 23 10 6 21 8 3 17 6 
3 14 3 3 15 5 4 18 7 7 23 10 10 26 13 12 28 15 11 30 15 12 31 16 
15 28 16 23 18 15 30 20 17 36 24 20 45 31 22 52 35 23 59 39 24 68 44 26 
91 62 41 109 77 53 118 83 57 129 92 63 125 86 56 100 61 30 90 49 21 88 48 21 
95 58 29 106 68 43 108 72 49 100 66 44 96 64 45 95 65 48 99 69 54 104 77 62 
115 85 68 133 95 71 139 102 79 145 110 87 152 119 95 159 129 106 166 139 117 174 149 129 
187 166 147 201 184 166 216 202 186 225 212 197 233 222 207 240 230 216 242 232 219 242 232 220 
240 231 218 234 223 211 220 208 196 200 188 174 188 173 160 173 158 144 159 143 129 162 145 131 
175 161 145 189 180 163 170 161 144 187 177 160 222 211 195 227 217 201 225 213 198 217 204 190 
209 195 182 200 185 173 190 175 164 184 167 156 178 160 151 171 152 145 151 130 123 109 87 82 
65 42 38 48 23 20 40 15 12 37 12 9 37 10 8 40 11 10 42 13 11 38 8 7 
34 5 7 32 2 9 37 5 12 44 10 13 52 14 15 61 17 17 71 20 18 80 21 18 
87 18 17 101 24 23 115 30 31 122 35 38 118 36 38 112 35 37 106 36 37 100 40 38 
95 42 36 87 35 28 78 24 15 78 17 7 94 22 12 130 43 33 166 66 56 194 85 77 
214 129 109 229 166 136 236 178 150 236 187 162 235 195 174 236 205 188 230 207 196 224 206 199 
216 201 197 218 199 197 222 199 197 230 199 198 212 169 165 187 134 128 155 95 88 133 68 58 
118 52 40 112 48 34 110 54 39 104 56 41 95 54 40 59 29 16 36 14 2 29 11 2 
25 5 1 26 4 2 32 7 4 42 15 13 53 24 23 66 34 33 71 37 37 72 37 38 
72 38 38 156 127 127 181 155 155 150 128 126 109 94 90 72 61 56 40 31 26 24 15 11 
19 8 5 22 7 5 31 10 10 43 16 18 58 24 28 81 38 45 92 45 53 97 46 57 
110 51 76 111 54 82 104 56 82 102 70 90 103 84 100 104 97 109 90 94 101 76 86 91 
65 76 81 70 76 81 98 97 104 143 133 143 211 190 203 230 201 215 225 189 204 218 180 194 
200 161 173 181 143 152 176 143 148 168 140 142 158 135 133 145 128 122 137 124 116 130 114 107 
117 77 79 114 68 72 108 62 67 85 40 44 63 21 26 44 8 13 36 10 13 52 35 37 
75 69 68 95 99 96 55 62 56 15 22 15 20 24 17 33 26 21 51 30 27 77 38 36 
98 45 44 116 51 51 133 60 58 144 66 63 152 73 68 158 83 75 170 97 87 181 112 104 
189 127 130 202 144 148 190 136 139 133 85 87 105 63 64 84 50 50 70 46 42 66 47 43 
63 49 45 62 51 46 
57 21 18 59 21 18 90 40 43 100 45 49 98 41 41 92 32 27 97 34 23 108 40 24 
115 44 22 126 53 25 138 63 29 142 68 28 143 70 28 142 72 28 140 74 28 138 76 28 
136 77 28 133 78 29 133 80 33 136 84 40 143 92 53 165 113 79 188 135 107 193 139 117 
196 142 123 197 144 126 193 149 126 193 152 127 195 153 128 197 155 129 198 156 130 198 155 129 
193 150 125 186 143 119 177 134 113 166 124 107 158 117 103 147 107 96 127 91 83 117 83 78 
108 78 74 95 69 66 84 62 60 72 55 51 59 47 40 44 35 27 33 28 19 31 29 21 
27 26 21 26 23 18 28 23 12 28 22 12 27 22 12 27 21 14 20 16 11 14 10 8 
11 8 8 10 7 9 9 7 10 7 6 9 7 4 8 5 2 5 3 0 0 11 5 4 
25 16 14 48 37 32 122 108 101 161 144 136 156 136 127 153 131 120 148 124 113 141 115 104 
137 110 98 127 102 90 111 93 79 105 88 74 96 81 67 86 73 59 41 31 23 19 11 6 
18 12 6 18 10 3 23 14 6 32 22 14 40 28 21 51 36 30 65 47 41 74 54 48 
64 41 36 40 15 10 37 10 4 45 18 10 60 32 22 64 37 26 63 37 25 61 36 23 
74 49 35 77 52 37 75 51 35 88 61 47 97 67 54 103 69 57 106 67 57 97 54 46 
85 37 30 86 33 28 86 29 25 85 27 22 91 29 24 97 33 27 104 38 30 110 43 33 
132 62 49 157 86 70 168 94 76 172 96 74 174 95 71 177 95 69 179 95 67 180 93 64 
177 90 61 177 89 62 178 89 65 176 88 65 170 86 64 164 84 64 158 82 63 152 82 64 
146 82 65 139 81 65 128 78 62 110 66 50 75 35 20 70 34 16 75 42 21 85 52 29 
142 108 81 193 157 127 211 169 137 214 167 132 213 159 122 209 148 110 213 147 107 219 149 107 
227 153 111 225 171 127 223 184 139 223 184 140 222 186 141 220 187 142 217 187 142 215 188 143 
214 191 146 216 196 152 216 201 158 217 205 162 217 208 167 222 217 176 225 223 183 224 225 186 
226 229 191 228 232 195 230 236 201 231 239 204 233 241 207 233 242 210 233 242 210 233 242 211 
233 242 211 237 240 212 239 238 211 238 237 210 239 237 209 241 239 209 244 241 209 245 241 207 
242 235 200 234 225 187 219 207 167 197 181 141 173 153 113 208 184 142 228 198 156 235 199 157 
226 184 143 208 159 118 182 128 88 167 107 69 177 111 74 202 132 96 208 135 99 209 133 97 
205 128 95 190 128 109 160 105 92 123 70 59 103 54 44 78 34 26 54 15 10 44 11 7 
37 9 8 32 8 10 27 4 9 24 3 10 25 3 12 28 5 14 34 7 17 41 8 18 
50 10 18 61 13 20 73 17 23 85 21 25 94 22 24 101 23 23 115 30 30 127 37 37 
129 42 41 104 40 35 96 41 36 95 44 39 93 51 47 68 34 31 40 15 12 27 13 9 
17 11 7 9 10 6 5 12 6 4 14 7 4 16 8 6 20 10 6 19 8 5 17 6 
3 13 2 2 10 2 2 10 3 3 13 4 8 18 7 13 22 11 15 25 13 14 24 13 
15 21 12 20 14 11 22 12 9 27 14 8 39 21 10 59 37 18 75 48 23 83 50 22 
96 61 28 108 71 35 117 79 41 129 90 52 128 91 53 110 75 40 90 57 26 79 49 20 
80 53 26 89 62 36 94 66 43 95 66 43 94 63 41 94 61 41 96 62 41 112 77 56 
122 88 65 125 92 67 135 103 79 144 113 89 151 122 97 156 128 105 163 137 115 172 148 127 
183 161 141 196 176 158 211 194 176 227 211 195 235 221 206 238 225 210 240 227 214 237 225 213 
230 219 207 229 218 207 218 206 196 199 188 177 193 182 171 183 172 162 172 161 151 176 165 155 
186 176 166 199 190 181 198 188 178 208 198 187 223 212 201 225 213 200 222 208 194 215 199 185 
210 192 177 202 184 169 194 175 160 185 165 149 174 152 137 161 138 125 146 122 110 117 94 83 
83 60 51 57 34 27 43 20 15 36 14 10 33 11 9 32 10 9 30 9 9 27 6 6 
28 3 11 31 2 16 33 3 15 38 5 15 45 9 17 56 15 21 68 19 22 78 21 23 
87 20 21 98 23 25 110 28 30 118 33 36 119 35 39 116 37 40 110 39 41 101 39 37 
91 37 32 81 31 24 74 23 13 74 20 8 91 28 16 123 49 36 155 72 59 183 93 81 
209 146 128 230 188 164 238 196 173 241 201 179 242 201 181 239 197 178 232 189 172 228 183 166 
227 180 164 228 175 161 227 171 157 227 166 151 207 141 127 187 117 103 168 96 82 125 54 42 
105 36 25 117 51 37 127 68 54 129 77 64 123 76 64 76 35 25 46 11 2 37 6 1 
31 3 1 29 2 2 33 4 5 38 10 12 43 17 18 49 24 25 50 29 29 53 34 34 
60 43 42 147 135 133 180 171 168 162 154 151 124 118 115 80 75 73 34 28 26 25 16 16 
23 9 11 25 6 10 31 7 13 37 8 15 44 10 17 55 16 24 62 19 29 66 20 32 
72 25 38 73 30 42 73 36 46 79 55 61 94 79 82 108 103 102 90 95 89 67 76 68 
43 53 45 37 43 36 69 69 64 125 117 115 197 177 178 218 188 192 215 178 184 223 179 186 
208 160 167 187 137 143 182 134 139 174 129 133 164 122 124 150 114 113 143 110 108 132 100 99 
101 61 70 86 46 59 75 38 50 53 23 32 39 16 24 33 16 24 41 32 39 52 48 54 
65 64 70 83 83 88 53 50 55 24 14 20 31 11 18 45 14 21 64 21 28 89 31 38 
107 39 46 122 46 52 132 52 54 142 60 60 152 68 66 159 79 73 169 90 83 179 103 97 
188 121 120 198 135 134 186 127 126 133 81 78 106 61 58 85 48 46 70 42 38 63 42 38 
59 43 40 58 47 44 
62 26 21 65 27 22 93 43 45 102 46 49 99 41 40 96 36 28 100 37 23 108 42 21 
117 48 21 129 59 24 142 70 29 146 74 28 146 76 27 144 77 26 142 79 26 141 81 27 
140 82 27 136 82 28 135 81 30 136 83 36 143 90 48 160 106 70 179 122 94 185 127 106 
188 129 112 189 130 114 184 136 110 183 138 109 184 139 109 186 141 111 187 143 113 186 143 113 
179 137 108 169 127 101 158 117 96 150 111 94 143 105 94 132 97 90 114 82 80 104 75 76 
95 70 72 82 62 65 74 57 59 64 52 52 51 44 38 36 33 24 22 22 11 10 14 2 
4 9 1 1 5 0 1 3 0 1 3 0 1 3 1 1 4 1 1 4 2 1 4 3 
1 3 3 1 3 4 1 4 5 2 5 5 4 5 6 3 3 4 1 0 0 10 5 4 
23 16 14 43 34 30 114 102 96 150 135 128 143 125 117 140 120 111 136 114 103 129 106 94 
126 101 89 118 95 82 105 89 73 97 81 65 89 71 57 79 61 48 36 21 16 18 1 0 
21 3 1 26 6 1 35 15 9 49 28 21 58 35 29 65 42 36 72 48 42 74 50 44 
65 39 34 47 20 14 37 11 5 42 16 9 57 30 20 60 33 23 60 33 22 60 33 22 
75 48 36 80 55 41 80 58 41 91 66 50 98 69 55 103 69 55 107 66 55 96 48 39 
80 26 19 88 27 22 91 28 22 94 28 22 101 32 25 106 36 27 111 40 29 113 41 29 
133 61 46 158 86 67 166 93 72 170 95 71 174 96 69 178 98 69 180 97 68 181 96 67 
179 93 64 178 92 63 177 91 63 174 89 62 168 85 60 160 82 59 155 80 59 150 81 62 
144 82 64 139 83 66 128 79 64 108 67 52 71 35 20 64 31 15 65 36 17 71 42 21 
134 103 78 191 156 129 210 168 138 216 166 133 219 160 125 216 149 113 217 142 105 219 137 100 
223 136 99 219 159 114 217 178 127 218 179 130 219 185 135 219 189 138 216 189 139 213 191 140 
212 195 143 213 200 150 212 205 155 212 209 160 212 213 164 218 222 175 222 228 183 222 230 186 
223 233 191 225 236 196 227 239 201 230 241 204 231 243 208 233 244 211 233 243 211 234 243 212 
233 243 212 238 240 211 241 239 209 239 237 208 237 237 206 237 238 205 238 239 205 241 240 206 
240 239 203 238 235 197 224 220 181 210 203 163 197 187 146 215 200 158 228 207 165 235 208 166 
222 187 146 200 158 117 172 123 83 162 106 67 172 109 71 194 125 88 207 133 97 212 135 99 
210 132 98 193 129 106 173 116 98 151 96 81 126 76 62 89 44 34 50 11 5 42 8 4 
37 8 7 33 8 12 25 4 11 22 2 12 21 2 14 24 3 15 29 5 18 36 7 20 
44 8 17 55 12 19 68 17 23 84 23 26 92 24 24 98 24 22 106 27 23 120 36 31 
127 45 38 104 43 35 97 43 36 95 45 40 94 52 48 69 35 33 41 16 16 27 13 13 
16 10 10 7 7 8 3 9 8 2 11 8 3 13 8 5 17 9 6 18 8 6 17 6 
4 14 2 2 9 1 1 6 0 1 7 1 7 13 3 13 18 7 16 21 11 15 19 10 
14 16 10 17 12 10 17 8 5 21 9 1 34 16 2 59 35 15 79 49 22 87 52 20 
97 60 23 107 67 28 115 75 33 127 90 48 129 94 54 114 83 47 89 61 29 73 48 20 
70 49 24 77 56 32 84 61 39 90 64 43 91 62 40 92 59 37 94 58 35 115 77 54 
124 88 64 119 90 63 132 103 77 143 114 88 150 122 97 154 128 104 161 136 113 170 146 124 
179 156 136 190 169 150 204 184 165 221 203 186 229 212 197 229 214 200 233 219 206 231 217 206 
224 213 201 227 215 205 220 209 199 206 196 187 207 197 188 202 192 183 193 184 176 194 186 177 
199 190 183 205 197 190 215 205 197 220 210 201 223 212 203 223 209 198 219 203 190 213 195 181 
207 188 172 200 180 162 191 170 152 174 152 133 162 139 120 152 128 111 141 116 101 119 95 82 
92 69 58 61 39 30 43 23 16 33 14 10 30 11 9 26 9 9 24 8 8 21 5 6 
25 3 12 29 2 20 30 2 17 34 3 17 41 6 18 53 15 23 65 19 25 77 21 25 
86 21 24 97 23 26 107 27 29 116 31 34 119 36 39 118 39 42 114 42 43 102 40 38 
90 36 31 80 31 22 72 24 13 73 23 10 91 34 20 121 54 40 152 76 62 179 98 84 
207 153 136 229 195 175 239 202 182 243 203 184 243 199 179 237 186 166 228 171 151 222 159 138 
222 154 133 219 146 125 214 138 117 208 128 107 193 113 93 181 100 82 172 93 76 127 52 38 
111 39 28 135 67 53 150 88 76 156 99 88 149 97 87 92 43 35 56 12 5 46 5 2 
35 3 2 31 2 2 32 2 4 33 5 9 34 10 13 35 15 17 34 19 20 36 25 24 
41 34 33 130 127 124 169 169 165 163 164 159 144 143 141 102 100 99 44 40 39 33 23 26 
28 13 18 29 8 15 32 8 16 34 5 14 34 2 10 38 3 12 43 4 15 48 6 19 
49 10 16 50 14 17 52 21 22 60 39 38 77 65 60 95 91 83 80 85 72 58 67 52 
33 43 28 20 27 13 50 52 40 107 100 91 175 157 152 198 170 168 201 164 164 220 174 177 
210 159 163 191 137 141 186 131 136 174 121 125 158 108 111 137 92 93 125 83 83 110 70 73 
75 38 51 59 25 40 47 18 33 30 11 22 25 14 23 30 26 34 53 55 62 57 61 68 
57 61 68 64 64 73 44 36 46 26 8 20 35 5 18 51 9 21 69 17 28 93 28 40 
111 37 48 123 44 52 129 48 52 139 56 57 149 65 64 157 76 71 167 86 80 176 98 92 
185 116 111 194 129 125 182 121 116 132 78 73 105 59 54 85 47 42 70 40 36 61 38 35 
55 38 36 52 40 39 
65 29 25 69 30 26 96 46 48 105 49 51 101 43 41 97 36 28 101 37 24 111 44 24 
121 51 24 134 61 27 146 73 31 150 77 31 149 78 29 146 79 27 144 81 27 143 83 27 
142 84 28 137 82 29 135 82 31 134 82 34 135 84 40 146 94 55 160 107 74 171 114 88 
174 117 95 174 119 98 170 124 95 167 124 93 166 122 91 167 125 92 167 126 93 165 125 93 
157 119 89 143 107 79 131 96 73 129 95 76 121 90 75 112 83 73 101 75 71 91 68 68 
81 61 63 70 52 56 62 48 52 54 43 46 42 33 32 30 24 20 18 16 10 8 8 2 
3 4 0 1 3 0 1 4 0 1 3 0 1 3 0 1 4 0 0 3 1 0 2 1 
0 2 1 0 3 3 1 3 3 1 3 2 2 3 3 3 2 2 2 0 0 11 6 5 
24 16 14 41 30 27 102 89 84 136 120 113 133 115 108 132 112 102 128 106 95 120 96 83 
118 93 81 112 90 76 103 86 70 94 77 62 85 68 54 76 58 45 37 20 15 21 3 1 
26 6 1 29 9 2 37 18 10 51 31 24 59 37 32 64 41 36 67 43 38 70 46 40 
62 36 31 44 19 14 35 10 5 39 13 7 52 25 16 54 28 17 54 28 17 53 27 16 
68 42 30 77 53 39 82 62 44 91 66 52 94 66 52 95 62 49 99 59 47 89 42 33 
76 22 15 85 27 21 92 29 24 98 32 26 106 38 31 110 40 32 111 40 29 113 41 29 
132 61 46 156 85 66 165 92 70 169 94 70 172 95 68 177 97 69 180 97 68 181 96 67 
179 93 64 178 92 63 176 91 64 174 89 63 167 84 61 160 81 59 155 80 60 149 80 63 
144 82 65 140 84 68 129 81 66 110 68 55 74 38 23 63 30 15 61 31 14 66 37 17 
129 98 74 188 153 127 209 167 138 216 166 134 217 159 125 214 147 112 213 138 103 214 132 96 
216 131 94 213 152 108 212 168 120 212 169 122 218 178 132 221 185 138 219 186 139 216 189 141 
215 193 145 216 199 152 214 202 155 213 206 159 213 211 165 219 220 175 223 226 183 224 229 187 
226 232 192 227 235 197 230 238 202 232 240 206 233 241 209 235 243 211 235 242 212 236 241 212 
235 241 213 239 240 212 239 239 211 237 236 208 235 235 205 234 236 204 235 237 204 238 239 205 
240 240 205 241 240 203 237 234 197 231 226 187 223 215 174 224 210 169 230 210 169 238 212 171 
223 189 148 202 160 120 177 129 89 166 110 72 177 114 77 201 133 97 211 138 102 216 140 104 
215 139 105 200 137 114 183 127 109 164 110 94 140 90 76 94 49 41 43 4 2 41 8 5 
38 11 9 34 11 14 25 6 12 21 4 13 20 4 14 21 3 14 27 5 17 35 7 19 
41 8 16 53 12 19 68 17 23 83 23 26 91 24 24 97 24 21 105 26 22 118 35 29 
126 43 37 105 44 35 98 44 36 95 45 40 94 52 47 69 35 32 41 16 15 28 13 13 
16 9 10 7 7 8 3 9 8 2 11 8 3 14 8 4 17 9 5 18 8 6 18 6 
6 16 2 3 11 1 1 8 1 1 8 1 6 11 2 10 15 4 13 17 8 12 16 9 
11 14 9 13 11 12 12 7 5 17 7 1 30 15 2 52 31 13 70 44 19 81 49 18 
94 60 25 104 68 30 111 73 34 125 89 51 128 95 58 111 82 49 86 59 30 69 45 20 
65 44 22 72 50 29 78 57 36 85 62 42 87 61 41 90 60 39 91 59 37 111 76 54 
120 86 63 117 87 61 130 101 74 141 112 86 148 120 95 153 126 101 160 134 110 168 144 122 
175 152 131 182 161 141 192 173 154 206 187 170 213 196 180 214 199 184 221 206 193 224 211 198 
225 213 201 227 216 205 227 216 206 224 213 203 230 220 211 228 218 210 222 211 203 217 207 198 
212 203 194 208 200 192 219 210 201 223 213 203 222 211 201 221 208 195 216 201 187 209 192 176 
199 182 165 192 172 154 181 159 140 150 128 109 143 120 101 145 122 103 134 111 95 115 92 78 
90 68 56 59 39 29 41 22 15 30 12 7 27 10 8 25 9 8 23 8 8 20 5 6 
23 3 12 28 2 20 29 2 18 33 3 18 40 7 19 53 16 23 64 19 25 75 21 25 
85 22 24 96 24 26 106 26 29 114 31 33 118 36 38 119 41 43 117 45 45 104 43 40 
92 40 33 83 35 25 75 27 15 75 25 12 95 38 24 125 58 43 156 79 65 183 100 87 
208 149 132 228 186 167 239 195 176 242 195 175 239 188 168 230 173 154 216 153 133 204 136 115 
196 123 102 188 111 90 180 99 79 170 87 67 168 84 66 168 84 67 167 85 69 142 64 48 
139 65 50 166 96 84 180 115 104 183 123 112 171 117 107 106 55 46 66 19 11 56 10 3 
39 4 3 29 2 2 27 1 2 27 2 4 26 3 6 23 5 7 22 8 8 19 9 8 
16 10 8 104 101 98 148 148 144 153 154 149 170 170 167 140 138 137 72 69 68 47 39 40 
34 22 25 32 15 21 34 12 19 33 7 15 30 2 8 32 2 8 37 2 11 43 3 16 
44 5 11 43 7 10 42 11 12 45 24 22 54 41 37 64 59 51 59 63 51 50 57 43 
36 46 31 21 28 14 42 44 32 86 81 72 146 130 124 171 145 142 182 146 147 209 166 167 
207 159 162 193 143 146 186 136 139 166 117 120 139 92 94 105 63 63 81 42 41 62 25 26 
40 11 20 31 5 17 24 3 14 17 4 13 21 15 22 36 36 41 70 76 81 67 74 78 
52 59 64 41 44 50 25 21 29 17 4 13 30 5 16 46 10 20 65 18 27 88 30 40 
106 39 48 118 46 51 124 49 51 133 56 55 143 65 62 152 74 68 163 85 79 173 98 91 
180 111 105 189 124 118 178 117 111 130 77 70 104 58 51 84 46 40 70 40 36 59 36 33 
51 33 31 44 32 31 
68 32 28 72 34 30 99 49 48 108 53 52 106 49 45 99 37 29 102 37 24 112 44 24 
123 51 26 137 62 31 151 74 36 153 77 34 152 79 32 150 80 30 149 83 31 147 85 31 
145 86 31 141 85 32 137 84 32 133 83 34 132 83 36 134 85 42 138 89 50 144 94 59 
149 98 66 153 103 73 158 114 82 159 117 84 158 117 84 158 119 84 155 119 84 149 117 81 
137 109 74 125 98 66 113 89 60 105 84 60 100 82 63 94 78 64 82 68 60 71 59 56 
62 51 53 53 42 48 48 37 46 41 31 42 33 23 33 23 14 22 15 7 12 9 3 5 
8 2 5 7 3 4 5 7 2 3 5 1 2 4 0 2 4 0 2 4 1 2 4 2 
3 5 2 4 5 4 4 5 4 3 4 2 3 2 1 5 4 3 12 8 7 30 24 22 
51 43 40 75 64 60 113 99 94 134 118 111 134 116 107 131 110 100 125 102 91 116 92 79 
114 89 76 108 86 72 98 82 67 90 74 60 84 67 53 78 60 47 45 27 18 30 12 5 
33 15 6 35 16 8 42 23 15 52 33 27 59 38 33 64 43 38 68 47 41 73 50 45 
68 44 39 55 32 26 48 24 18 51 27 20 62 37 29 63 38 29 62 38 27 61 37 26 
74 50 38 82 61 46 87 69 52 92 70 55 90 64 51 86 55 42 87 49 39 79 34 25 
68 17 10 79 22 17 87 26 20 95 30 24 107 40 34 111 44 35 112 44 32 112 43 30 
131 62 46 155 85 65 164 92 70 167 94 69 169 93 66 174 96 67 177 97 67 179 96 65 
179 94 63 176 91 63 173 89 64 170 87 63 163 82 61 157 78 59 152 77 60 148 79 64 
144 82 68 139 84 70 130 82 69 111 70 57 75 38 25 61 28 14 57 27 11 61 31 14 
124 92 71 184 149 124 206 165 138 214 166 136 216 159 128 212 146 113 209 135 102 207 127 93 
208 124 90 205 138 100 205 152 110 210 158 116 222 173 131 228 184 142 226 184 142 224 188 145 
223 192 150 224 197 155 221 200 159 220 203 162 220 207 167 225 216 177 228 222 185 229 225 189 
231 229 195 233 233 200 236 236 206 238 238 209 239 240 212 240 240 213 240 240 214 240 240 215 
239 239 215 238 240 214 237 240 212 235 238 211 234 236 207 233 236 206 233 237 205 236 238 206 
238 239 206 239 240 204 237 235 199 233 229 191 228 221 181 227 215 175 231 213 173 236 212 173 
224 191 153 206 167 129 187 141 103 174 120 84 183 123 87 206 139 105 212 143 108 215 143 108 
214 141 108 201 140 117 187 132 113 171 118 101 147 99 84 98 55 46 42 5 2 37 8 3 
34 10 8 30 11 13 21 5 10 16 3 10 15 2 11 16 2 12 22 4 15 30 7 18 
38 8 15 50 12 18 64 17 22 79 24 25 88 24 23 94 23 20 102 25 20 115 33 28 
124 42 36 107 45 36 99 45 37 95 46 39 94 52 46 69 35 31 41 16 14 28 12 12 
16 9 10 7 7 8 3 8 7 2 10 7 2 12 8 3 15 8 6 17 9 8 19 8 
9 18 6 6 15 3 3 11 1 2 9 1 4 10 1 6 12 3 8 14 6 8 13 6 
7 12 9 6 11 14 6 8 10 11 9 7 24 16 7 44 29 15 60 39 19 68 42 16 
83 54 24 94 62 30 98 65 31 115 83 50 120 90 59 106 80 51 79 56 32 62 41 20 
57 38 21 61 43 27 68 50 34 77 58 42 82 60 44 86 61 44 87 60 41 105 76 58 
114 85 64 115 86 59 128 98 72 138 109 83 146 118 91 151 123 98 158 131 107 165 142 118 
169 146 124 173 152 131 178 158 139 188 169 151 190 173 155 187 171 154 183 167 152 181 167 152 
182 168 154 184 171 158 188 176 164 194 182 170 193 182 172 192 181 171 190 179 169 187 176 166 
189 180 170 195 187 177 207 198 187 213 203 190 214 203 190 214 202 187 212 198 181 206 191 173 
198 181 161 185 166 147 169 148 128 142 120 101 134 112 93 134 113 94 127 106 88 113 92 77 
92 73 60 60 42 32 41 24 16 28 12 7 23 9 6 21 8 7 21 8 8 19 7 8 
21 4 13 24 1 18 25 1 16 30 4 17 37 9 19 49 16 23 61 20 24 73 22 24 
83 23 23 94 24 25 104 26 27 110 29 30 117 36 37 121 44 44 118 48 46 106 46 41 
93 41 34 84 37 25 76 28 16 78 26 13 97 39 24 126 57 42 154 77 62 180 97 82 
195 129 112 208 154 135 218 162 143 222 163 144 221 159 139 213 145 126 205 131 112 198 119 100 
193 110 91 188 101 82 182 93 74 175 83 65 161 70 52 152 62 46 152 63 49 139 55 42 
141 61 49 162 86 76 171 101 92 172 108 99 164 105 98 101 46 39 66 14 8 63 14 8 
42 8 7 29 4 5 26 3 4 24 3 3 21 3 3 18 3 4 15 4 3 11 4 3 
10 5 4 94 93 89 136 137 132 141 142 138 162 163 159 130 130 127 56 54 53 38 33 33 
28 19 20 24 11 14 27 9 14 27 6 11 25 1 6 28 2 8 32 3 11 36 4 14 
41 4 10 41 5 8 39 7 10 40 18 17 47 33 30 56 52 45 64 67 57 68 76 63 
67 77 63 50 57 45 61 64 53 93 89 81 153 139 133 176 153 150 182 151 150 201 163 164 
195 153 155 179 135 137 171 127 129 151 109 110 126 86 87 98 63 62 78 46 44 58 29 28 
23 8 11 12 2 6 10 3 7 12 11 13 24 27 28 41 49 50 68 80 81 62 74 75 
45 57 58 29 38 41 16 19 23 10 6 11 22 9 15 38 13 19 56 21 27 79 34 40 
96 43 47 108 49 51 114 51 51 124 58 55 135 66 61 145 74 68 157 86 78 167 97 88 
174 106 98 185 120 113 176 115 108 127 75 66 104 59 50 86 49 41 74 45 38 63 41 35 
54 37 32 46 34 30 
69 32 29 74 35 32 101 51 48 110 55 51 108 51 45 99 38 28 103 37 23 113 43 25 
125 51 27 139 63 33 153 74 39 156 77 37 156 79 35 153 80 33 153 85 34 150 87 34 
147 87 33 143 87 33 139 87 34 134 86 34 129 83 34 125 80 34 123 79 34 124 80 38 
127 83 43 133 89 51 146 104 71 148 107 75 147 108 75 149 113 79 147 115 79 141 113 77 
126 104 67 115 96 61 105 89 57 93 81 53 88 79 56 82 75 59 68 64 53 57 53 48 
47 42 44 39 34 41 35 29 41 31 23 39 25 15 32 17 7 23 11 1 14 9 0 9 
11 0 10 11 3 9 8 9 4 6 7 2 5 6 0 4 4 0 3 4 1 3 4 1 
3 4 2 5 5 3 6 4 3 5 4 2 5 3 1 7 5 3 14 9 7 46 39 36 
77 66 63 103 90 85 124 109 103 134 118 110 132 114 104 128 107 96 121 98 87 112 88 75 
111 86 72 106 83 69 96 80 66 90 74 60 85 69 55 80 63 51 52 34 25 39 21 12 
41 22 13 41 22 15 45 27 20 54 35 30 58 39 35 63 43 39 69 49 44 75 54 50 
73 52 47 66 45 38 62 40 33 65 43 35 73 51 44 73 51 42 72 50 39 71 49 37 
81 60 48 88 69 55 92 76 60 94 74 60 87 63 50 78 48 37 79 42 32 71 28 20 
63 14 8 74 20 14 82 23 18 91 28 22 107 42 36 112 47 38 113 46 35 112 45 31 
130 62 46 154 85 65 162 92 69 165 93 68 167 93 65 173 96 66 176 96 66 178 96 65 
179 95 63 175 91 63 171 87 64 168 85 63 161 81 61 154 76 58 149 76 59 146 78 64 
143 81 69 139 83 72 129 81 70 112 70 58 75 38 26 60 27 14 55 25 10 58 28 12 
121 88 69 180 145 122 204 163 138 213 165 138 216 159 130 211 146 116 206 133 102 202 123 91 
201 117 86 200 128 94 203 140 104 209 149 112 224 167 131 233 180 144 231 181 144 230 185 148 
230 190 153 230 196 159 227 198 162 226 201 166 225 205 170 230 214 180 233 220 187 234 223 192 
236 227 197 238 231 203 241 235 209 243 237 212 244 239 215 244 239 216 244 239 217 243 238 217 
243 237 216 238 240 215 235 240 214 235 240 213 233 238 211 233 238 209 233 238 208 234 238 208 
235 239 206 237 239 205 235 235 199 232 230 193 230 225 186 228 217 179 230 213 175 234 211 173 
224 194 157 212 175 138 199 155 118 188 136 101 193 135 101 210 146 112 213 145 112 213 143 110 
211 140 109 200 141 118 188 134 115 174 122 105 152 105 90 100 59 49 40 5 2 33 6 2 
29 8 6 25 10 11 16 5 8 12 3 8 11 2 9 12 2 10 18 4 13 26 7 16 
34 8 14 47 12 17 61 17 21 76 23 24 85 23 22 91 22 19 99 24 19 113 32 27 
122 41 36 109 47 37 101 47 37 96 46 38 94 52 45 69 35 30 41 16 13 28 12 11 
16 9 9 7 6 6 2 7 6 2 9 7 2 12 8 3 14 8 6 17 9 10 20 10 
12 21 9 10 19 6 7 15 3 4 10 1 3 9 1 3 9 1 4 10 3 5 10 4 
5 11 8 2 11 17 3 10 15 8 11 12 20 17 12 37 28 17 51 35 19 59 36 15 
74 47 23 84 55 28 87 57 29 107 78 50 114 86 60 101 76 53 75 52 33 56 37 20 
50 33 19 53 37 24 60 44 31 71 53 41 78 59 47 83 62 48 85 62 46 100 76 61 
111 84 65 115 86 57 127 97 70 136 107 80 143 115 87 149 121 95 156 129 104 163 139 115 
165 142 119 166 144 122 167 147 126 174 155 135 173 155 135 163 146 128 147 130 114 138 123 107 
136 123 106 138 125 110 146 133 119 157 144 131 149 137 125 148 136 125 150 139 127 151 140 128 
159 148 136 171 163 150 190 181 167 201 191 176 205 194 179 207 196 178 207 194 175 205 189 170 
196 179 158 181 162 141 161 142 121 139 119 99 130 109 89 127 106 87 122 103 84 112 93 77 
95 77 64 63 47 36 42 26 18 27 13 7 21 8 5 19 7 6 18 8 7 16 7 8 
18 4 13 20 1 17 21 1 15 26 4 16 33 10 18 45 16 21 57 20 22 69 23 23 
80 23 22 91 24 23 100 25 25 106 27 26 115 36 36 121 46 45 118 49 46 107 47 41 
95 43 34 85 38 26 78 30 16 81 28 14 99 40 24 125 56 40 152 74 58 176 92 76 
181 108 90 186 121 101 195 128 108 199 129 109 198 125 105 192 114 95 190 108 89 189 101 83 
187 95 78 185 90 72 181 84 66 175 77 60 158 61 45 146 51 36 143 50 37 139 51 39 
142 58 48 155 75 66 159 86 78 159 92 85 155 93 87 96 38 33 66 12 7 70 18 14 
44 11 10 28 7 7 24 4 4 20 3 2 17 2 1 14 2 2 11 2 1 8 1 0 
6 3 2 82 81 77 122 122 117 130 130 126 158 158 154 127 127 123 49 48 46 33 30 28 
23 17 17 18 9 10 21 8 10 21 5 8 20 2 5 24 3 9 27 4 11 30 5 13 
38 4 9 40 4 8 38 6 9 38 15 16 45 31 29 58 53 47 75 78 68 86 93 82 
91 100 87 76 83 71 80 83 73 101 99 90 158 147 140 180 160 156 185 158 156 199 166 166 
191 154 155 173 133 135 160 122 123 135 99 99 106 72 72 80 51 49 61 36 33 42 22 20 
11 5 4 3 2 1 5 6 4 13 17 15 28 36 33 47 57 54 68 81 79 61 74 72 
43 55 55 24 33 33 11 16 17 6 6 8 19 11 13 33 16 18 50 24 26 73 38 39 
89 46 47 101 51 51 107 52 50 118 58 54 130 65 60 140 73 66 152 83 76 163 94 85 
169 102 92 183 119 109 175 115 106 126 74 64 104 60 49 88 52 42 79 50 41 68 46 39 
59 42 36 51 40 33 
68 32 30 74 36 34 101 52 48 110 55 49 107 50 41 99 37 26 103 37 23 114 43 26 
127 51 28 141 62 34 154 73 41 158 76 39 158 78 37 156 80 35 156 85 36 152 87 36 
148 88 35 144 88 34 141 89 35 137 90 36 127 85 33 120 79 30 113 75 27 110 72 26 
110 72 27 115 76 34 132 91 62 133 93 65 132 94 64 141 107 75 144 113 80 139 114 79 
124 104 67 115 100 64 106 96 62 92 86 56 84 81 56 76 75 56 60 62 49 47 48 42 
35 36 37 27 28 36 25 23 36 23 19 35 18 11 30 11 4 22 7 0 15 7 0 14 
11 0 17 14 3 16 11 10 5 9 9 2 7 7 1 6 5 0 5 4 0 3 3 0 
2 1 0 4 2 0 6 2 0 6 3 0 9 5 2 10 5 2 9 2 0 60 49 47 
99 87 83 122 108 102 133 118 111 136 119 110 128 109 100 124 102 91 118 94 82 109 83 71 
110 84 71 105 83 69 95 80 67 92 76 64 88 72 60 85 68 57 61 42 34 48 30 22 
48 29 21 46 27 21 49 30 24 56 37 32 58 38 35 62 43 40 69 50 45 76 58 53 
79 59 54 77 57 52 76 57 50 80 61 53 87 68 60 86 66 57 84 64 54 82 63 51 
89 70 59 94 77 64 97 83 68 96 79 64 86 63 51 72 44 33 73 37 28 67 25 18 
61 14 7 71 18 13 78 21 16 86 26 20 106 43 36 113 49 40 114 49 37 112 46 32 
129 62 45 152 84 63 159 90 67 163 92 67 167 93 65 172 96 66 175 96 66 177 96 64 
179 96 63 174 91 64 169 85 64 166 83 64 159 79 61 152 75 58 146 74 59 144 77 64 
142 80 69 138 82 73 129 80 70 111 68 58 75 38 27 60 27 16 55 24 12 58 27 12 
118 86 68 177 142 121 202 162 139 212 164 140 216 159 133 212 147 120 204 132 104 198 119 91 
195 112 82 198 122 92 203 134 103 209 142 110 226 162 130 236 175 144 233 176 144 233 182 149 
234 188 155 236 195 163 233 198 166 231 201 169 230 204 174 235 213 183 238 220 190 238 223 194 
240 227 200 242 231 206 245 235 211 247 237 215 248 239 217 248 239 219 247 239 220 246 238 219 
245 236 218 237 239 216 234 241 215 235 241 215 235 241 215 235 241 215 235 241 213 233 239 209 
233 238 207 235 238 206 231 232 199 230 229 194 231 227 191 227 217 181 227 212 175 231 208 173 
225 196 161 219 184 148 213 171 135 207 157 123 208 151 119 214 152 120 212 146 114 209 141 109 
205 136 106 198 139 116 188 134 115 175 123 106 153 107 91 99 60 50 36 2 1 28 3 1 
24 6 4 20 8 8 11 4 6 8 3 7 7 3 9 8 3 9 14 5 11 22 7 13 
31 8 13 44 12 15 59 17 20 73 23 23 82 22 21 89 21 19 97 23 19 110 30 26 
120 40 34 111 49 38 103 49 37 97 47 37 94 51 44 69 35 30 42 16 14 29 12 11 
16 7 7 6 4 3 2 6 4 2 9 6 2 12 8 3 13 8 7 17 10 12 22 12 
16 25 13 14 23 11 11 19 7 6 13 3 3 8 1 1 6 0 1 7 1 3 8 3 
4 10 9 2 11 20 3 12 20 8 14 18 18 18 17 31 25 18 43 30 18 52 32 15 
65 41 21 76 47 25 79 49 27 102 73 50 111 83 62 97 72 54 71 49 33 53 33 20 
46 28 16 48 31 20 54 38 28 65 49 39 76 59 47 83 64 51 85 64 50 98 76 63 
109 84 66 115 86 58 126 97 68 134 106 77 140 112 83 147 120 91 154 128 101 162 137 112 
163 138 114 162 139 116 160 139 116 165 145 124 159 140 120 143 125 105 113 96 78 96 80 62 
90 75 57 92 77 61 102 87 72 115 101 86 99 85 71 96 83 69 103 91 77 111 98 84 
121 110 95 136 127 110 169 160 143 186 177 160 194 184 166 200 188 168 204 189 168 204 188 166 
195 178 156 178 160 138 159 140 118 144 125 103 132 112 91 122 103 83 119 101 82 112 95 78 
99 82 69 68 53 41 44 30 21 26 13 7 19 7 4 16 6 4 14 6 5 14 6 6 
14 3 11 15 1 16 18 1 15 22 4 15 28 9 16 39 15 19 52 19 20 65 22 21 
77 23 21 88 23 22 96 23 22 101 24 23 113 35 34 121 46 45 118 50 46 107 48 41 
96 45 34 87 40 27 81 33 18 83 31 15 101 41 24 125 55 37 149 70 52 172 87 69 
167 87 68 163 87 67 169 92 72 171 90 71 170 87 67 167 81 61 174 83 63 178 83 64 
179 80 63 177 76 59 174 71 55 168 66 50 159 58 43 149 51 37 141 46 34 141 50 40 
143 56 47 144 63 56 145 70 63 145 76 70 145 81 77 92 33 30 67 13 9 77 23 21 
44 15 13 25 9 7 20 4 3 15 2 1 12 1 0 12 0 0 10 2 0 7 2 0 
5 2 2 67 65 62 103 102 98 118 117 114 157 156 153 131 130 126 53 52 48 33 30 27 
21 17 15 16 9 9 16 7 8 16 5 7 16 3 5 21 6 9 23 6 11 24 6 12 
36 4 8 40 4 8 39 8 11 39 16 16 50 35 33 68 62 57 92 93 85 103 109 99 
105 114 102 97 106 93 97 103 91 110 110 100 161 152 145 183 166 161 191 167 164 204 175 174 
194 162 161 174 140 140 154 121 121 118 88 86 79 51 48 50 26 22 29 10 8 12 1 0 
3 2 0 3 5 1 8 11 5 19 24 18 35 41 36 52 59 55 70 78 75 63 71 69 
47 54 53 23 28 28 10 13 13 6 5 5 19 12 11 31 18 17 47 27 26 68 40 39 
84 48 47 96 53 50 104 53 49 115 57 53 126 63 59 137 70 64 149 79 73 159 89 82 
167 100 88 183 119 108 177 117 107 127 76 64 105 61 50 91 54 43 83 54 44 75 52 44 
66 50 42 59 48 40 
65 30 29 73 35 34 100 51 45 110 55 46 108 50 40 101 38 26 106 38 24 118 45 27 
129 51 30 143 61 35 156 72 41 160 76 41 160 78 39 159 79 37 159 86 39 156 89 38 
151 90 37 146 91 37 142 92 38 136 92 37 128 89 34 117 82 29 107 74 24 99 68 21 
96 66 20 100 69 26 119 79 57 127 86 69 135 96 77 150 115 93 153 122 97 146 119 92 
123 101 71 105 89 58 90 79 49 77 69 41 69 64 41 61 58 40 47 48 34 34 37 29 
24 27 25 19 21 26 16 17 27 13 13 26 10 9 25 5 4 19 2 1 15 2 0 14 
5 2 17 7 4 14 10 8 3 9 7 1 7 5 0 5 3 0 6 3 0 7 5 1 
11 7 3 12 7 3 14 10 5 20 15 10 25 18 15 28 20 16 28 18 14 75 64 59 
111 98 91 126 112 104 130 114 105 129 110 101 123 102 92 119 96 85 114 90 78 108 82 70 
108 82 68 104 81 68 94 78 67 90 74 64 86 70 61 83 66 57 63 46 38 51 33 27 
47 29 23 45 27 23 46 29 25 51 33 29 52 35 32 55 38 36 60 44 39 67 51 47 
72 56 51 75 58 54 78 61 55 81 65 58 85 69 62 83 67 58 79 63 54 76 60 50 
79 63 52 82 67 55 85 72 59 85 68 56 75 54 43 63 35 26 67 32 25 66 25 19 
63 17 12 72 20 16 78 22 17 86 26 21 110 47 40 117 53 43 116 50 38 113 46 33 
128 61 44 150 83 62 159 89 67 164 92 67 167 94 66 172 96 65 175 97 65 178 97 66 
178 96 64 174 92 65 169 86 66 166 85 66 160 81 63 153 77 61 149 76 62 145 77 66 
142 79 71 138 81 74 131 80 73 114 70 62 79 40 31 66 31 22 61 29 17 60 29 15 
118 86 69 176 140 122 202 159 139 213 163 141 217 159 136 213 148 123 205 133 108 199 121 95 
195 113 86 198 120 93 203 129 102 208 136 109 224 155 127 233 168 139 229 168 140 228 173 144 
230 180 151 236 191 161 236 195 166 234 200 171 233 203 175 237 212 184 240 219 191 240 222 195 
242 226 201 244 230 206 246 234 211 248 236 214 249 238 217 249 239 219 248 238 220 247 237 220 
246 236 219 236 238 216 233 240 215 235 242 218 236 243 218 236 243 218 236 243 216 235 243 213 
235 241 210 234 238 207 233 235 202 232 231 197 231 226 192 227 218 184 227 212 177 227 206 172 
224 197 163 221 186 153 216 174 141 214 166 134 213 158 128 213 152 122 210 147 117 207 141 111 
203 135 107 197 138 117 189 133 116 176 124 107 155 110 94 100 61 52 34 3 1 27 4 1 
21 6 3 17 8 7 9 6 6 5 5 7 4 4 8 6 5 9 11 6 11 19 8 13 
28 8 12 40 12 14 55 16 18 71 22 21 80 22 20 86 20 17 95 21 18 108 29 25 
118 40 34 113 52 40 106 52 39 99 49 38 94 51 42 68 34 28 41 15 12 29 11 10 
17 7 6 7 4 4 2 4 3 1 7 5 2 11 7 4 14 8 8 18 10 13 22 13 
17 26 15 17 25 14 14 21 11 7 15 6 3 9 2 1 6 1 1 5 1 2 8 4 
3 10 10 2 11 19 3 12 19 6 14 17 14 17 16 25 21 15 35 24 13 43 25 10 
58 34 17 69 41 22 74 44 24 96 65 46 107 76 58 96 67 51 73 47 33 57 32 21 
49 28 17 48 28 18 52 34 23 62 44 33 74 56 43 81 63 49 84 65 49 97 77 61 
108 85 64 117 88 58 126 97 68 134 105 76 138 110 82 145 117 89 152 125 98 161 135 108 
162 137 111 162 138 113 161 138 113 165 143 121 156 135 113 134 114 92 112 93 73 100 82 63 
98 81 62 99 83 66 110 94 77 124 110 92 112 97 82 111 96 81 117 104 88 121 108 92 
132 121 103 150 141 120 176 166 146 190 179 159 196 184 163 200 187 164 199 184 161 196 180 156 
191 173 150 169 151 127 142 122 100 134 114 92 127 107 86 122 102 82 118 100 81 110 94 77 
97 81 67 67 53 41 44 32 22 26 15 9 18 8 4 14 5 3 12 5 3 13 6 5 
12 3 11 11 1 15 14 2 14 18 5 13 24 9 13 34 13 15 47 17 16 61 20 17 
74 22 19 84 22 19 92 22 19 97 21 19 111 34 33 122 49 46 120 52 47 108 50 42 
96 45 34 87 39 25 82 32 16 84 30 14 104 42 25 125 54 36 147 66 48 166 79 61 
168 82 62 169 85 63 174 88 67 175 87 65 175 85 63 174 80 59 176 79 57 177 78 57 
178 76 57 176 72 53 172 67 49 165 61 45 156 54 40 146 48 34 137 43 30 140 51 39 
142 57 48 139 61 53 138 66 60 137 71 66 135 75 71 85 30 27 61 10 7 67 17 15 
40 14 11 23 11 7 20 7 3 17 5 1 16 5 2 16 6 4 16 7 4 17 10 7 
21 15 13 65 60 57 91 87 83 101 98 94 133 130 127 112 110 106 49 46 43 32 29 26 
21 17 15 13 9 7 13 8 7 13 6 6 12 4 5 12 4 5 13 4 5 14 3 5 
31 3 5 36 3 7 35 5 9 36 15 16 48 34 34 67 61 58 89 91 85 100 107 98 
104 113 102 99 107 97 101 106 96 112 113 105 155 149 142 176 163 158 186 166 163 198 173 172 
191 162 162 173 144 143 154 126 124 120 94 92 84 60 57 64 45 40 48 32 27 34 22 17 
19 15 7 20 17 9 27 23 15 36 31 25 45 40 35 54 48 45 62 54 53 57 48 48 
45 36 38 29 19 21 20 9 11 17 5 6 26 11 12 35 17 17 48 25 24 68 39 37 
83 46 45 95 51 48 104 51 48 116 56 53 129 61 59 140 65 62 152 73 71 160 83 78 
162 96 84 177 115 102 171 113 101 125 74 62 104 60 48 90 54 42 81 53 41 72 50 40 
63 47 38 55 44 36 
61 26 26 70 33 32 100 50 43 111 55 45 110 52 41 102 37 25 109 39 24 123 48 30 
134 54 32 146 62 37 158 72 42 163 77 42 163 79 40 161 81 39 162 88 40 159 91 40 
153 92 39 147 94 39 142 95 39 136 95 39 127 91 36 114 84 30 102 74 23 92 67 19 
88 65 17 90 65 23 105 69 55 117 79 72 131 95 86 158 124 112 160 129 113 146 119 99 
112 89 65 87 68 44 68 53 29 58 46 24 52 43 23 45 39 22 35 31 19 25 23 15 
16 17 13 13 14 14 10 11 16 7 10 17 6 8 18 3 5 15 1 3 13 0 2 12 
1 4 13 4 5 11 9 5 2 8 4 0 7 3 0 6 2 0 10 6 2 17 12 6 
26 20 13 34 27 21 43 37 30 55 48 42 64 55 50 68 58 53 65 54 48 99 86 79 
123 108 100 130 115 105 127 110 100 123 103 93 118 97 86 116 92 81 112 87 75 106 80 68 
106 79 66 100 77 65 90 74 65 86 70 62 82 66 58 77 61 53 61 45 38 51 34 29 
45 28 24 43 26 23 43 26 23 45 28 25 45 29 28 48 33 31 53 38 34 59 44 41 
64 50 47 70 56 52 74 60 55 77 63 57 79 65 58 76 62 54 71 58 49 67 53 44 
65 52 42 65 52 41 65 51 41 67 50 41 60 38 30 50 22 16 59 25 19 63 22 17 
65 19 14 73 21 17 78 22 17 86 27 20 113 51 44 120 56 47 117 51 40 113 46 33 
128 61 44 149 82 61 159 89 67 164 93 68 168 95 67 173 97 66 176 98 66 179 98 67 
179 97 65 176 93 67 171 89 69 169 88 70 163 84 67 157 81 65 152 79 66 148 79 69 
143 80 72 140 82 75 133 81 74 118 72 65 84 44 36 72 35 27 66 32 22 64 30 18 
118 84 69 174 136 119 199 155 136 212 161 140 218 160 138 215 149 127 208 136 112 202 124 100 
198 116 92 198 119 95 201 124 100 206 132 106 218 147 121 225 157 131 220 156 130 220 161 135 
224 171 143 234 185 158 234 191 164 233 195 168 231 199 172 237 209 183 240 217 191 240 220 194 
241 224 199 242 227 204 243 231 208 245 234 212 246 236 215 247 237 217 246 237 217 246 236 218 
245 236 219 235 238 216 232 240 216 235 243 218 236 244 219 236 244 219 236 244 218 236 243 214 
235 241 211 234 238 208 233 236 203 232 231 199 231 226 193 227 218 185 225 211 177 224 204 170 
223 196 163 221 187 154 217 176 145 217 170 139 215 161 131 211 152 123 209 147 118 206 141 113 
203 136 109 198 138 118 190 134 117 178 125 109 156 111 96 100 62 53 34 3 1 25 3 1 
19 5 3 15 8 5 8 6 5 4 6 6 2 6 8 4 6 9 10 8 11 17 9 13 
25 8 11 37 11 13 52 16 17 69 21 20 78 20 18 84 19 16 94 21 17 107 29 25 
119 40 35 115 54 41 108 54 40 100 50 38 94 51 41 68 33 26 42 15 10 29 11 8 
17 7 5 7 4 3 2 4 3 1 6 4 2 10 6 4 13 8 8 17 10 13 22 13 
17 26 16 18 26 16 15 23 14 9 16 9 4 10 4 1 5 1 1 5 2 2 7 6 
2 9 10 2 9 15 2 11 16 5 12 15 11 14 13 19 16 10 28 18 8 37 19 5 
53 29 14 66 37 20 73 41 23 94 60 43 104 69 54 96 64 49 77 46 33 62 33 22 
55 29 19 51 28 16 52 30 18 59 38 26 71 51 37 79 59 43 82 62 45 95 75 57 
106 83 61 116 87 57 125 96 67 132 103 75 136 108 79 142 114 86 150 122 95 159 133 105 
161 136 108 162 137 111 162 138 112 167 143 119 160 138 115 145 124 100 136 115 93 133 114 93 
136 118 97 136 118 99 145 128 109 158 142 123 153 137 119 154 138 121 158 144 126 156 142 125 
163 150 130 175 164 142 191 179 157 198 185 163 201 187 163 199 185 161 192 176 151 182 164 139 
179 159 135 154 133 110 122 102 79 121 99 78 121 100 79 121 100 81 115 96 77 105 87 71 
90 74 60 65 51 39 44 31 22 26 16 9 18 8 4 13 5 2 10 4 2 12 5 5 
11 4 10 9 2 14 11 3 14 15 5 12 21 8 11 29 11 11 42 15 12 57 19 15 
71 22 18 82 22 18 90 21 17 94 20 16 110 34 31 123 50 47 122 54 48 110 50 42 
97 45 33 88 39 24 82 31 15 85 29 12 104 41 23 124 51 32 144 61 43 162 73 55 
166 76 55 169 78 54 172 80 56 173 79 56 174 78 54 174 75 52 174 73 51 175 72 50 
176 71 51 173 68 48 168 63 45 161 58 41 151 51 35 139 44 30 128 37 25 131 45 33 
131 50 40 126 51 42 124 56 49 121 60 55 117 62 58 75 25 22 53 7 4 56 11 8 
34 11 7 21 10 5 17 6 2 16 5 1 16 5 2 18 7 4 18 7 4 20 10 7 
25 15 13 52 43 40 69 60 58 76 68 66 94 87 84 81 74 72 43 37 34 30 25 22 
20 15 12 11 7 4 11 7 4 10 6 4 9 6 4 8 5 4 7 4 2 7 2 2 
26 2 3 32 2 5 31 3 7 32 12 14 44 31 31 62 56 53 83 84 78 94 100 92 
99 108 98 94 102 92 98 103 94 112 112 105 154 149 142 173 162 157 181 163 161 188 165 164 
180 154 154 166 139 138 152 127 125 127 104 101 104 83 79 103 86 81 99 84 78 91 78 71 
75 65 55 73 62 53 73 61 53 67 51 46 62 42 39 58 36 35 60 34 36 56 30 32 
50 23 27 41 14 18 35 9 13 31 7 10 33 10 12 39 15 15 49 23 21 67 36 34 
81 44 42 93 48 46 104 50 48 118 54 53 131 57 58 140 58 59 152 65 66 159 75 74 
157 90 79 169 108 95 164 107 94 123 72 59 103 60 46 89 52 40 77 49 38 66 45 35 
57 41 31 48 37 28 
57 22 21 67 30 29 99 49 42 113 57 47 113 54 43 102 37 24 110 40 25 129 52 34 
139 58 36 150 65 39 160 72 42 166 79 43 166 81 42 165 83 40 164 89 41 160 92 41 
154 93 40 147 95 40 141 97 41 135 97 41 124 93 37 111 85 31 98 76 25 89 69 20 
84 66 18 83 64 23 91 62 58 102 70 75 121 90 93 165 135 134 164 135 129 139 113 101 
93 68 51 61 38 21 39 19 3 36 17 3 33 17 2 30 16 2 26 12 1 19 8 1 
12 5 1 9 4 0 7 5 3 6 7 7 6 9 9 4 7 9 2 6 8 1 7 8 
1 7 8 3 6 6 8 3 1 7 1 0 7 1 0 10 4 0 19 13 5 31 24 15 
47 39 31 70 62 54 92 83 75 113 103 95 127 116 109 131 118 111 122 108 101 130 115 106 
135 118 109 134 117 107 126 106 96 120 98 87 116 93 81 115 91 79 112 85 74 105 77 66 
103 76 63 96 73 61 84 68 59 80 64 56 75 59 52 69 52 46 57 40 34 48 31 27 
44 27 24 39 22 20 37 21 19 38 22 20 37 22 21 40 26 25 47 33 31 50 37 35 
55 43 40 62 50 47 66 54 50 68 56 51 68 56 49 65 53 46 60 49 40 53 43 34 
48 38 28 42 30 21 36 22 15 42 25 19 39 17 12 34 6 2 49 14 10 59 17 14 
66 18 15 73 20 17 78 21 17 85 26 20 116 54 47 123 59 49 118 52 40 113 46 33 
128 61 43 149 81 60 159 90 67 165 94 68 170 96 68 175 98 69 178 99 69 180 99 67 
181 98 67 179 96 71 176 94 74 174 93 76 169 90 73 163 86 70 157 84 70 152 83 72 
146 82 74 142 83 75 135 83 76 122 75 68 91 49 42 78 40 31 71 35 25 68 32 20 
118 81 68 170 130 114 195 150 132 210 158 138 219 159 138 218 153 131 213 140 117 207 129 105 
202 121 98 198 119 96 198 121 97 203 128 104 210 139 113 212 144 118 205 140 114 206 147 120 
214 159 132 229 179 152 229 185 158 227 189 161 226 193 165 233 206 178 238 214 188 238 218 192 
237 220 195 238 223 199 238 227 203 240 230 206 241 232 209 242 234 211 243 234 213 242 234 215 
241 235 216 234 237 215 232 240 216 235 243 218 235 244 218 236 244 218 236 243 218 235 241 212 
234 239 209 235 238 208 233 234 203 232 231 198 232 227 194 227 217 184 224 208 176 222 200 169 
222 194 161 220 186 154 216 175 145 216 170 139 213 161 131 209 151 123 208 147 119 206 143 115 
204 139 112 200 139 120 192 135 118 179 126 111 157 111 97 101 62 54 35 3 1 24 1 1 
18 4 1 14 7 3 7 6 3 4 7 5 3 8 8 4 8 9 9 9 11 16 10 13 
24 9 11 36 11 12 50 15 15 66 19 18 75 19 17 83 18 15 93 20 16 108 28 25 
120 41 35 118 57 42 110 56 40 100 51 37 93 51 39 69 33 25 43 15 10 30 12 7 
17 6 3 7 2 1 2 3 2 2 6 5 3 10 7 4 12 7 7 15 9 11 19 12 
16 24 16 18 25 17 16 24 16 10 18 11 4 10 4 1 5 1 1 4 3 1 7 7 
2 8 10 1 7 10 2 9 11 4 11 11 9 11 8 15 11 5 22 11 2 32 14 2 
50 25 12 66 35 20 75 41 25 93 56 41 103 64 50 98 60 46 83 46 33 71 36 24 
65 33 21 57 28 16 54 28 14 56 32 18 67 44 28 75 53 35 79 57 38 92 71 50 
103 80 56 113 85 54 122 94 64 129 101 72 133 105 77 139 111 82 147 120 91 157 130 102 
160 133 105 162 136 109 163 138 112 169 145 119 173 149 124 174 152 128 184 162 139 194 173 151 
204 184 162 201 182 161 206 187 166 215 198 177 221 203 183 224 207 188 225 208 189 215 199 181 
211 196 176 211 198 174 212 198 175 211 196 172 207 191 167 199 182 157 181 163 138 162 142 116 
156 135 110 130 109 84 100 79 55 105 83 60 113 91 70 120 98 79 111 90 72 96 77 61 
78 61 47 60 44 33 42 29 20 27 15 9 17 8 3 13 4 2 11 4 3 12 5 5 
10 4 9 8 3 14 10 4 14 13 5 12 17 7 9 25 9 7 38 13 9 54 17 12 
70 21 17 82 22 17 90 21 16 92 19 14 110 34 30 124 51 47 123 55 49 111 51 42 
98 45 32 88 38 22 82 30 14 84 27 10 102 37 19 121 46 27 141 56 37 161 70 51 
163 69 47 163 67 42 164 67 42 165 67 42 166 66 42 168 66 42 169 67 43 171 67 44 
172 66 44 168 64 42 163 60 40 157 56 37 143 46 30 129 38 23 115 29 17 114 33 21 
110 35 25 103 35 25 101 38 31 98 41 36 92 42 38 61 18 15 44 3 2 43 3 2 
27 6 2 17 6 1 14 2 0 12 1 0 13 1 0 17 2 0 16 1 0 16 1 0 
17 2 1 29 14 12 38 23 22 44 29 29 40 26 26 37 24 24 35 23 22 28 18 16 
19 11 9 9 2 0 8 3 0 7 5 1 8 7 3 7 8 3 4 6 2 2 2 0 
22 2 2 28 2 3 26 2 3 27 9 9 37 25 24 53 47 44 72 73 67 85 89 82 
91 98 90 83 90 80 88 92 84 107 107 100 156 151 144 174 163 158 175 159 155 172 149 148 
162 137 137 151 126 126 149 125 123 141 119 115 137 118 114 164 147 142 179 163 158 183 168 161 
168 151 141 160 141 131 148 125 117 112 83 79 84 49 48 65 24 25 64 19 22 63 17 21 
61 15 21 57 14 20 53 13 18 48 11 15 41 8 10 42 12 12 49 19 18 64 32 31 
77 39 38 90 45 43 104 49 47 119 52 54 131 54 57 138 50 54 150 56 61 156 67 68 
150 83 73 160 98 86 155 97 86 120 70 57 101 58 45 86 50 37 71 44 32 58 38 27 
47 33 22 37 27 16 
54 19 18 66 28 27 97 47 40 112 56 46 116 56 45 105 41 27 114 44 27 133 57 36 
142 61 35 152 67 37 161 74 39 167 80 40 167 83 39 166 85 38 166 91 40 163 95 42 
157 98 42 150 100 44 141 99 44 132 97 42 120 92 40 108 85 36 97 79 32 90 74 30 
86 72 30 84 70 37 82 65 74 97 79 98 125 106 121 168 148 158 178 155 160 169 145 144 
141 115 107 116 88 78 92 63 50 65 35 21 54 23 9 45 15 3 34 7 1 27 4 1 
22 3 1 19 2 1 17 3 2 16 5 3 15 10 4 14 13 4 12 14 4 8 13 3 
4 11 3 3 7 2 8 2 0 8 1 0 11 3 1 19 9 2 32 23 14 50 40 30 
73 63 54 95 85 75 113 103 93 129 117 108 137 124 115 139 125 116 135 120 111 139 123 113 
140 121 112 135 114 104 124 102 91 115 93 81 111 87 76 110 85 73 105 79 67 96 69 57 
92 65 53 85 62 51 77 60 53 72 55 49 67 50 44 62 45 40 54 37 32 46 30 26 
40 24 20 34 18 16 31 15 13 28 13 12 27 12 12 31 16 17 38 25 24 38 26 24 
41 29 27 46 34 31 51 40 35 52 41 35 50 40 34 48 39 31 44 35 27 39 30 22 
32 24 14 25 15 9 21 8 5 29 11 8 30 8 6 28 3 2 45 11 9 58 16 14 
68 19 17 73 19 17 76 19 15 83 23 17 117 53 47 125 60 51 120 53 41 114 46 33 
128 60 43 150 81 60 161 91 68 168 95 70 173 97 70 178 99 70 181 100 70 183 100 70 
184 99 69 182 97 72 180 97 76 179 97 79 175 95 78 169 91 75 162 87 73 156 84 73 
150 83 73 145 83 75 139 83 76 127 77 70 98 52 45 84 42 33 76 36 25 70 31 19 
117 76 62 165 122 107 190 142 125 206 153 133 217 157 135 220 154 131 218 145 122 214 136 112 
210 128 105 200 122 98 193 120 94 196 123 98 199 130 104 199 133 107 194 131 105 194 136 109 
201 148 121 218 171 143 219 178 149 219 182 153 218 186 157 227 200 172 232 210 182 230 213 184 
230 215 187 229 218 190 230 221 194 230 224 197 231 226 199 233 229 202 233 230 205 234 231 206 
234 232 207 231 234 209 231 237 212 233 239 214 235 241 214 236 241 214 235 240 212 235 239 210 
234 237 207 234 235 205 232 231 199 232 227 195 231 223 191 227 214 182 224 206 173 221 198 165 
222 192 160 219 184 152 215 173 142 218 170 139 214 161 131 207 150 120 209 148 119 207 144 115 
204 139 112 203 139 121 194 134 119 180 124 110 156 108 95 101 60 52 36 3 1 25 2 1 
18 4 1 14 7 3 7 6 3 4 7 6 4 9 9 6 10 10 11 10 12 17 10 13 
23 8 10 35 9 11 49 13 13 65 17 17 75 18 17 84 18 15 95 20 17 110 29 26 
122 41 37 119 58 43 111 58 40 101 52 37 93 51 38 68 33 23 43 15 8 30 11 6 
18 6 3 7 2 0 2 2 1 2 5 4 3 9 6 3 10 6 5 13 7 8 16 8 
12 20 12 15 22 14 15 21 14 10 16 11 4 9 5 1 4 2 1 3 3 1 6 7 
1 8 9 1 6 5 2 8 6 5 9 7 10 9 4 14 7 2 21 6 1 30 8 1 
50 22 10 67 33 18 78 38 23 94 52 37 104 60 45 102 59 43 91 49 33 83 42 27 
78 40 24 66 31 15 58 26 9 55 26 9 64 36 17 70 44 22 73 49 26 87 63 39 
98 74 48 106 79 50 117 89 61 125 96 69 130 102 74 136 108 80 144 116 88 153 126 97 
157 129 100 159 132 104 161 135 108 169 143 116 172 148 121 173 149 123 181 158 133 188 165 140 
192 171 147 193 172 150 193 172 150 192 172 150 197 178 157 201 183 162 205 188 167 208 191 172 
213 195 174 218 200 175 216 198 173 213 194 169 209 189 163 201 180 154 171 149 123 134 110 85 
127 102 78 111 85 62 94 68 45 101 75 54 113 87 68 122 97 79 107 83 67 88 65 51 
68 47 35 54 36 26 41 25 17 29 15 9 20 8 4 15 5 2 12 4 2 13 6 5 
12 6 10 11 6 16 13 7 16 15 8 13 18 8 9 24 9 6 37 12 7 53 17 11 
71 22 17 83 23 17 91 22 17 93 20 14 111 35 30 126 51 46 127 56 50 112 50 40 
97 42 29 88 35 20 82 27 12 84 25 9 101 35 17 120 43 24 138 51 32 156 63 44 
159 64 39 159 63 35 161 64 37 162 64 37 163 64 38 165 64 38 165 64 39 165 64 39 
165 63 39 160 60 37 155 56 35 148 52 33 139 48 30 127 42 25 114 33 19 104 30 18 
95 27 17 86 25 15 83 28 20 78 29 23 71 29 24 54 17 13 44 10 6 42 10 7 
28 7 3 21 6 1 21 5 1 22 5 2 23 5 2 25 4 3 24 2 2 25 2 2 
27 3 2 33 9 9 38 15 15 43 19 20 47 25 26 51 29 31 54 33 35 53 36 37 
39 25 25 16 4 3 10 2 1 8 3 1 8 5 1 7 6 1 4 4 1 2 2 0 
18 1 1 23 1 1 21 1 1 20 5 5 28 17 17 42 36 34 60 60 55 75 79 72 
84 89 83 70 75 67 75 77 70 93 91 85 123 115 111 135 121 118 136 117 116 133 109 109 
128 102 102 125 97 98 129 102 102 124 97 97 122 98 96 150 128 125 163 142 138 166 144 140 
157 127 119 156 122 114 149 110 105 114 67 65 96 42 42 87 26 29 83 19 24 82 16 23 
80 15 23 75 14 22 69 13 20 60 10 16 48 6 9 46 9 9 50 15 15 61 28 26 
73 35 33 86 41 39 101 44 43 116 49 50 129 50 54 136 46 51 148 51 57 153 60 65 
144 77 70 149 88 79 143 86 76 113 64 53 97 55 44 83 47 36 67 40 28 55 35 25 
45 31 22 37 27 18 
54 19 18 66 29 28 95 46 39 110 55 45 116 57 46 107 43 28 117 47 28 135 60 36 
144 63 34 153 69 35 162 76 37 167 82 38 168 85 37 167 87 36 166 93 39 164 98 41 
159 102 44 152 104 47 141 101 47 129 97 45 116 91 43 106 86 42 97 81 42 92 79 44 
90 78 46 87 77 56 83 77 96 102 94 122 131 122 146 172 160 178 190 173 185 193 171 177 
178 150 150 163 131 125 139 103 94 95 55 42 76 33 20 62 19 8 44 6 3 38 3 1 
35 2 1 31 2 1 29 2 1 28 5 1 27 12 1 26 17 2 24 19 2 16 17 2 
9 13 1 6 8 1 9 1 0 10 0 0 15 4 1 26 14 4 46 34 23 70 58 47 
100 88 77 118 106 95 132 119 108 143 129 118 146 131 121 146 130 120 141 124 114 142 124 113 
140 119 109 132 110 99 121 98 87 112 89 77 106 82 71 104 78 67 99 72 61 92 65 53 
88 60 49 81 57 47 71 55 48 66 50 44 62 45 40 58 41 36 51 34 31 45 28 25 
37 22 19 30 14 13 25 9 9 21 6 6 20 5 6 22 8 8 26 14 13 24 13 13 
25 15 13 27 18 16 32 22 18 33 23 19 31 22 18 31 23 16 29 21 14 25 18 10 
19 11 5 15 6 2 15 1 1 26 6 5 28 5 4 28 3 2 47 12 11 62 18 17 
72 21 21 75 20 18 77 18 15 84 22 17 120 54 48 127 60 52 121 53 42 114 46 33 
129 60 43 151 81 61 163 91 69 170 96 72 175 97 72 180 99 72 183 100 72 185 100 72 
185 99 71 184 99 74 182 99 78 183 100 80 179 98 80 174 95 78 166 90 75 159 86 73 
153 83 72 147 82 73 141 82 75 130 77 69 102 54 45 88 43 33 78 36 24 70 29 16 
114 72 57 161 116 99 186 137 118 204 148 128 216 154 133 222 154 131 222 147 125 220 140 117 
216 133 111 201 124 99 191 118 92 191 120 94 191 123 97 190 125 98 186 124 97 185 127 100 
192 139 111 211 164 135 213 171 142 213 176 146 213 181 150 222 195 165 227 205 175 225 208 177 
224 209 179 223 212 181 223 214 185 223 217 187 224 220 190 226 223 194 227 225 197 228 227 198 
229 228 199 229 231 204 230 233 207 233 236 210 235 237 211 236 238 210 236 238 209 237 238 208 
236 236 206 235 233 202 233 229 197 233 225 192 232 220 188 228 212 179 224 204 170 221 196 163 
222 191 158 220 183 150 216 173 141 219 170 139 215 161 131 207 149 118 209 148 118 207 143 114 
202 137 109 204 139 122 197 133 121 182 123 110 157 105 94 102 59 51 39 3 1 28 3 1 
21 5 1 15 7 3 9 7 4 6 8 6 6 9 9 8 11 11 13 11 12 18 11 12 
24 8 9 35 8 10 49 12 12 65 16 17 75 17 17 84 17 16 96 20 18 111 29 27 
123 42 38 120 59 43 112 59 40 102 53 37 92 51 37 68 33 22 43 15 7 30 11 6 
18 6 3 7 2 0 2 1 0 2 5 3 3 8 6 3 9 4 3 10 4 5 12 5 
9 16 8 13 19 12 14 19 13 10 14 10 4 8 6 1 4 3 0 3 4 1 5 7 
1 7 7 1 6 3 3 8 4 6 9 4 10 8 2 13 4 1 18 3 1 28 5 1 
48 19 10 66 31 18 76 36 22 92 48 33 102 56 41 105 58 43 97 51 35 91 46 30 
88 45 28 73 33 16 61 24 7 53 20 4 59 28 9 64 36 14 67 42 18 82 57 32 
93 68 41 99 73 45 111 84 57 120 93 66 127 99 72 133 105 78 141 113 85 150 122 93 
153 125 96 156 128 99 159 131 103 167 140 112 173 146 118 176 150 123 175 149 123 172 148 122 
168 146 121 175 152 129 172 149 126 161 140 116 163 143 120 168 149 127 178 159 138 199 181 160 
211 191 169 217 195 169 215 192 166 212 189 163 209 185 159 202 177 151 161 135 110 109 82 57 
103 74 51 95 65 43 89 59 38 99 69 49 116 86 68 128 100 84 106 78 64 84 58 45 
64 40 29 52 30 21 41 22 15 31 15 10 23 9 6 18 5 3 15 4 3 15 5 5 
15 7 11 14 9 17 16 10 17 17 9 13 19 8 8 24 8 5 38 12 6 54 17 10 
72 23 16 84 24 18 93 23 17 95 20 14 113 35 30 129 52 47 130 58 51 114 51 41 
98 41 28 88 34 19 83 27 12 85 25 9 102 34 16 120 41 23 138 50 31 154 59 42 
157 60 36 157 60 32 159 61 33 160 62 34 161 63 35 162 63 36 162 62 36 161 62 36 
159 60 36 154 57 35 149 54 33 142 50 31 133 47 28 123 42 25 111 35 21 97 28 16 
85 23 12 76 21 10 72 22 14 65 22 15 56 18 13 48 15 10 42 12 7 36 9 6 
29 7 3 26 6 2 28 7 3 31 8 5 33 8 5 33 6 5 34 4 4 35 4 4 
37 4 5 41 8 10 45 11 14 47 14 17 60 27 31 72 42 45 85 56 61 85 60 63 
61 40 41 19 3 3 12 1 1 9 1 0 8 3 0 7 3 0 4 3 0 3 1 0 
15 1 0 18 1 0 16 1 1 14 2 2 20 11 11 31 26 24 47 47 42 62 64 58 
71 74 68 55 57 51 54 52 47 61 55 52 77 66 63 85 68 67 87 66 66 85 60 60 
86 57 58 90 58 60 99 67 69 97 65 67 96 66 67 124 95 95 135 107 106 137 107 105 
132 92 85 138 92 86 138 86 82 105 45 42 99 30 31 100 25 29 98 19 24 97 16 23 
94 15 23 87 14 21 78 12 18 67 9 14 52 5 7 47 7 7 49 13 12 58 25 21 
69 33 29 82 38 36 96 42 41 113 47 48 126 48 52 132 42 48 143 46 54 148 55 61 
139 73 69 140 80 74 133 77 70 108 59 51 94 52 43 80 46 36 65 38 28 55 35 26 
48 33 25 43 32 25 
57 22 21 69 31 30 94 45 40 108 53 44 113 55 44 107 43 27 118 49 28 136 63 35 
144 65 32 153 70 33 161 77 35 167 83 35 168 87 35 166 89 35 164 95 37 163 100 40 
160 106 45 153 108 50 141 103 50 126 96 48 113 91 48 104 86 51 97 83 55 95 83 61 
94 83 65 93 86 78 95 96 121 112 114 145 139 137 165 176 169 192 198 185 202 209 190 199 
203 176 178 199 165 162 182 140 133 126 78 68 101 49 37 82 29 18 57 10 5 52 5 3 
51 5 2 46 4 2 43 4 2 42 6 2 41 13 3 40 19 3 37 22 3 29 20 3 
19 14 2 13 8 2 13 3 2 15 3 2 21 8 4 34 21 9 62 48 35 93 78 65 
127 113 100 140 125 112 148 133 120 154 139 126 155 138 126 151 132 121 140 121 110 138 118 106 
134 113 100 127 104 92 117 94 82 109 85 73 102 78 67 97 72 60 93 67 56 90 64 53 
88 62 51 81 57 48 67 51 44 63 47 41 60 43 38 56 39 35 50 33 29 43 26 24 
36 20 18 27 11 11 21 5 5 15 1 1 14 1 1 13 1 0 13 1 0 9 0 0 
8 0 0 7 0 0 11 3 0 12 4 1 11 4 1 13 6 1 13 6 1 11 5 1 
7 2 0 11 1 0 20 2 2 33 10 10 35 8 9 35 4 3 54 16 17 69 23 24 
79 25 26 80 21 21 80 19 16 86 22 17 123 55 50 129 61 53 121 52 41 115 45 33 
130 59 43 152 80 61 164 91 69 172 96 73 176 98 73 181 101 74 184 101 74 187 101 73 
186 99 73 185 100 75 184 101 79 184 102 80 181 100 80 176 97 78 169 91 74 162 86 72 
154 82 70 147 81 70 142 81 71 131 75 66 105 53 42 91 43 31 80 34 22 69 26 12 
112 67 50 158 110 92 184 132 113 202 145 124 216 152 130 223 154 131 224 149 126 223 143 120 
221 138 115 202 125 100 189 117 90 190 119 93 188 119 92 185 119 91 181 118 90 180 121 93 
187 133 104 207 159 129 209 165 136 209 171 140 208 176 144 219 190 158 224 199 167 221 202 169 
219 203 171 218 205 173 218 207 175 219 211 179 220 214 183 222 217 186 224 220 189 225 223 191 
226 224 192 227 227 198 229 229 202 232 232 204 234 234 206 237 235 207 239 237 207 240 237 206 
240 236 204 238 233 200 236 228 196 235 223 190 234 219 185 228 210 175 224 201 167 221 194 160 
223 190 156 222 184 150 219 175 142 221 171 139 216 161 130 209 149 118 210 147 117 205 141 110 
199 133 104 205 137 121 199 133 122 184 122 112 159 105 95 106 59 52 44 5 2 33 5 1 
25 5 1 18 7 2 13 9 5 10 10 8 9 10 9 11 11 11 15 12 12 21 11 12 
26 7 9 36 8 9 49 11 12 66 16 16 76 16 16 85 16 15 96 20 18 113 30 28 
125 42 39 120 60 43 111 60 41 102 54 37 92 50 36 68 33 21 43 15 6 31 12 6 
19 6 3 8 1 0 3 2 0 3 4 3 3 7 5 2 8 2 2 8 2 3 9 2 
7 12 5 11 15 9 13 17 12 9 13 10 4 7 6 0 3 3 0 2 4 1 4 6 
1 6 6 1 7 2 4 9 3 6 10 4 9 8 1 10 3 1 15 2 1 26 4 1 
45 18 11 61 28 18 72 33 22 86 43 31 97 51 39 105 58 44 100 53 38 95 50 34 
93 50 33 76 35 18 61 23 7 50 15 3 53 22 4 57 29 7 61 36 12 75 51 26 
86 62 36 92 67 41 105 79 53 116 88 63 123 96 71 130 102 76 138 110 82 146 118 91 
149 121 92 152 124 95 156 127 98 165 137 108 174 146 117 181 153 126 164 137 111 149 123 97 
137 112 86 150 126 100 144 121 96 125 104 80 120 99 76 128 107 85 146 125 104 189 169 148 
208 185 162 210 183 157 208 181 155 207 179 154 206 178 152 202 172 148 152 122 98 87 57 34 
84 52 29 83 49 28 85 51 31 99 64 46 122 88 72 140 109 93 109 78 65 85 55 44 
65 37 27 53 28 19 43 20 14 34 14 11 27 10 8 22 6 5 19 4 4 18 5 5 
17 8 12 17 11 18 19 11 18 19 10 13 20 8 7 26 8 4 39 12 5 55 17 9 
73 23 16 86 24 18 95 24 18 96 21 15 115 36 31 132 54 49 134 60 54 117 52 43 
99 42 29 90 35 21 84 28 13 87 26 10 103 34 17 122 42 25 139 51 33 155 59 43 
157 59 35 157 57 30 157 58 30 160 60 32 161 61 34 161 61 34 160 61 35 158 60 35 
156 58 35 151 56 34 145 53 32 137 49 29 125 43 25 115 38 22 108 35 22 93 27 15 
81 22 10 73 21 11 68 21 14 59 18 11 45 10 3 42 11 6 37 9 6 28 2 1 
30 5 3 33 7 5 36 8 6 41 11 9 43 11 10 43 8 9 45 8 9 47 7 10 
48 6 11 53 11 15 56 13 18 58 15 19 77 34 39 101 61 66 128 92 97 122 89 93 
82 55 58 20 2 1 16 2 2 13 2 2 12 3 3 9 3 3 7 2 2 6 2 2 
14 2 2 16 3 2 14 3 2 11 3 2 15 8 7 22 18 15 35 33 29 46 46 41 
52 53 47 38 37 32 24 19 15 14 4 2 21 6 5 27 6 6 31 5 6 30 3 2 
37 4 5 47 10 12 62 24 28 63 24 28 63 25 28 89 52 54 97 61 62 98 59 59 
98 49 43 110 54 48 116 53 50 88 20 16 94 18 17 109 22 25 110 20 24 109 19 24 
105 18 22 94 15 18 83 12 14 70 8 10 53 5 4 47 6 4 46 12 8 53 23 17 
64 31 26 76 37 34 91 42 41 107 46 47 120 47 50 125 39 45 136 42 50 141 51 58 
135 69 68 134 75 72 126 71 67 104 55 50 91 49 43 78 44 37 65 39 32 58 39 32 
54 39 33 53 42 36 
65 30 29 76 39 37 101 53 49 110 56 49 107 51 40 106 43 27 114 47 25 127 56 27 
140 65 29 152 73 31 161 81 33 166 86 33 166 89 33 164 92 33 162 96 35 158 99 37 
152 101 40 144 101 44 133 97 47 121 93 51 112 90 57 105 87 64 99 85 71 97 85 80 
93 83 83 87 80 87 71 77 101 79 86 112 98 101 123 127 125 142 142 133 144 161 144 149 
201 174 173 214 179 173 210 166 156 181 129 116 154 96 82 129 67 52 107 45 32 95 32 20 
85 24 12 76 19 7 76 21 9 79 27 14 81 36 18 81 41 21 81 47 24 83 54 29 
88 62 37 94 72 51 101 87 75 103 89 78 106 92 81 114 100 86 128 113 99 142 127 113 
156 139 125 157 140 126 155 137 124 150 132 119 145 126 113 138 118 105 129 107 95 124 102 90 
118 95 83 110 87 75 104 80 68 98 74 63 94 69 59 89 64 54 84 59 49 79 54 44 
76 50 40 69 45 37 58 40 34 55 37 32 51 33 29 46 29 25 40 23 20 35 18 15 
29 12 11 23 6 6 18 2 3 15 1 1 14 1 0 13 1 0 13 1 0 11 0 0 
10 0 0 9 1 0 16 6 3 20 10 6 21 13 8 20 11 6 17 9 3 13 6 1 
11 5 1 18 5 3 29 6 8 35 9 11 39 8 10 43 7 9 55 13 16 70 21 23 
83 27 29 83 23 23 84 20 18 90 23 19 121 52 47 129 59 51 126 55 44 121 49 37 
133 61 46 152 80 61 162 88 68 169 93 71 175 96 72 179 98 74 183 99 74 186 99 75 
187 100 76 187 101 77 185 102 79 184 101 78 180 98 76 176 95 74 170 90 72 163 86 70 
156 83 68 148 78 66 138 74 62 128 69 57 115 60 48 92 41 28 71 23 11 58 13 6 
105 58 45 155 105 85 177 124 103 194 135 114 208 143 121 217 148 125 223 148 124 227 146 123 
227 144 120 214 135 109 204 128 100 201 127 100 196 123 96 190 120 92 184 118 90 182 121 92 
185 128 98 193 141 110 197 149 118 199 156 124 198 160 128 198 165 132 197 168 135 195 169 136 
199 176 144 206 186 154 215 199 166 224 210 177 231 218 186 235 223 191 231 222 190 228 220 187 
224 216 183 220 214 184 219 214 185 222 216 187 225 220 190 229 222 192 232 224 194 233 225 194 
233 225 192 233 223 190 234 222 189 235 220 186 235 217 181 227 205 170 223 197 162 223 193 158 
224 188 153 223 182 147 221 175 141 220 170 136 217 162 129 213 154 122 211 149 116 208 143 111 
205 138 108 205 136 120 199 132 122 187 124 115 162 105 97 108 58 53 45 4 2 38 5 2 
29 6 2 21 6 3 16 8 5 13 8 7 12 9 9 13 9 9 17 9 9 22 9 9 
30 8 9 41 10 11 55 13 14 69 16 17 80 18 19 91 20 20 101 23 22 113 29 28 
122 39 36 120 60 43 112 62 42 103 57 39 93 52 38 67 33 21 40 13 4 29 10 4 
19 6 3 9 2 1 3 2 0 2 2 1 1 4 2 1 5 1 3 7 2 5 9 4 
9 12 6 11 13 8 10 13 8 7 9 6 3 6 5 1 4 4 1 3 5 1 4 7 
1 5 7 1 7 4 2 8 5 4 9 7 9 11 8 15 12 11 22 13 13 30 15 13 
40 18 17 51 22 19 59 26 21 69 32 26 78 37 30 83 41 32 85 42 32 84 42 30 
79 38 25 66 28 14 55 21 6 47 17 3 44 16 3 41 16 3 41 19 4 50 29 11 
59 38 16 69 44 21 80 54 31 90 64 41 101 75 50 114 87 62 126 98 73 137 109 83 
137 109 82 140 112 83 145 116 87 159 130 101 169 141 112 177 148 120 174 146 119 172 145 118 
172 145 119 180 153 128 181 156 131 178 154 130 179 157 134 185 164 142 194 173 152 208 188 167 
213 188 165 211 181 155 208 177 152 189 157 133 162 129 105 141 107 83 112 77 55 83 48 27 
80 44 23 74 36 18 77 37 22 135 96 80 160 121 107 161 125 112 139 103 93 97 64 55 
56 25 17 52 22 17 45 19 14 38 14 11 31 9 9 28 8 8 27 8 9 26 8 9 
22 9 13 18 9 16 20 9 16 22 10 13 25 10 9 32 11 7 44 14 8 59 18 10 
75 23 16 88 24 18 96 23 18 95 19 13 115 35 32 132 54 51 130 57 52 116 51 43 
102 44 32 94 39 24 82 25 14 81 20 8 102 33 16 117 38 22 131 43 27 143 49 33 
147 48 27 150 48 24 152 50 25 154 52 27 154 53 28 154 53 28 153 53 29 152 53 30 
150 52 30 145 50 29 139 47 28 132 44 27 121 38 22 110 33 19 100 28 15 87 22 10 
76 17 7 68 15 6 61 14 7 54 12 6 46 8 4 44 10 7 41 10 8 38 9 7 
42 11 10 45 11 10 45 9 9 50 12 12 56 16 17 64 20 22 68 22 25 71 23 27 
72 21 27 75 22 29 77 24 31 80 26 34 87 35 43 106 56 64 132 86 93 123 81 87 
101 64 69 71 41 44 90 65 67 108 88 89 125 108 108 117 103 103 108 96 95 98 88 86 
99 86 85 101 88 87 103 91 91 103 94 93 101 94 92 96 91 88 85 81 78 72 68 65 
57 53 49 38 32 28 27 17 14 21 6 5 26 6 5 30 5 5 35 4 6 41 6 8 
52 13 16 66 22 27 84 38 43 95 49 54 105 58 64 119 73 78 125 78 83 130 82 85 
147 92 87 155 94 89 158 89 87 150 71 72 153 65 69 159 62 71 161 58 69 155 51 63 
143 43 54 123 34 41 104 26 31 83 19 21 58 9 8 43 5 4 35 5 3 33 9 6 
42 18 13 56 28 21 75 36 31 89 39 37 102 40 41 113 39 42 123 41 47 128 47 53 
124 60 62 122 64 64 117 62 62 104 55 54 93 51 49 74 40 37 39 16 13 39 20 16 
41 26 22 40 28 26 
67 32 30 77 40 38 104 56 53 110 57 51 105 49 39 105 44 28 112 46 23 123 53 23 
137 64 27 149 74 29 159 82 31 162 87 31 163 91 32 161 94 32 159 98 34 154 100 36 
147 100 38 137 97 41 127 94 47 117 90 54 110 88 64 104 86 74 99 84 84 94 81 92 
88 77 94 79 71 92 60 62 83 63 65 85 78 77 93 104 98 108 118 105 110 142 121 121 
203 173 168 224 186 176 228 182 168 215 161 144 192 132 114 168 103 85 147 77 59 126 55 38 
108 38 22 97 29 15 94 29 14 95 34 18 102 46 26 101 50 28 104 57 33 117 74 47 
131 91 62 144 111 84 152 136 119 153 138 123 154 139 124 158 142 127 163 147 132 167 150 135 
169 151 136 164 145 131 157 137 123 147 127 113 139 118 104 130 108 95 120 97 84 113 91 78 
107 84 72 100 76 65 95 71 60 91 67 56 88 64 54 84 60 50 79 54 45 72 48 40 
68 43 35 62 39 31 53 34 29 50 31 26 46 27 23 40 22 20 35 18 15 30 13 11 
25 8 7 21 4 4 17 1 1 14 1 0 13 1 0 13 1 1 14 1 1 13 1 1 
12 1 0 12 1 1 20 8 6 25 14 11 29 19 14 25 16 10 20 11 6 14 7 1 
14 7 1 22 7 5 35 8 12 39 9 12 43 9 12 48 9 12 57 12 15 71 20 23 
86 28 30 85 23 24 86 21 20 93 25 21 121 50 46 129 57 50 127 55 45 122 50 38 
133 61 46 150 78 60 160 86 67 167 91 70 173 94 72 177 95 74 181 96 75 184 98 75 
187 100 78 186 102 78 184 103 78 182 100 76 178 97 74 174 94 71 170 90 70 164 87 69 
158 84 68 149 79 64 139 72 58 128 67 53 122 65 51 96 43 28 72 22 9 62 16 6 
103 54 40 147 96 75 172 117 95 187 128 105 199 135 112 212 142 118 220 145 121 225 145 121 
229 145 121 221 140 114 214 135 107 210 131 105 203 127 100 197 124 96 191 121 94 189 123 94 
188 126 96 189 131 101 191 138 107 192 144 112 192 147 116 186 145 113 182 145 113 183 150 117 
192 162 130 203 177 144 217 193 161 227 206 173 235 215 182 238 219 187 233 215 182 227 210 177 
220 204 171 217 205 174 218 207 178 221 210 180 225 215 184 228 217 186 230 218 187 229 216 184 
228 214 182 227 212 180 229 212 179 232 212 178 234 212 176 227 201 166 224 195 159 224 191 156 
224 186 150 223 181 145 223 175 140 220 169 134 218 162 128 216 156 123 212 150 117 210 145 112 
208 141 111 207 137 122 201 133 124 190 126 118 164 105 98 108 58 53 45 4 2 39 5 2 
32 5 2 23 5 3 19 7 6 17 7 7 15 7 8 16 8 8 19 7 9 25 7 9 
34 8 10 45 11 13 58 14 16 71 17 18 83 19 21 94 22 23 105 26 26 114 30 29 
120 37 35 118 60 43 112 62 43 102 57 40 92 53 39 65 32 21 38 12 3 28 10 3 
19 6 3 10 4 2 4 2 1 2 3 2 1 3 2 1 4 1 3 6 2 6 9 3 
9 11 5 9 10 5 8 9 5 6 7 4 3 5 4 1 4 5 1 4 6 1 4 7 
1 5 7 1 7 7 2 9 10 5 13 14 13 18 21 21 23 26 29 26 29 35 26 30 
40 25 29 46 26 30 54 29 31 62 33 34 69 36 35 72 37 34 77 41 36 78 41 34 
72 36 27 62 28 18 53 23 11 46 20 8 38 15 4 31 11 2 27 9 1 32 17 3 
40 22 5 50 26 8 60 36 16 72 47 26 86 61 38 105 79 56 122 95 71 136 109 83 
136 108 82 138 110 83 142 112 84 156 126 98 166 137 108 174 145 116 179 150 122 184 156 129 
189 161 136 195 167 142 199 172 148 202 178 155 208 184 162 212 189 168 214 193 172 213 192 172 
214 189 166 215 182 156 201 167 143 173 138 115 137 100 78 109 70 49 91 52 31 80 41 21 
80 39 21 75 33 17 79 36 22 148 105 92 171 129 117 168 127 117 148 109 100 102 65 58 
55 20 14 53 20 16 48 18 15 41 14 12 35 8 9 32 7 9 31 8 10 30 8 10 
25 8 13 21 9 16 23 10 16 25 10 13 28 11 10 36 13 8 47 15 8 59 17 10 
75 22 14 87 23 17 96 22 17 97 19 14 116 36 33 133 54 52 128 55 51 115 50 43 
102 45 34 94 40 26 79 24 14 75 17 7 96 29 14 111 34 18 124 38 23 135 43 28 
143 44 25 150 46 23 153 49 25 154 50 27 153 50 27 151 49 26 150 49 27 148 48 27 
146 48 28 142 47 28 136 44 27 130 41 26 118 34 21 106 28 16 95 23 11 84 18 7 
74 13 5 66 10 4 59 9 3 53 8 3 48 7 4 46 8 7 45 10 9 45 11 11 
49 12 12 52 12 12 53 10 12 58 14 16 67 20 23 79 27 32 85 31 36 88 32 38 
89 30 37 90 30 38 93 31 40 95 33 43 97 37 47 111 53 63 133 79 88 123 73 81 
110 66 72 98 59 64 127 93 97 155 126 129 179 155 156 172 152 152 163 145 144 152 137 135 
141 128 126 140 128 127 145 134 133 148 139 137 145 138 135 137 130 128 115 109 106 92 86 82 
70 62 59 54 43 40 47 33 31 47 28 27 54 30 29 59 30 30 64 28 31 71 31 34 
83 38 43 97 48 54 113 62 69 127 74 81 139 84 92 144 89 96 146 90 98 151 94 100 
173 112 108 179 112 107 180 105 104 183 96 100 185 90 96 188 84 94 190 80 94 182 72 86 
167 61 73 141 45 54 118 35 41 93 24 27 63 13 11 43 6 4 29 3 1 22 3 1 
30 12 6 44 23 14 65 34 27 79 37 33 92 38 38 106 41 43 116 43 47 121 47 52 
117 56 60 115 58 62 111 57 60 102 54 55 95 54 54 76 42 42 33 10 9 35 15 13 
39 22 20 38 24 24 
63 28 26 71 34 32 101 55 52 110 58 53 106 50 41 105 46 29 111 48 24 121 54 22 
134 64 25 145 73 27 153 81 28 157 87 30 159 92 31 158 96 32 155 99 33 150 100 35 
144 100 38 132 97 41 123 93 49 115 88 58 107 84 69 102 83 82 96 81 93 87 73 97 
79 66 98 72 59 92 60 49 68 63 52 65 77 63 73 105 87 91 122 99 97 147 118 112 
208 172 160 230 187 172 236 187 168 230 175 153 217 157 136 200 136 115 175 107 87 146 76 57 
121 51 34 108 39 24 98 31 16 95 31 15 107 47 29 104 47 28 109 55 33 133 83 58 
153 105 79 167 127 103 171 153 136 170 154 138 169 152 136 169 152 136 170 152 137 170 151 136 
168 150 133 162 142 127 154 133 119 144 123 107 136 113 99 126 102 89 113 90 77 107 84 71 
102 78 65 96 71 60 91 67 56 88 64 53 85 61 52 81 57 49 76 52 45 70 46 39 
65 41 34 59 37 30 51 33 28 48 29 25 44 25 21 40 20 18 35 16 14 30 11 10 
24 7 6 20 3 3 17 1 1 15 1 0 13 1 0 15 1 1 17 2 3 16 1 1 
15 1 1 16 2 2 23 10 9 29 17 15 34 23 18 30 19 14 23 14 8 16 7 1 
16 7 1 24 7 5 37 7 12 42 10 14 46 10 14 50 9 13 58 12 16 72 20 23 
87 28 31 85 23 24 87 22 21 95 27 23 121 50 46 128 57 50 126 55 44 120 48 36 
131 59 45 148 75 59 158 84 66 166 90 71 171 93 74 175 94 74 178 95 75 181 97 76 
185 99 79 185 102 78 182 103 76 179 100 74 176 97 72 173 94 70 169 91 69 165 89 69 
159 86 68 152 81 65 142 76 60 132 71 55 126 68 53 102 48 32 82 31 15 80 31 14 
105 55 36 136 85 63 166 112 88 180 122 97 191 129 104 205 136 112 214 139 115 220 141 117 
225 143 120 223 140 115 219 137 111 216 134 109 211 132 106 207 130 103 201 127 101 198 126 100 
195 127 99 193 128 101 191 131 102 190 134 104 189 136 107 179 131 101 176 132 101 184 143 112 
197 159 127 210 175 143 222 189 158 229 199 166 233 204 172 233 205 173 227 201 167 221 195 161 
214 188 156 218 199 169 223 207 178 227 211 183 233 217 187 235 218 188 232 216 186 227 210 178 
223 205 172 220 200 168 222 201 166 225 202 167 230 204 169 227 198 163 226 193 158 226 189 154 
224 184 149 223 179 144 222 174 139 219 168 133 217 162 128 215 157 122 213 152 118 211 147 114 
208 142 112 209 140 126 204 135 127 192 128 120 164 105 99 108 57 54 45 3 2 39 3 1 
32 2 1 25 2 1 23 6 6 21 7 8 18 6 8 20 6 9 23 6 9 29 7 10 
37 9 12 48 12 14 61 14 17 72 17 19 84 20 22 96 24 25 107 28 28 115 31 31 
119 38 35 116 60 43 109 62 42 99 56 38 89 53 37 63 32 21 37 12 4 27 9 3 
19 7 3 12 5 3 6 4 2 4 4 3 3 5 4 3 4 2 3 5 1 5 6 2 
7 8 2 7 7 2 7 6 2 6 6 4 5 5 4 3 5 5 2 5 7 1 4 8 
1 5 8 1 6 10 3 12 16 8 19 25 20 30 37 29 36 45 36 40 50 40 40 50 
43 38 48 48 38 48 56 40 50 64 45 54 70 48 54 72 46 49 76 48 49 76 48 46 
70 42 38 61 34 28 52 28 21 45 25 16 35 18 8 26 13 3 19 8 1 23 13 4 
29 15 4 36 14 2 47 24 8 61 37 19 77 52 34 101 76 55 123 96 74 142 115 91 
144 116 91 145 116 90 144 115 88 155 124 98 165 134 107 174 145 115 179 150 123 185 156 130 
191 163 137 196 167 143 199 172 149 202 177 156 208 183 163 210 186 167 209 187 167 206 184 165 
212 185 163 219 184 159 188 151 128 158 120 98 128 89 68 102 61 41 86 44 25 78 35 17 
82 37 21 84 38 23 91 46 32 138 93 80 158 113 103 159 116 108 138 95 88 99 58 52 
61 22 17 57 20 18 52 18 16 45 14 13 37 7 8 34 6 7 32 6 8 30 4 7 
27 7 12 24 10 17 27 12 17 28 11 13 30 11 9 38 13 8 47 14 7 58 15 7 
72 18 9 85 21 14 96 23 18 100 22 17 118 38 35 133 55 52 128 55 51 113 50 43 
100 44 34 91 39 27 76 23 15 70 15 5 87 25 10 103 30 15 117 35 20 132 43 28 
145 47 28 155 50 28 158 52 30 157 52 30 156 51 30 154 49 29 150 47 27 147 46 27 
145 47 29 140 45 28 135 42 28 130 39 26 115 30 19 103 23 13 94 19 9 83 15 7 
74 11 5 68 8 4 61 6 3 55 5 3 51 4 3 50 6 7 50 8 10 50 10 12 
53 10 10 56 10 11 59 11 13 67 17 20 77 24 29 89 32 38 96 35 42 99 36 44 
100 35 43 101 34 43 103 35 45 106 37 48 106 40 50 116 52 63 132 72 83 122 66 76 
112 61 69 103 58 64 130 91 96 156 123 126 179 150 153 178 152 154 175 152 153 170 149 150 
145 131 129 138 128 126 144 135 133 149 142 138 151 144 140 148 140 138 128 119 116 108 98 95 
91 79 77 85 70 68 85 66 65 89 67 66 105 77 78 111 78 81 114 75 80 119 76 80 
128 80 86 139 87 94 151 95 103 159 101 110 164 103 113 164 101 110 161 97 107 161 97 105 
179 110 109 183 109 107 184 103 103 189 97 102 192 91 99 196 86 97 199 84 97 192 77 91 
177 67 79 150 50 60 125 38 45 100 28 30 69 16 13 47 9 5 30 4 1 20 3 1 
27 11 4 41 22 12 62 35 26 75 38 33 88 40 38 104 44 46 114 47 51 118 51 56 
114 55 62 112 56 63 108 55 61 98 51 55 97 57 59 83 49 50 45 18 18 43 21 21 
45 27 27 44 29 29 
62 26 24 69 32 28 101 55 53 110 60 55 106 54 44 106 50 33 111 51 27 119 57 24 
130 65 25 139 72 26 147 80 27 152 87 29 154 93 31 155 98 33 151 100 34 146 101 36 
139 100 39 129 97 44 120 92 51 110 86 61 103 82 72 97 78 84 91 74 94 83 67 99 
77 61 102 75 55 95 81 43 56 87 44 49 97 53 55 119 75 71 132 85 77 152 104 90 
204 155 135 224 174 152 234 181 157 235 181 154 232 176 150 222 164 140 199 140 117 166 107 86 
137 78 60 122 63 48 105 48 34 100 44 31 118 65 52 118 67 53 129 79 63 164 116 99 
188 141 123 199 160 142 191 172 155 189 171 155 186 168 152 181 163 146 177 159 142 173 153 137 
166 146 129 160 138 123 151 128 113 137 115 99 129 105 90 118 93 79 104 79 65 99 74 61 
94 69 57 88 64 53 85 61 50 82 58 48 79 55 47 75 51 44 70 46 40 63 40 35 
59 35 30 52 30 25 44 24 20 43 23 18 41 21 17 39 18 16 36 15 15 32 12 12 
28 9 8 26 7 7 24 5 6 21 2 4 19 2 4 20 3 5 22 5 7 22 7 8 
23 8 8 24 9 9 29 14 14 35 20 19 40 26 22 34 21 16 28 15 10 22 10 3 
22 10 4 28 8 7 36 6 11 41 8 12 45 9 12 49 8 12 58 11 15 70 18 20 
82 25 25 85 23 22 87 22 20 94 26 22 117 48 43 125 55 48 124 54 44 121 51 40 
133 64 50 150 80 64 159 88 70 164 92 73 168 94 75 172 93 76 175 95 77 179 98 79 
183 100 82 181 102 79 178 103 74 177 101 74 173 97 72 170 94 70 168 93 70 165 91 70 
160 89 70 154 85 68 147 82 65 139 79 62 132 75 59 111 58 42 93 43 26 89 41 24 
108 60 40 132 83 61 156 104 81 169 113 89 182 121 97 197 130 107 206 134 111 213 137 114 
221 141 118 223 139 116 223 137 113 222 136 113 220 136 113 217 135 111 213 132 109 208 130 106 
204 129 104 199 128 102 195 126 100 191 126 99 188 126 99 184 125 99 185 130 103 193 140 113 
203 154 125 212 166 137 221 177 148 225 183 153 226 185 156 223 184 155 217 178 148 212 173 143 
208 169 140 215 189 161 222 203 175 228 209 182 234 214 186 235 214 186 231 211 182 223 201 171 
217 194 163 214 189 159 218 193 160 225 198 164 231 203 169 229 197 163 227 193 158 227 189 154 
226 184 149 223 179 144 221 174 139 219 168 134 216 162 129 213 156 122 211 152 118 208 148 115 
206 144 113 208 141 127 203 135 128 190 126 119 165 106 100 113 60 55 53 7 4 44 6 2 
35 3 1 28 2 2 28 7 7 25 7 8 22 6 8 24 6 8 26 5 9 31 5 9 
38 7 11 49 10 13 60 13 16 72 17 18 83 20 21 93 23 24 102 26 26 111 30 30 
116 38 35 112 60 42 104 59 40 92 51 34 80 46 31 53 25 16 28 5 2 21 4 1 
15 4 2 10 3 2 6 3 3 5 4 4 4 5 4 4 5 3 4 5 2 5 4 1 
5 4 1 5 4 1 5 3 1 3 3 1 3 3 1 3 3 2 2 3 5 2 4 6 
2 4 9 1 6 14 3 13 23 10 24 36 24 38 52 35 49 65 45 56 73 50 59 78 
54 60 79 60 62 82 69 67 86 80 74 91 84 75 89 78 64 75 78 61 69 72 54 60 
60 42 45 47 30 32 37 22 22 31 19 19 25 16 16 21 15 14 17 14 14 22 21 21 
30 22 18 40 18 5 41 19 5 43 21 7 47 24 12 64 39 23 83 57 38 106 79 57 
119 91 68 130 101 77 140 110 85 155 124 99 166 134 109 173 142 115 179 148 122 185 155 130 
192 162 138 196 167 144 199 171 150 201 176 156 204 179 159 201 177 159 195 172 155 184 161 143 
175 147 127 165 128 105 125 87 66 108 69 49 104 63 43 90 48 30 81 38 22 77 32 17 
80 34 21 82 35 23 85 37 26 100 51 42 108 60 52 111 64 58 103 58 52 84 41 36 
64 22 20 60 20 19 56 19 18 51 17 17 43 11 12 40 9 10 38 9 10 34 6 8 
31 8 12 28 11 17 29 10 14 31 11 11 33 11 8 40 12 6 49 13 6 61 15 6 
73 18 10 84 19 13 94 21 16 101 24 19 118 39 37 130 54 52 123 54 49 106 46 39 
89 38 28 78 31 19 69 22 11 68 17 5 80 23 8 97 29 15 112 36 22 124 41 27 
140 44 27 152 46 27 154 47 29 153 47 29 151 45 28 147 42 26 143 40 24 140 39 24 
137 38 24 133 36 23 128 34 22 123 31 21 111 25 16 101 20 11 94 17 10 87 14 8 
79 11 7 72 9 5 68 8 5 63 7 5 59 6 5 59 6 9 60 9 13 62 13 16 
65 17 18 69 20 21 74 22 25 83 30 33 93 37 42 105 44 50 112 48 55 116 50 58 
119 50 60 123 52 63 128 55 67 131 59 71 130 60 71 134 67 78 142 78 89 130 71 80 
119 65 73 112 63 71 130 87 93 145 106 111 156 122 125 152 122 124 152 124 125 153 128 128 
144 130 127 144 135 131 149 140 137 156 147 142 159 149 144 157 146 143 141 129 125 133 120 116 
132 116 114 142 123 121 155 132 131 170 144 143 193 162 163 200 164 166 199 158 162 199 154 158 
200 151 156 203 149 156 206 148 156 206 144 154 204 139 149 197 130 140 190 122 132 186 115 125 
189 113 114 189 108 108 189 102 105 196 98 105 200 94 104 203 90 102 202 83 98 195 78 92 
184 70 84 163 59 71 139 48 56 112 36 39 80 22 20 55 12 9 36 4 1 24 2 1 
28 7 2 38 16 8 56 28 21 70 34 29 84 38 37 100 42 44 110 46 50 114 49 54 
108 51 58 105 51 59 101 50 57 94 48 53 92 51 55 79 45 47 47 20 21 46 24 24 
48 29 29 45 29 28 
63 27 23 69 32 28 101 56 53 110 62 57 107 56 47 107 53 37 111 55 31 118 60 27 
127 66 27 135 73 27 141 80 27 147 88 30 151 95 33 152 100 35 147 101 36 141 101 38 
135 100 42 126 96 47 116 91 54 106 84 62 98 77 72 92 72 82 86 67 92 80 62 99 
77 58 104 81 54 97 107 45 53 117 46 45 124 53 49 138 69 60 144 78 63 157 93 74 
197 136 112 214 156 128 223 167 138 230 177 146 233 182 152 231 180 153 217 168 143 190 141 120 
165 117 99 152 105 89 135 88 75 128 82 71 145 100 90 146 102 92 155 112 101 187 145 132 
206 164 151 212 176 162 197 178 161 194 176 159 190 172 155 183 164 147 176 156 139 168 147 130 
159 136 119 150 127 110 139 115 99 126 102 85 117 92 77 108 82 68 96 71 57 93 67 54 
89 64 52 84 60 48 81 57 47 78 54 45 74 51 44 70 46 41 64 41 36 57 35 31 
52 30 26 46 24 21 39 18 14 39 19 15 40 19 16 41 20 17 41 19 18 39 17 17 
34 14 14 33 13 13 31 11 12 29 8 11 28 8 11 31 12 14 35 17 19 36 18 20 
35 17 18 33 15 16 37 19 19 41 23 22 44 27 24 39 23 19 34 18 13 29 13 7 
29 14 8 32 11 9 36 6 10 40 8 11 44 8 11 49 8 11 58 12 14 69 18 18 
80 23 23 86 24 24 91 26 24 98 31 27 116 48 43 121 54 46 120 53 43 118 51 39 
131 64 50 148 82 66 156 89 72 160 92 75 163 93 75 167 93 77 171 94 78 174 97 81 
179 99 84 177 101 79 173 102 73 172 100 73 170 98 72 167 95 71 166 94 72 163 92 72 
160 90 71 154 88 70 148 85 68 141 83 66 134 79 63 119 68 51 105 57 39 96 51 32 
106 61 40 120 73 52 133 84 62 148 95 72 164 107 83 182 119 96 193 126 103 203 131 109 
212 138 115 217 135 113 220 133 112 221 133 113 221 135 114 220 136 114 218 135 113 214 133 111 
209 131 108 204 128 105 198 125 101 194 123 99 190 121 98 189 123 99 190 127 103 195 135 111 
202 145 119 209 154 128 216 163 137 220 169 143 220 170 144 215 167 141 211 163 136 207 159 132 
204 157 130 212 180 154 218 194 169 223 199 174 227 203 177 227 202 176 222 197 171 213 188 160 
208 182 153 207 179 150 214 186 155 222 193 161 230 199 167 225 192 159 223 187 154 223 185 151 
222 180 147 220 176 143 218 172 139 216 167 134 214 161 129 211 156 124 208 152 119 205 148 116 
204 144 115 207 142 129 201 136 129 189 126 120 168 111 104 124 71 66 72 25 21 57 17 13 
44 10 8 33 6 5 33 8 9 30 8 10 28 7 10 29 7 11 31 7 10 34 6 10 
41 7 12 51 10 14 61 14 17 72 17 19 82 21 22 92 24 25 102 28 29 110 33 33 
115 41 38 110 60 43 100 59 40 89 50 34 77 45 30 50 23 15 24 2 1 18 2 1 
12 2 1 8 2 1 5 2 3 4 3 3 4 3 3 5 4 3 5 4 2 5 3 0 
5 2 0 5 2 0 4 1 0 3 1 0 3 1 0 3 2 1 3 3 4 4 4 6 
4 6 10 2 8 19 3 15 29 10 26 41 24 41 59 35 53 73 45 62 85 51 67 92 
57 71 96 65 76 102 76 84 109 89 93 116 96 96 116 96 92 108 94 87 100 87 77 88 
72 61 70 59 49 56 50 41 47 47 41 46 44 40 46 41 41 46 39 42 48 45 49 55 
54 50 51 66 46 34 61 40 28 54 33 23 48 26 16 55 32 18 69 44 27 89 63 43 
104 76 55 118 88 66 131 100 77 146 115 91 159 127 103 168 136 111 176 144 120 184 153 129 
191 161 138 193 164 142 195 167 147 197 171 152 197 172 154 191 167 150 181 157 141 165 142 127 
150 121 103 131 94 73 91 53 33 81 41 23 88 46 29 86 43 27 81 37 23 77 32 18 
80 33 22 80 32 22 78 29 20 78 29 21 79 30 24 81 32 28 80 34 30 74 29 25 
65 22 20 63 21 20 60 21 21 56 19 20 49 15 16 46 14 15 44 13 14 39 8 10 
35 10 13 32 12 17 32 10 14 33 11 10 36 12 7 43 13 7 52 15 7 63 17 8 
75 19 11 87 22 15 98 25 20 106 29 25 119 42 40 126 54 52 118 53 49 101 46 39 
84 38 28 72 31 19 65 24 11 64 20 6 73 23 8 88 28 15 102 33 20 112 37 24 
131 39 24 145 41 25 147 43 27 146 42 27 143 41 27 139 38 24 136 36 23 133 34 22 
131 33 22 126 31 21 121 29 20 116 26 19 105 21 14 97 16 10 92 15 9 87 13 9 
83 12 9 78 11 9 75 11 10 71 10 10 68 10 11 70 12 15 73 16 20 76 20 25 
79 26 28 83 31 32 88 35 37 97 42 45 107 48 53 116 54 61 123 57 65 129 61 69 
134 64 74 141 68 80 147 74 86 153 80 92 155 84 95 157 89 100 160 94 105 149 89 98 
142 86 94 139 87 95 149 103 109 154 112 117 154 116 120 148 114 117 149 117 119 155 126 127 
158 143 139 162 153 147 167 157 153 175 163 158 179 166 161 179 165 162 173 157 153 173 156 152 
180 160 157 194 171 169 207 181 180 221 192 191 239 207 208 243 208 209 241 201 203 237 192 195 
233 183 188 229 175 181 225 166 174 220 157 165 213 147 156 205 136 145 198 128 138 193 120 130 
195 116 119 195 110 112 195 104 109 202 101 109 205 97 108 205 91 104 198 79 94 192 74 88 
184 70 83 168 63 75 147 53 62 121 42 46 90 28 27 64 16 13 43 6 2 29 2 1 
30 5 1 38 12 5 53 22 17 67 29 26 81 34 34 95 38 40 104 42 46 108 45 51 
102 47 54 99 47 54 95 46 54 90 45 51 89 50 54 79 45 48 52 25 26 50 28 27 
49 31 29 45 29 26 
65 29 24 72 34 29 101 58 53 110 64 57 107 59 50 109 57 41 113 59 36 118 63 32 
125 68 30 131 74 28 137 80 29 143 88 32 148 97 36 149 103 39 142 101 39 136 100 41 
130 99 44 121 94 49 112 88 55 102 81 62 92 72 69 86 66 78 82 62 88 80 59 98 
79 57 104 89 56 97 136 54 58 150 57 51 154 62 53 159 71 57 157 75 57 162 85 63 
188 117 90 197 132 103 204 145 113 216 163 131 223 175 144 227 184 154 229 188 162 216 177 156 
202 165 148 195 158 143 182 146 134 175 140 130 183 148 139 182 147 138 186 151 141 200 165 154 
206 171 161 204 173 161 190 170 154 186 168 151 182 164 147 177 157 139 167 146 128 157 135 117 
145 122 105 132 108 92 121 96 79 109 84 68 102 77 60 96 70 55 91 65 51 89 63 50 
86 61 49 82 58 47 78 55 44 75 52 43 71 48 42 65 42 38 58 36 32 50 30 26 
45 24 22 41 20 17 36 15 10 38 18 14 41 21 17 45 24 20 49 27 24 48 25 24 
43 21 22 40 19 20 39 17 20 39 17 20 39 18 21 46 24 28 55 35 38 54 34 36 
49 30 31 42 22 24 45 24 24 46 26 25 48 28 25 44 25 21 40 21 16 36 17 12 
36 17 12 36 13 11 37 8 10 40 8 11 44 8 11 49 9 10 58 14 15 69 19 19 
80 24 23 88 28 27 97 34 31 106 41 37 117 52 46 118 53 45 114 50 39 111 47 35 
124 62 47 143 82 66 151 89 73 155 91 75 158 91 75 161 92 77 164 93 78 167 95 80 
172 98 84 171 100 80 169 101 74 166 99 71 165 97 71 164 96 72 163 94 73 160 93 73 
157 92 72 153 90 72 145 86 70 138 83 67 133 81 65 125 77 60 116 70 52 102 60 41 
101 58 39 102 57 37 100 53 34 118 68 47 140 87 64 162 104 82 177 114 92 190 122 102 
201 131 111 207 128 109 211 126 107 213 128 109 215 131 111 216 133 113 216 134 114 214 134 114 
211 132 113 207 128 109 202 126 106 197 125 104 194 123 103 193 123 103 192 124 104 192 127 105 
195 133 110 200 139 116 206 148 124 213 156 132 215 159 135 210 155 131 208 154 130 206 152 128 
204 151 126 208 172 149 211 184 161 212 185 162 213 185 161 210 182 158 205 176 153 199 171 146 
197 169 143 198 169 142 210 179 151 218 187 158 224 192 162 215 182 151 212 176 146 212 175 144 
213 172 141 213 170 139 212 167 137 211 164 133 209 159 129 208 155 126 204 151 121 202 148 117 
200 144 115 205 145 130 200 138 130 188 128 121 172 117 111 140 90 84 101 55 51 76 35 32 
57 21 19 42 12 11 39 11 12 36 11 13 34 10 13 36 11 15 37 10 14 38 9 13 
45 9 14 53 12 16 63 16 19 72 19 20 82 23 24 93 28 28 105 35 35 112 39 39 
115 46 42 108 61 45 99 60 42 88 53 36 78 48 34 51 25 17 24 3 1 17 4 1 
11 2 0 5 0 0 4 0 1 3 0 1 2 1 1 5 4 2 5 4 1 6 3 0 
5 1 0 5 1 0 5 0 0 5 1 0 5 1 0 5 1 1 6 4 5 7 6 6 
7 8 12 4 13 24 5 18 33 10 26 43 20 39 58 30 49 72 38 58 84 45 66 94 
53 72 101 63 81 110 76 91 120 89 100 128 104 111 135 121 125 145 121 121 137 114 112 124 
101 97 108 92 87 97 88 82 92 88 86 94 86 87 95 84 88 97 82 88 99 88 95 106 
97 97 101 112 95 85 104 85 76 92 73 62 79 58 45 76 55 40 81 58 42 93 68 49 
101 74 55 110 81 61 119 88 67 132 100 78 146 114 91 160 128 105 171 139 116 180 149 126 
188 158 137 188 158 138 189 160 141 191 163 145 189 163 146 180 156 140 166 143 129 153 129 116 
137 109 93 119 83 64 85 47 29 76 37 20 82 42 26 88 46 32 85 42 29 78 34 22 
79 34 24 76 29 20 71 23 15 71 22 17 69 20 16 67 19 15 69 21 18 67 21 19 
64 21 19 64 23 22 62 23 23 59 22 22 55 20 21 53 19 19 50 17 17 44 12 13 
39 12 15 36 14 18 35 12 14 36 12 11 39 14 9 47 17 10 57 19 10 66 20 10 
78 21 13 93 28 21 107 34 29 113 38 34 120 47 44 122 54 52 113 53 50 97 49 42 
82 43 33 71 36 25 63 29 16 61 24 10 68 26 12 78 26 13 88 28 15 96 30 19 
118 33 20 134 36 22 136 38 25 136 39 26 135 38 26 132 35 24 128 33 22 126 32 22 
125 31 23 120 29 22 114 26 20 109 23 18 99 18 12 92 14 8 89 13 8 86 12 9 
84 13 12 84 14 15 81 14 16 79 15 17 79 16 19 83 21 25 88 26 32 94 32 39 
95 39 42 98 45 46 102 49 50 111 54 57 118 59 63 125 63 70 131 66 74 138 70 79 
145 75 84 155 84 94 163 92 102 170 99 111 179 110 121 183 116 127 182 118 127 176 117 125 
176 120 128 180 127 134 184 137 142 180 137 142 170 131 135 161 126 129 163 130 133 172 142 143 
183 166 161 190 179 172 195 183 178 203 190 184 209 194 188 213 196 191 218 199 195 224 202 199 
231 206 204 238 212 210 243 214 212 245 215 213 248 218 218 248 215 215 246 208 208 240 197 198 
233 184 187 224 171 175 214 156 162 206 144 151 198 133 141 192 125 132 188 119 127 189 116 125 
200 120 124 201 115 119 201 109 115 206 106 114 207 100 111 203 91 104 189 73 87 184 67 81 
179 65 78 165 61 73 148 54 63 127 46 51 99 34 34 73 21 17 50 10 4 35 3 1 
34 5 1 40 10 5 53 18 14 66 24 22 78 29 29 89 32 34 97 36 40 101 39 44 
95 42 48 93 43 49 90 43 50 86 44 49 88 51 55 82 50 52 60 33 33 54 33 30 
50 32 27 44 28 22 
67 30 23 74 36 29 101 59 52 109 65 57 107 61 51 108 60 44 112 61 40 118 64 37 
123 70 34 128 74 33 132 80 33 139 89 37 143 96 42 144 102 46 136 99 44 130 98 46 
124 96 49 117 92 53 107 85 56 96 76 59 88 68 64 83 62 71 80 59 80 83 60 92 
87 63 101 104 66 100 159 64 65 172 66 57 172 69 57 169 71 55 165 73 54 163 78 56 
169 92 65 167 98 69 168 107 77 181 128 98 191 146 116 200 160 133 206 171 147 210 179 159 
211 183 167 207 181 167 201 177 165 194 170 159 184 161 150 179 156 144 172 149 136 157 134 120 
145 122 108 134 113 98 126 107 90 129 111 95 134 115 98 137 118 99 132 112 94 125 103 85 
114 92 73 109 85 67 102 77 60 94 69 51 89 63 46 83 57 42 78 52 38 76 50 37 
74 48 37 70 46 36 66 43 34 62 39 32 57 34 30 50 29 24 43 22 19 35 16 14 
31 11 10 31 10 7 35 13 7 39 17 13 45 22 18 51 29 25 53 30 28 52 29 28 
47 24 23 45 22 23 44 21 22 43 20 23 45 22 25 50 27 30 58 34 37 57 33 36 
53 29 32 47 24 25 47 22 23 48 24 24 51 28 27 48 25 22 45 22 19 43 20 16 
43 21 16 41 18 15 39 13 13 41 13 13 45 13 13 50 14 13 59 18 17 70 23 21 
80 28 25 87 31 28 96 37 33 105 46 39 116 55 47 115 55 45 109 51 38 108 50 36 
122 66 50 141 85 69 147 91 75 150 93 76 152 92 77 155 94 79 157 94 79 159 94 80 
162 96 82 163 99 79 162 101 75 161 100 75 160 98 74 160 97 75 158 96 76 157 95 77 
155 94 77 150 92 76 145 90 76 140 89 75 136 88 75 132 88 74 127 86 71 118 79 62 
103 64 48 90 50 34 85 43 26 92 47 29 110 61 42 142 89 70 159 103 84 172 113 94 
182 120 102 191 119 102 197 118 102 198 120 103 199 122 105 201 125 108 203 128 110 204 129 112 
203 129 112 202 129 111 201 129 111 198 128 110 195 126 109 193 125 107 189 123 105 184 121 102 
181 119 100 180 120 100 181 123 102 186 128 108 190 133 112 193 137 116 197 142 120 199 145 123 
200 146 125 206 169 149 208 180 161 207 178 159 201 172 153 196 166 146 190 160 139 185 156 134 
183 153 131 182 152 129 190 158 135 195 163 139 199 167 142 186 153 127 181 146 120 184 147 121 
188 149 122 192 152 124 196 154 126 199 155 126 200 154 125 201 152 125 199 150 122 198 148 119 
196 146 119 202 148 133 199 143 134 188 134 125 175 125 116 157 109 103 133 89 84 97 58 54 
69 34 32 48 16 16 43 15 16 40 13 16 39 13 16 42 15 19 44 15 20 46 14 19 
50 14 19 56 16 20 64 18 21 72 21 22 80 25 24 89 29 28 101 37 37 110 44 43 
114 50 46 105 62 46 96 59 41 85 52 36 76 48 35 49 26 18 23 5 1 19 5 3 
13 4 3 8 2 2 6 2 3 6 3 4 6 4 5 8 5 4 8 4 2 8 3 0 
8 2 0 8 1 0 8 1 0 8 1 0 8 2 1 10 4 3 13 10 8 16 13 12 
20 19 21 25 32 39 23 32 43 21 32 46 20 35 52 22 39 60 25 44 68 29 50 77 
35 56 84 44 64 92 55 73 102 67 82 108 81 92 115 99 105 124 107 110 125 113 113 124 
116 113 121 124 119 126 133 128 136 146 142 149 149 147 156 148 149 159 144 148 159 147 152 163 
158 157 163 181 165 158 184 167 160 184 166 159 182 163 154 182 161 150 181 159 146 181 157 142 
168 142 126 155 127 109 141 111 92 139 108 88 140 108 87 143 110 89 146 113 93 151 119 99 
158 128 108 166 136 117 173 145 127 181 154 137 183 157 142 183 158 145 182 158 146 188 165 152 
196 169 154 201 169 150 173 140 122 147 113 96 125 88 73 115 77 63 98 58 46 81 39 28 
77 33 25 72 27 20 68 22 16 67 20 15 66 19 15 65 18 15 67 20 18 66 21 20 
64 22 21 64 24 23 64 26 25 62 26 26 59 24 24 56 23 22 53 21 20 48 16 16 
44 17 18 42 18 21 41 17 18 42 17 16 45 19 13 51 21 13 60 23 13 70 24 14 
80 25 16 94 31 24 107 38 33 114 43 39 118 50 47 117 55 53 109 56 52 97 55 48 
87 56 46 83 58 45 80 56 41 77 50 35 73 40 26 72 30 16 70 21 10 67 15 8 
91 20 10 110 26 14 113 28 17 115 30 18 115 31 19 113 30 19 112 29 19 111 28 19 
110 27 20 106 25 19 101 23 17 96 19 15 90 16 11 86 13 9 84 12 10 84 14 13 
84 16 16 86 20 21 88 23 26 91 26 30 93 30 34 100 38 42 108 46 51 116 55 62 
124 70 72 131 80 80 136 85 86 143 90 92 150 94 97 155 97 101 159 98 103 163 101 107 
169 105 113 176 111 119 183 117 126 188 122 131 179 115 123 174 112 120 173 114 122 177 121 128 
186 133 140 199 149 156 207 162 166 205 165 168 197 160 163 195 160 162 200 167 169 211 180 180 
208 189 185 210 196 190 216 200 196 223 206 201 230 210 205 235 214 210 238 214 211 240 214 211 
242 213 211 240 211 209 240 209 207 240 209 207 245 214 212 247 214 212 248 213 211 246 208 207 
241 199 199 236 188 190 228 176 179 222 166 170 217 158 163 217 155 159 218 154 159 218 150 157 
214 137 141 211 129 133 209 123 128 210 116 124 209 109 120 202 97 110 179 70 83 171 62 74 
166 60 72 157 58 68 144 54 61 127 47 52 101 34 35 78 23 20 59 14 9 47 8 4 
44 9 3 46 11 5 54 15 11 61 17 15 69 19 19 76 20 23 82 21 25 81 22 26 
72 21 25 74 26 30 78 32 36 81 40 42 83 47 48 79 48 47 65 39 35 59 37 31 
52 33 25 40 24 14 
72 35 27 80 42 34 101 61 53 108 66 57 106 62 52 107 61 46 111 62 43 116 65 41 
120 70 39 123 74 38 127 78 38 131 85 42 135 92 47 136 97 50 129 95 49 123 94 50 
117 92 52 111 89 56 102 81 57 92 72 57 84 65 60 80 60 65 79 57 72 85 61 84 
93 67 96 112 72 97 165 70 67 179 72 61 178 74 61 172 72 56 166 74 54 162 76 54 
158 80 55 150 81 54 146 86 59 157 105 77 165 121 95 173 136 112 181 149 128 194 166 149 
203 179 164 198 176 164 197 178 166 190 172 160 168 152 139 166 150 135 157 141 125 128 114 95 
109 95 76 96 80 62 90 72 55 97 78 62 105 86 69 112 92 74 111 90 72 106 84 66 
99 76 57 96 72 53 92 67 49 86 60 43 82 56 40 78 51 36 72 46 32 71 45 32 
69 44 32 66 42 32 62 39 31 58 35 29 53 31 27 46 25 21 39 19 17 32 13 13 
28 9 9 29 9 7 36 14 7 44 21 15 51 28 23 59 36 32 60 36 34 58 34 32 
52 29 27 49 25 25 48 24 25 49 24 26 52 27 30 55 30 33 57 32 35 59 33 36 
58 31 34 54 28 28 53 26 27 55 28 28 59 33 32 56 30 28 52 26 23 49 24 19 
50 25 20 48 24 21 45 22 20 46 20 19 49 20 18 54 21 19 63 25 22 72 28 25 
81 32 28 88 36 31 96 42 35 105 50 41 114 58 47 112 57 44 105 52 38 106 54 38 
120 69 52 138 88 70 142 92 75 144 92 76 144 92 76 148 94 79 149 93 78 150 91 77 
152 93 80 153 96 77 154 99 74 153 98 75 153 98 75 153 97 76 152 96 77 151 95 78 
149 93 78 145 91 78 141 91 78 138 91 79 134 90 79 131 92 79 128 92 78 125 90 76 
106 71 57 89 53 39 79 42 27 81 41 25 96 52 35 128 80 64 146 95 79 158 104 88 
164 108 93 175 112 97 182 114 99 183 115 100 184 116 101 185 118 103 189 121 106 190 123 108 
192 125 110 194 127 112 195 129 113 195 130 114 193 130 114 191 128 112 187 125 109 181 121 104 
174 115 98 167 109 91 160 103 86 160 105 86 163 108 89 168 113 94 175 121 102 181 128 109 
186 133 114 203 165 148 209 179 163 203 173 158 194 164 148 187 156 140 181 150 132 176 146 128 
173 142 124 170 139 120 170 139 120 170 138 119 169 137 116 158 125 103 155 121 99 159 123 101 
165 128 105 172 134 110 179 140 115 185 144 118 188 146 121 191 148 122 191 147 121 191 146 120 
190 144 120 196 146 132 190 140 129 177 128 118 169 123 114 159 116 108 144 103 97 107 69 65 
77 42 40 56 23 23 51 21 23 48 20 23 48 21 24 51 23 27 52 22 27 53 20 25 
55 20 24 60 20 24 66 22 25 73 25 26 80 28 28 88 33 31 100 42 40 109 49 47 
113 55 50 102 62 46 93 59 42 84 53 38 77 50 38 52 31 22 29 13 8 26 15 13 
21 13 13 17 11 12 15 11 13 15 12 14 16 13 14 16 11 11 17 11 10 19 11 8 
20 11 8 20 11 7 19 10 7 18 9 6 19 10 8 21 13 11 26 20 18 30 25 23 
38 34 34 50 51 54 45 48 54 37 42 51 29 38 51 25 38 55 23 39 60 24 44 67 
29 49 74 36 56 81 45 64 89 55 71 93 67 80 99 84 90 106 97 100 111 109 109 116 
121 117 121 136 130 133 153 146 149 171 165 169 176 171 178 177 174 182 173 173 183 175 175 186 
182 178 185 196 182 178 207 191 188 216 199 194 222 204 198 224 204 196 222 201 191 217 194 182 
196 171 157 174 146 131 150 120 104 141 111 93 134 103 84 129 96 77 129 96 78 133 101 83 
140 110 91 154 124 106 164 136 120 173 146 132 176 150 138 181 157 145 189 166 155 205 182 171 
218 193 180 226 197 180 209 180 163 179 149 133 144 111 96 129 94 81 107 70 59 84 45 35 
78 37 29 73 30 24 69 25 20 68 23 19 69 23 20 70 24 22 70 25 23 69 26 25 
68 27 26 68 28 27 68 30 30 67 32 32 65 31 30 63 30 29 60 28 27 56 25 23 
52 25 25 49 25 27 48 23 24 48 24 21 50 25 18 56 26 17 64 28 17 73 29 18 
81 30 19 95 35 27 107 41 35 113 46 41 115 52 48 113 56 53 104 57 52 95 60 52 
87 63 53 86 68 55 85 68 54 82 64 49 75 52 37 71 39 25 66 27 15 59 16 8 
77 18 8 93 23 11 97 26 15 100 28 17 101 30 19 101 30 19 101 30 20 101 29 21 
100 29 22 97 28 21 94 25 20 89 21 17 86 19 16 83 18 15 82 18 15 83 19 19 
85 23 23 88 27 29 93 32 35 97 36 40 100 41 44 107 49 52 115 57 60 122 65 69 
135 85 85 146 99 97 153 104 104 159 110 110 165 113 115 168 115 117 170 114 117 172 115 119 
175 117 122 179 120 126 182 122 128 183 124 130 171 112 118 164 107 113 162 107 113 169 117 123 
181 133 137 197 151 156 205 163 166 205 166 168 200 163 165 201 167 168 209 176 177 219 188 188 
215 193 189 216 198 193 223 203 199 229 207 203 235 211 207 239 213 209 238 210 207 236 206 204 
233 202 200 226 195 193 223 191 188 222 190 186 226 194 190 230 197 194 233 201 197 236 202 198 
236 198 195 233 191 189 226 181 180 222 173 173 219 167 167 221 166 166 224 166 168 224 164 167 
214 146 148 208 136 139 205 128 132 203 121 127 198 110 118 187 94 104 162 66 75 154 57 67 
150 56 65 144 56 63 135 53 59 122 48 51 101 39 39 83 30 27 68 22 17 57 17 12 
54 17 11 54 18 12 58 19 16 62 19 17 66 18 18 70 17 19 73 17 20 72 17 20 
65 17 19 68 22 23 73 29 30 78 39 38 80 45 43 77 47 43 66 41 34 62 40 30 
56 38 26 48 32 18 
80 43 35 90 51 43 102 64 54 106 66 55 105 62 51 106 61 48 109 62 46 113 65 45 
116 68 44 118 72 43 119 75 42 122 79 45 124 84 49 125 89 53 120 89 53 115 88 53 
110 86 54 105 84 58 97 78 58 89 70 57 82 62 56 79 58 59 79 56 65 87 61 75 
96 69 88 115 76 91 158 71 64 172 75 62 173 78 64 165 75 57 161 76 55 156 78 55 
151 79 54 141 77 52 135 78 53 141 91 67 144 100 78 147 110 90 154 121 105 170 141 128 
180 154 143 171 148 138 172 152 140 165 148 135 139 124 109 143 129 112 140 127 107 112 100 77 
95 84 60 84 71 48 78 60 43 84 65 48 92 72 55 99 79 61 100 78 61 99 76 58 
95 72 53 91 67 49 88 63 45 85 58 41 82 55 39 78 52 37 74 48 34 72 48 35 
71 48 36 69 46 36 66 44 36 62 41 35 57 36 32 50 31 28 44 25 24 38 20 21 
35 17 19 36 17 16 41 19 12 51 28 22 61 37 32 69 46 42 69 45 42 65 41 39 
60 35 33 55 29 29 54 28 28 55 29 31 59 33 36 59 33 36 56 30 33 62 34 37 
64 35 37 63 34 35 64 35 35 67 37 38 71 41 40 68 39 37 63 34 31 57 28 24 
58 30 25 57 32 28 54 33 32 53 30 28 56 29 26 62 31 27 69 34 30 76 36 31 
83 38 32 90 42 36 97 47 39 104 53 43 111 59 48 108 58 44 101 54 38 103 57 40 
117 72 53 133 88 69 136 91 73 135 90 72 134 88 72 140 92 77 140 90 75 138 87 73 
141 88 75 142 91 73 143 94 71 143 94 72 144 94 73 144 94 75 143 92 75 142 91 75 
140 89 75 137 88 76 133 87 77 130 87 77 126 87 77 122 87 76 120 89 76 123 93 80 
110 79 67 94 63 50 79 48 34 82 47 33 94 56 41 119 77 64 134 89 76 143 95 82 
145 94 81 157 103 90 166 110 96 167 109 95 167 109 95 168 110 96 170 113 99 173 115 101 
176 118 104 180 122 108 183 125 110 185 128 113 186 131 116 185 129 114 182 127 111 177 123 108 
169 117 100 158 105 89 142 89 73 136 85 68 134 83 66 135 84 68 144 95 77 153 104 86 
161 113 95 194 157 143 206 175 162 197 166 153 187 156 144 179 148 135 172 141 127 168 138 123 
163 133 118 158 127 111 150 119 103 143 112 95 135 105 87 131 99 81 132 99 80 137 103 83 
144 109 88 151 115 94 159 122 101 166 128 107 173 133 112 178 138 116 179 138 116 179 138 115 
179 137 115 183 138 123 173 128 115 157 112 100 155 113 102 149 110 100 138 100 93 105 69 65 
82 47 45 65 33 33 60 30 32 59 30 34 61 32 36 63 33 38 62 31 35 61 28 31 
62 27 30 66 27 30 71 29 31 75 30 30 82 34 33 90 39 38 100 48 45 109 54 50 
112 60 53 99 62 46 91 59 43 84 55 41 79 54 42 60 39 31 41 26 21 40 30 28 
36 29 29 32 27 29 31 27 30 31 27 30 30 27 28 29 24 24 32 25 24 35 27 24 
38 28 23 38 27 21 36 26 19 35 24 19 35 25 21 37 28 25 43 35 32 49 41 39 
59 51 49 77 69 66 71 64 64 59 55 58 45 47 54 37 44 55 32 43 59 30 46 65 
32 50 71 37 56 76 44 62 81 52 67 84 62 73 87 75 81 90 89 91 96 103 100 102 
117 109 107 132 122 120 149 138 136 166 156 156 173 163 165 174 166 170 171 165 172 174 168 176 
172 164 170 165 152 152 181 167 166 194 180 177 206 189 186 211 192 187 212 191 184 209 186 176 
189 163 152 168 140 127 146 116 101 138 108 91 128 97 80 118 85 68 119 86 70 124 91 74 
131 100 83 147 117 101 158 129 116 164 138 126 165 140 129 173 149 138 185 163 153 203 180 171 
206 182 171 201 176 160 200 174 158 176 149 133 142 112 98 131 100 87 111 78 67 88 52 43 
82 44 36 77 38 32 74 33 29 74 31 29 76 32 31 79 35 34 78 36 34 77 35 34 
75 35 34 74 36 35 74 38 37 73 39 39 73 41 40 72 40 39 70 39 37 66 37 35 
62 35 35 58 34 35 57 32 32 56 32 27 57 32 24 62 33 23 68 34 22 76 34 21 
84 35 23 96 39 30 107 44 37 111 47 41 112 53 48 109 57 52 100 58 52 91 62 54 
84 67 57 79 69 57 79 70 56 78 68 53 75 60 45 75 52 37 74 43 28 68 32 18 
76 27 14 84 27 14 89 31 19 91 34 22 93 36 24 94 36 25 94 36 27 95 37 29 
94 38 30 93 36 30 91 34 28 87 30 26 85 29 25 83 28 25 82 27 25 84 29 28 
87 32 32 92 38 38 95 42 42 98 45 47 101 49 50 107 55 56 112 59 61 115 62 64 
132 85 84 145 101 98 152 108 105 159 113 112 163 116 116 165 117 117 165 115 116 165 113 115 
165 112 114 164 111 114 162 108 113 159 105 110 156 103 107 151 100 103 146 97 100 152 106 109 
163 119 122 176 134 137 181 141 144 181 144 146 179 143 145 184 150 151 191 159 159 199 169 168 
202 178 174 206 184 180 212 189 185 218 192 189 222 193 190 223 192 189 217 186 183 211 179 176 
204 171 168 196 163 160 192 159 155 189 156 152 190 158 153 195 164 159 203 172 166 210 178 171 
213 180 173 213 177 172 208 169 164 204 162 159 202 157 154 204 156 153 208 157 155 209 155 155 
200 144 144 192 134 134 187 125 126 185 118 121 174 103 107 159 83 88 140 61 65 135 54 59 
133 53 57 129 53 57 123 53 55 114 50 50 101 46 44 88 41 36 77 35 29 66 29 24 
65 29 23 65 30 24 67 31 26 68 29 26 69 26 24 69 21 22 71 20 22 72 22 23 
72 26 27 73 28 28 75 32 30 77 40 36 80 46 40 77 48 39 66 41 30 64 43 29 
64 46 30 65 48 31 
96 59 50 99 60 51 104 66 54 104 65 53 101 61 48 101 59 45 103 60 45 107 62 45 
110 65 46 111 66 46 110 67 45 110 70 46 110 73 48 110 77 51 108 79 54 104 79 54 
99 77 54 95 76 54 91 73 55 87 69 56 83 64 54 81 59 55 81 57 57 86 59 62 
93 65 70 104 69 72 126 64 53 134 67 52 135 69 52 129 64 45 128 65 45 128 67 46 
125 68 46 117 63 42 111 61 40 116 68 49 117 72 55 116 75 60 114 76 64 121 85 75 
124 90 81 113 82 73 114 85 75 111 85 71 94 71 53 102 80 59 106 86 61 94 75 47 
89 72 42 85 68 41 78 59 43 84 64 49 91 71 54 97 76 58 96 74 57 94 71 54 
91 69 50 91 67 48 90 65 47 89 62 45 85 58 42 85 58 43 88 62 48 88 63 51 
87 64 53 87 64 55 85 62 56 82 61 56 78 59 56 74 55 53 69 52 51 66 49 51 
64 47 50 65 46 46 70 47 40 76 53 46 79 56 51 81 57 53 81 56 53 79 54 51 
74 49 47 75 49 48 76 48 49 77 49 51 76 48 51 76 47 50 76 48 51 79 49 52 
80 49 52 79 49 50 80 50 50 83 52 51 86 54 53 85 54 53 84 53 51 83 51 48 
84 52 48 81 55 51 76 58 54 74 54 50 76 53 48 80 53 48 87 55 50 90 54 47 
92 50 43 96 51 43 101 55 45 107 59 47 110 62 49 105 59 44 97 54 37 97 55 37 
104 63 45 112 72 54 113 73 55 110 70 52 108 67 51 114 72 57 115 71 57 114 68 54 
115 68 55 114 68 51 113 69 48 114 70 49 115 70 51 115 70 53 114 69 54 114 68 55 
113 67 55 111 66 57 109 66 58 106 67 59 103 68 60 98 67 58 95 68 58 100 74 64 
96 70 60 89 64 53 83 56 44 85 54 42 91 57 46 103 66 55 112 71 59 115 72 60 
113 66 56 113 70 56 114 72 57 114 70 55 114 70 55 114 70 55 114 70 56 116 72 57 
118 74 59 119 75 61 122 77 62 124 79 64 125 80 66 123 78 63 120 76 60 119 74 60 
120 77 61 117 75 59 110 68 52 107 66 49 106 65 48 106 65 49 111 70 54 116 75 58 
120 79 64 120 85 74 119 87 79 115 84 75 112 80 72 110 79 70 109 78 69 110 80 69 
112 82 71 116 85 73 112 81 69 109 78 65 106 75 61 106 75 60 106 75 59 107 76 58 
110 77 60 110 76 59 108 73 55 112 77 59 116 80 61 118 81 63 118 82 62 118 81 61 
117 80 60 121 82 66 117 77 63 109 69 56 111 73 61 112 76 66 111 76 68 98 64 59 
87 55 52 80 49 48 79 49 50 78 49 51 78 49 52 82 52 57 83 52 56 82 50 54 
84 49 52 87 50 52 90 51 52 93 51 51 95 51 49 97 51 48 104 56 51 109 60 55 
110 62 55 99 64 49 93 63 47 90 61 48 87 63 52 76 57 49 67 52 47 69 59 58 
67 60 61 64 59 61 63 59 62 62 58 60 63 59 59 67 61 60 69 62 59 70 61 57 
71 60 54 69 58 51 67 55 48 64 53 46 64 53 48 65 56 51 68 59 56 68 59 57 
74 62 58 90 70 59 86 67 57 77 62 56 66 58 56 61 58 60 56 59 65 52 61 71 
51 63 75 53 66 78 58 71 81 65 75 84 72 78 83 76 78 78 84 80 77 89 80 73 
91 76 66 93 76 66 97 79 70 105 86 79 104 86 81 101 84 82 97 81 82 99 85 86 
96 83 85 88 76 79 98 85 87 105 91 92 110 94 93 112 93 91 114 94 89 118 95 88 
113 88 78 108 80 68 102 71 58 103 72 57 104 72 56 105 72 55 104 71 55 106 73 57 
109 78 62 112 82 68 114 85 73 114 87 76 107 82 72 105 81 72 106 83 76 112 89 82 
109 87 77 104 82 66 113 90 75 110 85 71 100 75 61 104 77 65 99 68 58 89 56 47 
87 54 46 87 51 45 86 48 44 85 45 43 87 46 45 90 50 49 90 49 48 88 49 47 
86 48 47 86 50 48 86 52 50 86 54 52 86 56 52 84 55 52 82 54 50 80 52 48 
76 51 48 73 50 49 77 54 51 76 54 48 76 52 44 78 51 40 82 49 37 88 48 35 
95 48 36 103 49 40 109 50 43 110 50 44 109 55 49 105 59 53 95 59 52 85 63 54 
78 67 56 72 69 56 73 72 58 75 72 57 72 66 49 76 62 46 81 59 44 86 58 44 
89 54 39 92 53 37 94 55 40 96 56 42 96 57 42 95 55 42 95 56 44 96 56 46 
97 58 48 98 58 49 97 56 49 95 53 46 93 51 46 91 49 44 87 46 41 86 44 41 
86 44 41 88 46 43 90 49 46 93 51 49 94 53 50 97 56 53 101 59 56 104 62 59 
104 63 59 106 66 62 112 71 67 116 75 71 118 75 72 118 74 71 117 73 71 118 72 72 
119 72 72 117 70 70 114 67 67 110 63 64 114 68 70 113 68 69 107 64 65 109 68 69 
112 74 75 118 80 81 115 80 80 112 79 78 110 77 77 112 81 80 114 85 83 116 87 85 
114 87 83 114 88 84 117 90 86 118 89 85 119 87 83 118 83 80 114 79 75 111 76 72 
110 74 71 110 75 72 112 78 73 113 80 74 106 77 69 108 79 72 113 85 78 119 92 82 
122 94 84 122 93 83 119 87 79 117 81 74 115 76 70 115 74 67 116 73 68 117 74 70 
117 81 75 116 80 74 115 76 71 117 73 69 115 67 63 113 60 58 113 57 55 114 56 55 
114 57 56 112 58 56 107 57 53 101 56 51 95 56 49 88 55 46 83 54 44 82 55 46 
81 56 47 80 56 47 78 52 44 79 51 45 81 50 45 82 47 45 84 46 45 88 48 46 
97 54 50 95 52 48 91 50 45 89 52 45 87 54 45 83 55 42 76 52 36 76 56 37 
79 60 40 82 65 43 
102 65 55 103 64 54 104 66 54 102 64 50 98 59 46 97 56 43 99 57 43 102 59 45 
105 61 47 105 61 47 103 61 46 99 61 45 97 63 45 96 65 48 98 71 53 96 72 54 
91 71 53 88 70 53 87 69 54 86 68 54 84 65 53 82 61 52 81 57 51 84 57 52 
88 60 56 94 62 57 104 61 47 109 63 47 111 64 47 106 60 40 107 60 40 109 62 42 
109 63 42 103 57 38 99 54 36 103 58 42 104 59 46 103 58 47 99 56 48 99 58 50 
97 58 50 90 52 44 91 56 46 91 59 45 82 53 34 86 59 36 90 64 37 87 64 33 
90 68 35 89 68 38 79 60 44 84 64 49 89 69 53 92 72 54 91 69 52 89 66 49 
88 65 46 89 65 46 90 64 46 90 63 46 87 60 44 86 60 44 90 64 50 90 65 53 
90 66 56 91 67 59 90 68 62 88 67 64 86 66 64 83 65 64 81 64 64 79 63 64 
78 62 65 79 61 61 83 60 52 86 63 56 87 63 58 86 62 57 86 61 58 85 59 57 
83 57 54 84 57 57 86 58 59 87 58 60 85 56 59 86 56 59 88 58 61 89 58 62 
90 58 60 89 57 58 89 57 57 90 58 58 93 60 60 94 61 60 95 61 60 96 61 58 
97 63 59 92 65 61 84 69 63 82 65 60 84 64 58 88 63 58 94 64 58 96 61 54 
96 57 49 99 57 47 103 59 48 107 62 49 108 64 49 102 60 44 95 54 37 94 55 37 
97 60 41 100 64 45 100 64 45 97 61 43 95 58 41 100 61 46 100 60 46 100 58 45 
101 58 45 99 58 41 97 58 38 98 58 39 99 58 41 100 59 42 100 58 44 100 57 45 
99 57 47 99 57 49 97 58 50 94 59 52 92 60 53 87 59 52 84 59 52 88 64 56 
88 65 56 87 64 54 85 60 51 86 58 48 88 58 47 93 59 49 98 61 51 100 61 51 
98 56 46 93 57 44 90 58 43 90 57 42 90 57 42 90 57 42 90 56 41 91 57 41 
92 57 41 92 57 42 93 58 42 94 58 42 95 59 44 93 57 41 92 55 40 91 54 39 
94 58 42 95 59 43 93 57 42 92 57 41 92 57 41 91 57 41 92 58 41 93 59 42 
94 59 44 89 56 47 86 54 48 86 54 48 85 54 48 85 54 48 86 54 48 87 56 48 
89 59 50 94 63 53 92 61 51 91 60 50 91 60 49 94 64 51 95 65 51 94 64 49 
94 64 48 92 60 45 88 55 39 90 57 40 91 58 41 91 58 41 91 58 39 90 57 38 
90 56 38 93 58 41 92 56 41 89 54 39 92 57 45 95 61 51 98 64 56 95 63 56 
92 61 57 90 59 58 90 61 61 88 60 62 88 59 62 91 61 66 92 61 66 92 60 64 
93 60 63 96 61 63 100 62 63 101 61 61 100 59 57 100 57 53 103 59 54 106 61 55 
106 63 55 98 65 50 95 65 50 93 66 53 91 68 58 85 67 59 80 66 62 81 71 69 
79 72 72 76 71 73 73 70 73 72 69 71 73 69 70 80 74 73 82 74 71 82 73 68 
82 70 64 80 68 61 78 66 59 76 64 58 76 65 59 77 66 61 78 69 64 77 68 65 
81 67 60 94 65 49 92 64 49 87 64 51 80 64 57 77 67 63 72 69 69 66 70 73 
62 69 75 61 70 76 64 73 77 70 77 79 75 77 76 76 74 68 82 74 65 85 71 59 
83 64 48 81 59 43 81 58 43 84 60 47 81 56 46 76 53 45 71 49 44 73 52 49 
70 53 53 62 50 55 68 56 60 72 58 60 71 55 56 71 52 52 74 53 50 80 57 51 
82 57 48 83 55 44 84 53 41 89 57 43 93 61 45 96 62 47 95 61 46 94 62 47 
95 64 50 95 65 52 94 65 54 92 65 55 86 61 51 81 57 50 79 55 49 78 56 50 
73 52 42 67 47 32 78 56 43 82 59 46 82 59 47 90 64 53 90 62 52 87 57 48 
90 59 52 92 58 53 93 57 53 92 55 53 94 56 54 96 58 57 96 57 56 94 56 55 
91 56 54 91 58 55 92 60 57 92 61 58 91 62 58 89 62 57 87 61 56 87 60 55 
84 60 57 83 60 59 86 63 60 86 64 57 85 62 53 86 60 48 89 57 44 94 56 42 
101 56 44 107 55 45 110 54 46 109 52 46 106 56 50 101 59 53 91 59 52 82 64 55 
75 69 58 69 70 58 70 74 59 71 75 58 70 69 52 75 66 50 82 65 50 90 67 53 
91 66 50 92 66 48 93 67 50 93 66 50 91 65 49 88 61 47 88 61 48 90 62 50 
92 64 53 93 65 55 94 65 55 93 62 53 93 62 55 92 61 54 88 57 50 86 54 48 
85 52 47 85 52 47 87 54 49 88 55 50 89 55 50 91 57 51 93 59 53 95 61 55 
93 56 51 93 55 50 96 58 53 97 58 53 96 57 52 93 54 49 94 53 50 96 55 52 
99 57 55 99 57 55 97 55 53 93 51 49 97 56 55 95 55 55 90 51 50 91 54 54 
92 56 56 93 59 58 87 55 54 84 53 51 82 53 51 83 55 52 81 54 51 78 51 48 
78 50 46 79 50 46 80 50 46 81 48 45 81 46 42 80 43 40 79 41 38 79 41 38 
80 43 39 83 46 42 85 50 45 85 53 46 77 48 40 76 49 40 78 52 43 81 56 45 
82 58 46 83 58 46 82 55 44 82 52 42 81 49 39 82 46 38 82 45 37 82 46 39 
80 58 48 80 60 50 81 58 48 84 57 48 86 55 47 90 54 47 97 58 51 101 60 54 
103 61 55 101 61 54 96 60 52 92 59 51 90 62 51 86 62 50 82 62 50 84 65 54 
85 67 56 85 67 56 82 64 54 83 63 54 85 62 55 87 60 55 88 60 55 93 60 56 
104 62 56 101 59 53 97 57 50 94 58 48 91 59 46 87 60 44 82 59 40 83 62 41 
85 66 43 88 71 46 
96 60 50 99 62 53 101 65 52 99 62 49 94 57 44 91 53 40 92 53 40 95 54 42 
97 55 45 96 55 45 93 53 43 88 52 42 84 52 41 82 53 42 88 62 51 87 64 52 
84 64 51 82 64 51 82 65 52 83 65 52 82 64 51 80 60 48 79 56 45 80 54 43 
81 54 44 84 55 44 87 58 42 92 61 44 94 62 44 90 57 38 92 58 38 96 59 40 
97 60 41 95 55 38 94 52 37 98 56 43 99 55 45 99 54 46 100 55 49 95 52 47 
91 49 43 89 48 42 93 54 45 95 59 45 93 60 41 88 58 34 85 57 30 87 60 29 
93 67 34 92 69 39 81 60 45 83 62 48 86 64 50 86 65 48 84 61 45 83 59 43 
83 59 41 85 60 43 87 61 44 88 60 44 86 58 43 84 56 42 81 54 41 82 56 44 
83 57 48 85 59 52 84 61 56 84 62 58 83 62 60 82 62 62 81 62 64 80 63 64 
80 63 65 80 61 61 81 58 51 82 60 53 83 60 54 84 60 54 83 58 54 83 57 54 
84 57 55 83 56 55 84 56 56 85 57 57 86 57 59 88 58 61 90 59 62 91 60 63 
91 60 62 90 58 58 89 57 56 90 57 57 92 59 59 93 60 59 94 60 58 95 60 56 
96 61 57 89 63 58 80 66 60 80 64 58 82 63 57 86 62 56 89 62 55 91 60 52 
92 57 49 96 57 48 99 59 47 101 61 48 103 62 48 98 59 43 91 54 37 92 56 38 
92 59 40 92 61 42 91 59 41 90 57 40 89 55 39 90 54 40 91 54 40 91 53 41 
92 53 41 90 54 38 89 54 36 89 53 37 91 54 38 93 56 40 93 55 42 93 54 44 
93 54 46 93 55 48 91 57 50 89 58 52 88 59 52 84 58 53 81 59 53 81 60 53 
81 62 54 82 63 54 83 61 53 82 59 49 83 56 46 85 55 46 89 56 48 92 57 49 
93 55 48 90 59 47 87 62 46 88 62 47 89 62 47 89 61 47 88 61 46 88 60 44 
89 60 43 89 59 43 88 58 42 88 57 42 89 57 42 88 56 42 87 55 40 86 54 39 
84 52 37 84 52 37 86 54 39 87 56 41 87 57 41 86 56 40 84 53 38 81 51 35 
79 49 33 88 56 48 92 60 57 94 61 58 93 61 58 92 60 57 90 58 55 88 57 51 
86 56 48 85 55 47 84 54 45 84 54 45 85 55 46 90 61 49 92 63 51 92 63 50 
91 61 48 90 60 46 88 59 45 89 58 43 89 57 42 88 57 42 87 56 40 86 55 39 
86 55 39 89 56 40 89 56 41 89 56 42 90 58 46 91 59 49 92 60 52 92 62 55 
93 63 59 93 63 61 92 64 64 90 63 64 89 61 64 89 60 64 89 59 63 90 59 62 
92 60 62 95 62 63 98 62 62 97 60 59 97 58 56 97 56 52 96 56 51 98 57 51 
99 59 51 93 62 48 92 65 50 93 68 56 92 70 61 87 69 63 80 67 64 75 67 65 
73 66 67 70 66 67 65 63 66 64 62 63 66 62 62 73 67 65 75 67 64 75 65 61 
74 63 57 73 61 54 73 60 53 73 61 55 74 62 56 74 63 58 74 65 60 76 67 62 
80 65 57 88 56 37 88 56 38 86 60 44 85 65 54 83 69 63 79 71 68 71 71 70 
65 68 69 62 67 68 62 68 67 68 70 68 72 71 66 74 68 58 81 70 57 86 69 53 
86 64 46 87 62 44 89 61 44 93 64 47 89 61 48 85 57 47 81 53 45 83 56 51 
81 59 58 73 60 66 78 64 69 79 63 67 75 58 59 73 54 54 75 54 51 80 58 51 
83 57 50 84 56 46 85 53 42 89 57 44 90 57 44 89 55 41 89 54 41 88 54 42 
88 56 42 90 58 47 91 61 51 93 63 54 91 64 56 90 64 58 89 64 58 88 62 58 
81 59 51 74 55 40 80 59 45 82 60 47 81 59 46 83 59 48 83 57 48 83 55 47 
89 59 53 91 59 55 92 59 55 93 59 57 95 59 58 95 59 58 94 58 57 92 57 56 
90 57 55 91 59 56 90 60 56 90 60 56 88 59 55 86 59 54 84 59 54 86 61 55 
86 62 58 85 62 61 85 62 59 84 62 55 84 61 51 85 60 49 88 58 46 93 57 44 
100 58 46 104 56 46 106 53 46 104 52 45 100 53 47 95 56 50 87 58 52 80 65 56 
74 70 59 69 72 60 67 73 58 65 73 56 65 68 52 70 64 49 76 62 48 79 62 48 
81 64 48 83 66 48 83 66 48 81 64 47 78 60 45 74 56 42 74 54 41 75 55 42 
78 57 45 80 59 48 82 60 50 81 59 50 84 61 53 85 62 54 83 59 52 82 56 49 
81 55 48 81 55 48 82 55 49 82 55 49 82 55 49 84 56 49 86 57 49 87 58 50 
92 59 53 96 60 55 97 62 56 94 58 52 90 53 48 86 49 44 88 50 46 92 53 50 
98 59 56 100 62 59 100 62 59 98 60 57 95 57 55 92 55 53 89 53 51 91 56 55 
92 58 58 93 60 59 87 56 55 85 56 54 86 57 55 85 58 55 81 55 52 75 49 46 
82 51 48 85 52 49 87 53 50 89 52 50 91 52 49 93 52 50 94 54 51 96 55 53 
97 57 55 97 59 54 95 60 54 92 60 53 86 58 49 83 57 48 81 57 47 80 58 46 
80 58 46 81 58 47 82 59 47 84 59 48 86 59 48 87 57 47 87 55 46 85 56 47 
76 62 50 74 63 51 74 61 49 77 60 48 80 59 49 83 59 50 87 61 51 91 63 53 
92 63 54 90 61 52 86 59 49 83 59 48 82 61 49 78 61 48 75 61 47 75 62 49 
76 64 51 78 65 53 79 66 55 78 64 54 79 62 53 82 61 54 82 60 55 86 59 53 
94 54 48 93 53 46 92 54 46 92 59 47 91 61 46 88 62 45 83 60 42 82 63 41 
83 65 41 83 67 41 
51 32 31 53 34 33 69 54 50 71 59 54 65 52 48 49 36 31 43 29 25 43 28 24 
46 31 28 46 31 28 44 29 26 46 33 28 43 31 26 40 28 23 45 33 28 46 35 29 
46 35 29 46 36 30 47 36 31 48 37 31 49 38 32 48 38 30 48 36 29 48 35 29 
48 33 28 46 31 26 45 30 23 46 31 23 48 32 24 48 32 23 50 32 24 52 32 24 
51 29 22 54 31 24 58 33 27 61 35 31 65 37 34 69 38 37 71 38 38 70 36 37 
69 34 35 69 34 35 71 35 35 73 36 35 72 35 34 72 35 32 72 34 30 70 33 28 
72 35 29 74 36 32 74 35 34 77 39 38 78 40 38 72 36 34 65 30 27 62 28 24 
67 33 29 72 39 34 74 40 36 71 35 32 77 39 37 81 40 39 79 35 36 82 36 37 
85 36 39 85 36 40 85 36 40 83 34 39 80 33 38 80 35 40 80 37 42 80 39 44 
77 36 41 65 35 35 45 35 25 46 35 26 48 36 28 49 38 29 52 38 31 53 38 31 
52 36 30 51 33 28 51 31 27 51 31 27 52 31 27 54 32 29 58 34 32 58 35 32 
58 34 31 57 33 30 57 33 30 57 33 29 57 33 29 57 33 29 57 33 28 56 33 27 
56 33 28 55 33 30 53 33 34 53 33 33 53 33 33 53 33 33 54 33 32 54 32 31 
53 31 30 52 31 29 51 31 28 51 31 27 50 31 26 52 35 29 57 41 35 66 49 43 
64 48 41 56 41 34 46 31 24 43 28 22 44 28 22 46 29 24 45 28 23 43 25 21 
43 25 21 42 26 20 42 27 20 46 30 24 49 33 27 51 36 29 51 35 29 50 34 29 
50 34 30 51 35 31 52 37 33 51 37 33 47 34 30 45 33 29 44 32 29 44 33 29 
46 36 31 48 38 34 50 39 35 50 39 34 50 38 32 49 36 31 53 39 34 56 41 36 
55 40 36 64 38 34 70 37 33 72 39 35 72 38 35 71 37 34 71 37 33 72 37 34 
72 37 33 71 36 32 71 36 33 71 36 32 69 34 30 76 41 37 78 43 39 73 38 34 
62 26 23 62 27 23 79 44 40 74 39 35 69 34 31 66 31 28 71 36 32 72 37 34 
71 36 32 80 39 39 84 41 42 83 40 41 81 39 41 79 39 40 78 39 40 79 41 41 
79 41 41 77 42 41 74 41 39 72 39 38 69 38 36 67 37 34 63 34 31 58 30 26 
58 30 27 58 31 28 59 32 29 56 29 27 56 28 26 57 29 27 59 31 29 58 31 28 
56 29 26 57 29 26 58 30 26 59 31 28 60 33 30 60 34 31 61 34 33 61 35 34 
60 34 34 59 34 34 56 33 33 54 32 32 53 31 31 52 31 31 52 31 31 53 32 32 
54 33 33 56 34 33 57 35 34 57 34 33 56 32 31 55 30 28 54 28 26 54 28 25 
52 28 25 46 31 27 56 44 39 69 58 54 75 65 62 58 49 47 39 32 30 36 31 30 
34 30 30 34 31 31 37 35 34 35 34 32 35 33 31 40 37 33 44 39 35 44 39 35 
40 34 30 41 33 29 42 33 29 45 36 31 48 38 33 51 39 36 53 42 38 49 38 34 
49 37 32 58 43 32 49 35 23 44 31 20 51 41 31 50 40 32 46 38 31 40 34 28 
44 37 33 45 38 34 43 34 29 51 39 35 57 42 38 59 41 36 62 39 34 64 38 33 
66 37 31 67 35 30 71 35 31 77 38 36 77 37 36 77 35 35 75 33 34 76 33 35 
77 33 37 79 33 41 80 34 42 77 34 40 72 30 35 72 33 36 73 36 37 73 38 37 
73 39 37 72 38 35 71 35 32 71 34 31 74 34 30 79 35 31 82 34 32 84 34 32 
86 33 31 87 32 31 88 32 32 90 33 33 92 35 36 92 36 37 92 35 36 89 32 34 
77 33 28 62 35 21 62 34 22 61 33 22 58 32 23 58 32 25 58 32 28 58 32 31 
59 34 35 58 34 38 58 33 40 56 31 39 55 31 39 55 32 39 55 32 39 55 32 38 
55 33 36 57 33 35 56 33 31 55 32 28 54 31 25 53 30 22 52 29 20 53 29 20 
55 29 25 56 28 32 55 28 31 53 29 31 51 29 31 51 30 32 52 31 33 53 32 34 
55 33 35 55 32 34 54 31 32 53 29 29 51 28 26 51 30 25 56 38 32 69 55 47 
75 66 56 62 56 46 44 40 31 31 30 21 33 32 25 34 33 28 34 32 29 31 29 26 
39 34 29 44 37 28 38 30 22 40 32 24 42 33 26 44 33 28 43 32 27 42 30 25 
42 28 24 47 33 29 50 36 32 51 36 32 49 33 31 47 31 29 46 30 28 49 32 30 
51 34 32 52 35 33 49 33 30 48 31 29 48 31 29 50 35 31 52 37 33 53 38 34 
64 33 32 75 36 35 85 47 46 73 37 35 67 32 30 67 34 31 64 32 29 67 35 32 
76 45 42 75 42 40 75 40 39 76 39 38 76 37 37 75 35 36 75 33 34 75 31 33 
75 31 33 76 33 35 77 36 37 77 37 38 75 37 37 75 38 38 73 38 38 72 37 37 
82 31 36 86 29 35 86 29 35 87 30 35 89 32 37 91 34 39 92 36 39 93 39 41 
94 42 43 87 39 38 83 38 35 79 38 34 73 36 32 67 34 29 60 31 26 56 32 26 
53 33 26 51 34 28 52 38 33 52 40 36 51 41 37 45 37 32 41 34 30 40 32 28 
40 32 24 40 31 22 40 31 22 44 33 24 46 34 26 49 35 29 51 37 30 51 36 30 
50 35 29 47 32 28 44 29 25 41 27 23 41 28 24 40 28 24 39 28 25 39 28 26 
40 29 28 42 32 31 45 34 34 44 33 34 44 31 33 44 30 34 45 31 35 46 31 34 
43 28 26 42 27 25 46 32 29 60 47 44 69 57 53 67 56 51 48 38 32 47 37 31 
46 37 30 41 33 25 
27 15 17 29 18 20 53 48 47 59 56 55 52 49 48 29 25 24 19 16 15 18 14 14 
22 18 17 21 17 17 20 15 14 24 20 18 22 18 15 18 13 11 22 16 13 23 17 14 
23 16 14 27 19 17 28 20 18 29 21 19 31 24 20 32 24 20 32 24 20 31 22 18 
28 19 16 26 17 13 24 17 12 24 17 12 26 17 13 28 19 15 30 19 16 30 18 15 
27 13 11 31 16 14 37 19 18 40 21 20 46 24 24 51 26 28 53 26 28 54 25 27 
55 24 27 56 24 27 60 25 30 63 26 31 63 25 31 65 26 31 65 24 30 60 19 25 
61 19 25 63 20 25 65 21 24 68 24 27 70 27 30 68 28 30 60 21 23 57 20 21 
63 28 29 59 24 25 58 23 23 63 25 26 69 27 30 73 27 31 73 23 28 75 23 28 
79 23 30 82 25 32 83 25 32 81 24 31 76 21 27 76 22 28 75 23 28 73 23 28 
68 19 24 53 18 18 27 22 12 27 21 11 27 21 11 28 21 12 32 22 14 33 22 14 
32 20 12 32 18 11 34 18 12 37 20 14 38 20 14 40 20 15 42 21 16 42 21 16 
42 21 16 41 20 15 41 20 15 41 20 15 40 19 14 39 18 14 38 18 13 37 18 12 
37 18 12 37 17 15 38 16 19 38 16 19 37 16 19 36 17 19 35 17 19 34 17 19 
32 17 18 29 16 16 27 15 15 25 14 14 24 13 13 31 22 21 43 35 34 55 47 46 
50 42 41 37 29 28 22 14 13 20 11 10 22 14 13 23 15 14 22 13 12 19 10 10 
19 10 9 18 10 9 18 12 9 22 15 12 25 19 16 28 22 19 30 23 21 29 23 20 
29 22 20 29 23 20 30 24 21 29 23 20 24 18 15 23 17 14 23 16 14 22 16 13 
24 18 15 27 20 17 29 23 20 30 24 21 30 24 21 28 22 19 32 25 23 35 28 26 
35 29 26 47 24 23 57 21 22 60 24 25 59 23 24 58 22 23 59 23 24 60 24 25 
60 24 25 60 24 25 62 26 27 63 27 28 61 25 26 60 25 26 62 27 28 65 30 31 
57 22 23 59 24 25 75 39 40 63 27 28 54 19 19 50 15 15 60 24 25 64 29 30 
62 26 27 71 27 29 74 27 30 73 26 29 71 26 29 70 26 29 70 28 30 70 29 32 
69 30 32 67 30 31 64 29 31 60 27 29 57 25 26 51 22 22 45 17 17 39 12 11 
40 13 14 41 15 17 42 16 18 38 12 15 37 11 15 39 13 16 43 17 20 44 17 21 
42 16 19 42 15 18 42 16 18 43 17 19 44 19 20 44 20 21 45 21 21 44 20 21 
43 20 21 42 18 19 38 17 17 36 16 16 35 16 15 33 16 14 33 16 15 34 17 15 
35 18 17 36 19 18 37 19 18 36 19 18 35 18 16 33 16 14 32 13 12 31 12 11 
29 11 11 23 14 14 38 31 31 56 50 50 65 60 60 42 38 38 17 13 13 15 11 10 
13 10 9 14 11 10 17 16 13 16 15 12 15 14 11 17 15 12 21 18 15 23 19 16 
20 16 12 21 15 12 24 16 14 27 20 16 31 22 18 36 24 21 39 27 24 34 22 20 
32 21 17 36 29 20 26 19 11 21 15 7 29 23 14 28 21 13 25 17 10 19 12 7 
28 18 12 34 21 15 32 17 11 40 23 18 46 27 22 48 25 22 51 24 22 53 24 23 
56 24 24 57 22 22 60 22 23 65 24 26 67 23 26 68 22 26 69 21 25 69 21 25 
73 21 26 79 22 28 79 23 29 76 22 28 71 21 26 70 24 28 68 26 28 66 27 28 
62 25 25 60 24 24 60 23 23 60 20 21 65 21 22 74 25 27 79 26 28 82 25 28 
85 24 27 85 22 25 87 21 25 89 22 25 93 24 28 93 25 28 93 25 27 89 22 24 
75 21 18 55 24 11 52 21 9 48 18 9 44 16 9 43 15 11 42 15 14 41 17 18 
40 17 22 39 16 24 37 16 25 34 14 24 35 16 26 37 19 29 37 19 28 38 19 27 
39 20 25 39 19 22 38 18 17 37 17 12 37 16 9 36 14 6 36 13 4 36 13 3 
39 13 10 42 13 16 41 12 17 38 13 18 35 14 20 34 15 23 33 17 26 32 19 27 
32 19 28 30 18 25 28 17 22 27 15 18 26 13 12 28 15 10 39 25 19 60 47 39 
71 60 50 56 45 37 31 23 17 13 8 5 16 13 10 15 15 15 12 15 17 7 10 13 
15 14 13 19 16 13 13 10 7 16 12 9 20 15 12 26 19 16 26 18 16 26 17 15 
26 16 14 30 19 18 33 21 20 32 19 19 30 17 17 28 15 15 26 13 13 29 16 16 
31 19 18 32 20 19 29 18 17 28 17 15 28 18 16 32 22 21 34 26 24 36 27 25 
49 20 20 61 22 22 71 32 33 57 22 21 53 21 19 59 29 27 53 24 21 55 27 24 
66 37 35 63 32 30 62 29 27 63 27 27 65 26 27 66 24 26 67 22 24 66 19 21 
66 18 21 68 20 23 70 24 27 69 25 27 67 25 26 66 26 27 66 28 28 68 29 30 
80 23 29 84 20 28 84 20 28 84 21 28 85 23 30 87 25 32 88 28 32 88 30 33 
87 32 33 79 27 26 73 25 23 69 25 21 64 25 21 55 20 17 44 14 11 38 14 11 
34 15 11 31 16 13 30 19 17 27 21 20 24 20 20 17 17 16 16 18 16 17 18 16 
22 16 9 23 14 7 22 14 6 25 17 9 27 19 12 29 20 15 29 21 16 27 18 14 
25 16 12 22 13 11 20 11 10 19 9 8 18 9 8 19 9 10 19 9 11 19 9 11 
20 10 13 22 12 16 25 15 20 24 14 19 23 12 18 22 11 18 24 14 21 24 15 20 
17 12 12 15 11 10 22 18 17 43 38 38 56 51 51 54 49 49 28 24 23 27 22 22 
25 20 20 18 13 13 
19 7 9 21 9 11 49 44 44 58 55 54 51 47 46 23 20 19 13 9 8 13 9 8 
16 12 12 15 10 10 12 8 7 18 13 11 15 11 8 10 6 4 15 9 6 14 7 4 
12 6 3 20 12 10 22 14 12 23 15 13 25 17 13 26 19 14 26 19 14 23 15 11 
20 11 8 19 10 6 20 12 8 20 12 8 20 13 8 24 15 11 25 15 12 25 13 10 
21 7 5 24 8 6 28 11 9 30 12 11 36 15 15 42 18 19 44 19 20 45 17 19 
46 16 19 49 17 20 56 23 27 62 27 31 63 26 31 63 26 31 61 23 28 55 15 21 
56 15 20 56 15 19 55 13 15 56 15 17 60 20 22 67 30 31 62 27 28 60 27 27 
67 35 34 47 16 15 41 9 8 61 25 26 60 21 23 60 17 20 62 14 18 63 14 18 
67 16 21 74 20 26 77 23 29 77 23 29 72 19 24 69 18 23 65 17 21 60 14 17 
54 8 12 42 9 8 23 18 7 21 15 4 19 12 3 18 10 1 20 10 2 21 10 2 
20 9 1 24 9 2 29 13 7 36 20 13 39 20 15 39 19 14 37 16 11 38 16 11 
38 16 11 36 15 10 37 15 11 37 15 10 35 14 9 34 14 9 34 13 8 33 12 7 
33 12 7 32 11 10 32 10 13 32 10 13 31 10 13 31 10 13 30 11 13 28 11 12 
26 10 11 23 9 10 21 8 8 19 7 7 17 7 6 27 18 17 42 34 33 56 48 47 
49 41 40 32 24 23 15 7 6 13 5 4 16 8 7 17 9 8 15 7 6 13 5 4 
14 5 4 12 4 3 11 4 2 12 6 3 15 9 6 19 13 10 23 17 14 24 17 14 
23 17 14 23 16 13 21 15 12 19 13 10 14 8 5 15 8 5 15 9 6 12 6 3 
13 6 3 15 8 5 17 10 8 19 12 10 20 13 10 18 12 9 22 16 13 26 19 16 
27 20 17 37 15 14 46 13 13 49 15 15 47 13 13 47 13 13 50 16 16 51 17 17 
53 19 19 55 21 22 58 24 25 60 26 27 60 26 27 44 12 12 41 10 9 60 26 27 
64 30 30 67 33 34 70 37 37 53 20 20 42 8 8 39 4 5 53 19 19 58 24 24 
53 19 19 59 18 19 63 18 20 64 19 21 63 20 22 62 20 23 63 22 24 61 22 24 
59 22 23 56 20 21 52 19 20 49 17 19 46 15 16 42 13 13 36 9 9 30 4 4 
32 6 7 34 8 10 36 10 11 31 5 8 30 3 7 32 5 9 37 11 14 39 13 17 
39 13 16 38 12 14 38 12 13 38 12 14 39 14 15 40 15 16 40 16 17 40 16 17 
39 15 16 37 13 14 34 12 12 32 12 11 31 11 11 28 10 9 28 11 9 29 11 10 
30 13 11 31 14 12 31 14 12 30 13 12 29 12 10 27 9 8 26 7 6 25 5 5 
23 5 4 17 8 8 32 25 25 51 45 45 61 56 56 37 33 32 11 7 6 8 5 4 
6 3 2 5 2 0 5 4 1 5 5 1 5 4 1 3 1 0 7 3 1 10 6 3 
10 6 3 12 6 3 15 7 5 18 10 6 22 12 9 26 15 12 30 19 16 28 16 13 
24 14 9 20 13 5 16 10 2 14 8 1 16 10 1 17 10 1 14 8 1 7 1 0 
18 8 4 26 13 7 27 13 7 33 18 13 38 20 16 40 18 14 45 20 18 49 22 20 
52 22 21 53 19 19 54 17 18 56 17 18 56 15 17 57 15 17 60 15 18 62 15 19 
66 17 21 73 20 25 75 22 27 74 22 28 70 22 26 66 22 25 63 22 24 59 21 21 
51 15 15 49 13 13 52 15 15 54 13 14 61 16 18 73 24 26 78 24 27 82 24 27 
84 22 27 85 21 25 87 21 24 90 21 26 92 23 28 93 24 28 92 24 27 89 21 25 
73 20 18 52 21 9 47 16 6 41 12 3 36 7 2 34 5 2 32 5 4 31 7 8 
32 7 12 30 6 13 27 5 13 24 4 13 29 10 18 35 18 25 34 16 22 34 16 20 
34 16 18 34 15 14 33 13 11 33 12 7 33 11 3 32 9 2 31 8 1 31 8 1 
35 9 7 39 9 12 37 9 12 34 9 14 31 10 16 30 10 18 28 12 21 27 14 22 
26 13 22 23 12 19 21 10 15 20 8 11 18 6 5 20 8 3 32 18 12 53 41 32 
65 54 44 50 39 31 25 17 13 7 2 1 10 6 4 8 8 8 5 8 9 1 3 5 
3 3 2 5 2 0 3 0 0 5 2 0 9 5 2 15 9 6 18 11 9 21 13 11 
24 15 13 26 16 14 25 14 12 20 8 7 23 11 10 24 11 10 19 6 5 20 7 6 
21 8 7 21 10 8 20 8 7 19 9 7 20 12 9 25 16 14 29 20 18 32 23 21 
42 15 14 49 13 13 53 18 17 45 11 10 46 15 14 59 31 28 52 24 21 53 25 23 
63 34 32 59 27 26 57 23 22 57 21 20 61 21 22 63 20 21 63 17 19 62 15 17 
63 15 18 66 18 21 64 19 21 62 19 21 60 19 20 59 21 21 59 22 22 61 24 24 
76 20 26 81 19 27 80 18 26 81 20 26 81 20 27 81 21 27 82 24 28 81 26 27 
78 25 26 71 21 20 65 19 16 60 18 14 57 19 16 46 12 10 31 2 1 25 1 1 
21 2 1 18 4 1 14 4 2 8 2 1 3 0 0 1 0 0 4 6 5 11 12 10 
17 11 4 17 9 2 15 7 1 17 9 2 19 11 4 21 12 6 21 12 8 18 9 5 
14 5 2 11 3 1 11 2 1 11 2 1 10 1 0 10 0 1 10 1 2 11 1 3 
12 2 5 14 4 7 16 6 9 14 4 9 13 2 8 11 1 7 15 4 10 16 7 11 
9 4 4 8 3 3 15 10 10 36 31 31 49 44 44 47 42 42 21 17 17 20 15 15 
18 13 13 10 5 5 
15 4 5 16 6 7 49 44 44 58 55 54 48 45 44 20 17 16 9 6 5 9 5 4 
12 8 8 10 6 6 7 4 3 17 13 11 13 10 8 7 3 2 15 9 7 16 9 6 
13 6 4 14 6 4 16 8 6 18 10 8 19 12 8 20 13 8 21 13 9 22 13 9 
19 10 7 16 8 4 17 10 4 15 8 3 14 6 3 18 9 4 20 10 5 21 10 5 
20 8 3 19 5 3 19 4 3 20 4 3 24 5 5 31 9 9 43 18 18 43 16 17 
43 14 15 47 17 18 55 23 25 61 28 31 63 29 32 63 28 31 61 25 28 55 17 21 
54 16 20 55 17 20 55 17 19 48 12 12 40 8 7 36 10 10 37 9 9 42 14 13 
53 26 24 40 13 11 38 10 8 56 25 24 52 17 18 50 12 13 53 11 13 58 14 17 
62 17 20 68 20 24 69 20 25 68 19 24 65 18 22 63 18 21 60 17 19 54 14 15 
50 10 11 37 8 7 17 11 3 18 12 3 20 13 4 22 14 5 20 10 3 21 8 2 
23 9 2 23 7 2 28 11 5 36 18 13 39 20 15 40 19 15 39 16 13 39 16 13 
39 16 12 38 15 12 38 15 12 38 15 11 37 14 11 36 14 10 35 13 9 35 13 9 
35 13 9 34 11 10 32 9 13 32 9 13 32 9 13 31 9 13 30 10 13 28 10 12 
25 9 10 23 7 8 20 6 7 17 6 6 15 5 4 26 17 16 43 35 34 57 50 49 
50 43 42 32 26 24 13 7 6 10 4 3 14 7 5 15 8 6 13 6 5 12 5 3 
13 4 3 10 3 2 7 2 1 12 6 2 11 5 2 11 5 4 17 11 7 20 14 9 
21 15 10 21 15 10 19 13 9 16 10 6 9 3 2 13 7 4 16 10 5 11 5 2 
13 8 3 14 9 5 9 4 3 11 6 3 13 7 3 12 6 3 18 12 8 21 15 11 
15 9 6 24 6 4 33 5 5 39 9 8 38 7 6 38 7 6 41 10 9 45 14 14 
48 18 17 49 18 18 53 22 21 54 24 23 54 23 23 45 15 14 40 10 9 44 13 12 
38 12 11 35 11 10 36 12 12 33 7 6 34 5 5 40 9 9 55 24 24 58 28 27 
49 18 17 46 11 10 50 11 11 61 19 20 61 20 22 61 21 23 60 21 23 56 19 20 
52 17 18 48 15 15 48 16 17 44 14 15 38 9 9 38 11 11 34 8 8 28 2 2 
30 4 5 32 7 8 35 10 11 31 5 8 30 3 7 32 5 9 38 11 15 42 14 18 
42 14 18 40 12 15 40 12 14 40 12 15 40 14 16 41 15 16 41 15 17 40 16 17 
39 15 16 37 14 14 34 13 13 33 12 12 32 11 11 29 10 9 29 10 9 30 11 10 
30 13 11 30 13 12 30 13 12 30 13 11 28 11 10 26 9 7 25 7 5 23 5 4 
21 4 3 14 6 6 30 23 23 50 44 44 62 57 57 38 33 33 11 6 6 8 5 4 
6 3 2 4 1 0 3 2 0 7 6 3 9 8 4 5 3 1 7 4 1 11 7 3 
12 8 4 12 6 3 11 3 2 9 3 2 11 4 3 14 5 4 15 6 5 14 5 4 
15 6 3 18 11 4 20 13 6 18 12 6 10 4 1 14 8 2 15 8 3 7 1 0 
16 6 3 21 10 4 19 7 2 20 6 4 25 9 7 36 15 13 40 17 15 43 18 16 
46 17 17 46 15 15 48 14 15 51 15 17 43 9 10 42 6 7 50 8 12 53 9 13 
59 13 18 69 20 25 70 23 27 70 24 27 66 22 25 62 21 23 56 18 19 48 12 12 
38 7 6 37 5 4 43 7 6 52 10 11 62 15 17 73 21 25 78 22 26 82 21 27 
85 20 27 86 20 25 87 20 25 89 21 26 91 23 29 92 24 29 91 23 27 87 20 25 
71 19 19 51 19 11 46 14 7 40 9 4 34 5 1 31 3 1 31 4 4 31 6 7 
32 7 11 31 8 12 28 7 12 26 6 11 30 11 15 35 17 20 33 15 17 31 13 14 
30 12 10 31 12 9 32 13 8 33 13 6 33 11 3 33 11 2 34 11 2 32 9 2 
36 10 7 40 11 12 39 10 14 35 10 15 32 11 16 31 12 19 29 13 21 27 13 22 
25 12 21 22 11 18 19 9 14 19 7 10 16 4 4 18 5 3 30 16 11 52 39 31 
64 53 43 49 39 30 24 17 13 7 2 1 9 5 3 6 7 6 4 6 8 1 2 4 
1 1 2 2 1 0 2 0 0 3 1 0 5 1 1 7 3 2 9 3 3 13 6 5 
21 13 9 18 9 7 15 5 4 12 3 2 19 8 6 21 9 7 16 4 2 17 5 3 
19 7 5 22 10 8 18 8 5 17 8 5 21 13 9 21 14 10 24 16 12 30 22 19 
32 11 9 32 5 4 31 6 5 34 6 4 41 13 11 54 28 24 45 19 16 43 16 13 
47 19 16 45 14 12 43 11 9 42 8 7 58 17 18 63 19 21 61 14 16 62 14 16 
65 17 19 69 21 24 65 20 22 60 18 19 55 15 16 57 21 21 51 17 17 41 9 9 
65 14 18 75 16 23 76 17 24 77 20 25 78 21 27 78 22 27 77 23 25 75 23 23 
71 21 21 65 18 16 61 17 14 56 16 12 45 10 7 34 5 3 25 1 1 22 1 1 
17 1 0 13 1 0 10 2 1 9 4 2 8 5 3 2 1 1 7 7 6 13 14 12 
11 6 3 10 3 1 10 3 0 13 6 1 18 11 5 22 15 9 24 17 12 21 13 9 
16 8 4 9 2 1 11 4 3 14 5 4 10 1 1 9 1 1 10 2 1 9 1 1 
9 1 2 10 2 3 12 4 5 14 5 8 15 5 9 12 3 7 15 5 9 16 8 11 
13 8 9 13 9 8 21 16 16 43 38 38 56 51 51 54 49 49 28 23 23 25 20 20 
22 17 17 14 9 9 
14 3 4 13 5 5 49 45 44 58 55 54 48 45 44 20 17 16 8 5 4 6 3 2 
9 5 4 9 4 4 10 7 6 32 28 26 42 38 36 44 40 39 36 31 28 30 24 21 
24 18 15 16 8 6 14 6 4 16 8 6 18 11 7 34 27 22 49 42 37 46 37 33 
36 27 24 26 17 13 18 10 4 14 7 1 13 5 1 17 9 3 21 12 6 27 17 12 
41 29 24 44 32 28 47 33 31 55 40 38 59 42 40 61 41 40 61 39 38 49 25 24 
41 14 14 46 18 19 52 23 24 57 26 27 58 27 28 59 27 29 59 25 27 55 20 22 
56 21 23 57 23 24 58 24 24 63 32 31 65 38 36 60 38 36 66 43 41 67 44 41 
60 38 34 46 24 21 39 16 13 40 16 15 48 20 19 60 28 28 77 41 42 72 34 35 
68 28 30 67 24 27 64 20 23 62 18 21 61 20 22 63 23 25 67 29 31 74 40 40 
66 32 32 46 21 19 14 7 1 21 14 7 31 23 15 42 33 26 48 37 31 47 34 28 
40 26 19 30 14 10 29 11 7 35 16 12 39 18 15 41 19 16 41 18 15 42 17 15 
42 17 15 41 17 14 41 16 14 41 16 14 39 16 13 39 15 13 38 15 12 38 14 11 
38 14 11 36 12 12 35 10 14 34 10 14 34 10 14 33 11 14 32 11 14 30 11 13 
27 10 12 24 8 10 21 7 8 17 6 6 15 5 4 26 17 16 43 35 34 58 52 50 
52 45 43 34 28 26 14 8 7 9 4 2 12 6 4 13 8 5 13 8 6 17 12 9 
35 28 27 40 34 32 39 34 30 33 27 22 20 15 11 10 5 1 13 7 3 18 13 7 
24 19 12 26 21 15 37 32 26 44 39 33 37 32 29 32 27 23 30 24 18 28 22 17 
36 30 25 43 37 32 44 39 36 41 36 32 32 27 22 11 5 3 25 20 16 41 36 30 
48 43 38 58 43 40 65 41 40 66 39 37 65 37 36 64 36 35 65 37 36 65 38 36 
59 31 30 42 14 13 44 17 15 46 18 17 44 17 15 58 31 29 66 39 37 64 37 35 
63 39 38 63 41 39 64 42 40 60 37 35 57 31 30 52 25 23 57 29 28 54 26 25 
42 14 12 61 29 28 73 37 37 77 39 39 73 36 37 68 31 32 60 25 26 52 19 19 
48 16 16 48 17 16 56 27 27 63 35 35 67 41 41 50 24 24 37 12 11 29 4 3 
30 5 5 33 8 9 36 12 13 34 8 11 34 7 11 36 9 13 42 14 18 44 16 20 
45 16 20 43 14 17 42 14 16 43 14 17 43 16 18 43 16 18 43 16 18 42 17 18 
41 16 17 39 15 16 37 14 15 36 14 14 34 13 13 32 12 12 32 12 12 32 13 12 
33 14 13 32 15 14 32 15 13 31 14 13 29 12 11 27 10 9 25 8 6 24 6 5 
21 5 4 14 5 5 29 23 23 50 44 44 64 59 59 39 34 34 11 6 6 10 7 6 
9 6 5 8 5 4 6 5 3 14 13 11 25 24 21 36 34 31 40 37 33 43 39 35 
47 43 39 47 40 38 45 38 36 44 38 36 46 38 37 47 38 37 45 35 34 45 36 34 
38 29 27 16 9 5 21 14 8 22 15 10 10 4 1 26 19 15 38 31 25 37 30 27 
44 36 31 49 38 33 46 35 31 44 31 29 43 29 27 46 28 25 43 23 21 41 18 17 
40 15 14 42 14 14 49 18 20 61 29 31 62 31 32 67 34 35 77 39 42 56 17 20 
50 10 12 61 19 21 62 21 23 61 21 23 58 20 22 54 17 18 58 23 23 72 38 37 
69 38 37 70 38 38 76 38 38 66 22 24 66 17 20 74 19 24 78 19 26 82 19 27 
86 19 27 86 19 25 87 19 26 89 20 27 91 22 29 91 23 30 89 22 28 85 19 25 
70 18 20 51 19 14 46 14 10 40 10 7 34 5 4 33 5 4 33 6 6 35 9 10 
37 12 13 36 13 14 34 13 14 33 13 13 33 14 13 33 15 14 32 13 12 30 12 8 
29 11 5 31 12 5 36 17 8 43 22 12 47 25 15 47 25 14 44 22 10 37 15 4 
38 12 7 41 12 12 40 11 14 37 11 16 34 12 17 32 13 20 31 14 22 29 15 23 
27 14 22 23 12 19 21 10 14 20 8 10 16 4 5 17 5 3 30 16 11 52 40 32 
65 54 44 51 40 32 26 18 14 8 3 1 10 6 4 7 7 6 4 6 7 1 2 4 
22 23 21 40 40 36 44 42 39 41 39 36 39 37 34 39 36 34 41 37 34 47 40 37 
57 49 45 48 40 36 38 30 27 31 23 21 27 17 14 23 13 9 20 9 6 23 13 9 
30 19 15 39 29 25 45 36 32 48 40 35 46 39 34 26 19 15 23 16 12 39 32 27 
57 39 36 59 36 34 44 23 21 48 24 21 49 24 20 46 21 18 39 15 11 39 14 10 
46 18 15 61 29 28 68 34 34 69 34 34 75 32 34 74 27 30 68 20 23 66 18 21 
68 19 22 70 22 25 62 18 20 54 13 14 48 11 11 72 38 38 73 42 41 60 30 29 
63 16 19 68 13 19 72 17 23 74 20 25 76 23 27 76 24 28 73 22 24 69 21 20 
66 19 18 63 20 17 63 22 18 64 27 23 69 36 33 68 42 39 65 44 41 61 43 40 
49 34 31 35 25 23 36 29 26 42 37 33 44 41 38 27 26 24 21 22 20 19 19 17 
9 5 4 9 3 0 13 6 2 19 12 7 31 24 18 45 38 31 58 52 46 47 40 35 
28 21 17 9 4 3 28 21 20 46 38 37 41 33 32 30 22 21 20 12 10 14 7 6 
12 5 4 14 6 6 20 13 12 30 22 23 39 31 32 43 35 37 31 23 24 19 11 12 
13 8 8 13 8 8 22 17 17 44 39 39 57 52 52 55 50 50 27 23 22 24 19 19 
21 16 16 13 8 8 
15 4 6 13 5 5 50 46 45 59 56 55 49 46 45 21 17 16 8 5 4 6 2 1 
7 2 2 9 4 4 18 13 13 57 53 51 88 84 81 104 100 97 71 65 63 55 48 46 
43 37 34 22 15 13 16 8 6 17 9 6 20 13 9 61 54 49 100 93 88 85 77 73 
64 56 52 42 34 29 21 13 7 14 7 1 15 8 2 21 14 7 26 18 12 40 31 25 
75 65 59 87 76 70 96 83 79 115 101 97 120 104 101 114 97 94 92 72 70 62 39 38 
42 18 17 47 21 21 49 22 22 50 22 22 49 20 21 53 22 23 55 23 25 54 22 24 
59 27 28 63 31 32 62 35 33 94 69 66 118 94 91 119 97 94 127 108 103 118 100 95 
80 64 59 63 47 42 44 28 24 19 3 2 50 29 27 86 60 57 121 91 90 99 67 67 
80 45 46 70 33 34 61 22 24 57 19 20 60 24 25 66 32 32 83 52 51 113 84 83 
96 68 67 62 42 39 12 5 1 27 19 14 48 38 32 73 62 55 91 80 74 89 76 71 
67 53 47 42 26 22 32 14 10 34 15 11 39 17 15 42 18 17 44 19 17 45 19 18 
45 19 18 44 19 17 44 18 18 43 18 17 42 17 15 41 17 16 41 17 15 41 16 14 
40 16 15 39 14 15 38 11 16 38 12 16 37 13 17 37 14 17 35 13 17 33 12 15 
30 12 14 27 10 12 23 9 9 19 7 7 16 6 5 26 17 16 42 34 33 59 52 51 
53 47 45 36 30 28 16 12 9 10 6 3 10 6 3 12 8 5 15 11 8 27 23 20 
71 67 65 89 85 79 90 84 77 66 61 55 38 33 26 15 10 3 11 5 2 21 15 10 
33 27 20 40 34 29 68 63 56 90 85 78 83 77 71 65 59 53 52 46 39 55 50 44 
72 66 60 90 84 77 103 97 91 94 89 82 68 62 56 14 9 8 41 35 31 78 72 65 
107 102 96 121 105 101 125 101 98 116 92 89 113 89 87 111 88 85 109 86 83 101 78 75 
79 55 52 35 11 8 35 11 8 36 12 9 33 9 6 80 56 54 110 86 83 109 86 83 
120 96 93 127 103 101 129 106 103 117 93 90 98 74 71 73 49 46 60 36 33 47 23 20 
33 9 6 93 62 61 119 84 84 107 73 73 96 63 63 81 49 49 63 32 31 50 21 20 
47 18 17 51 24 22 72 46 46 97 72 71 120 96 95 71 47 46 43 19 18 32 8 7 
32 7 7 34 10 11 39 15 16 39 13 16 40 13 17 43 14 18 46 18 22 47 18 23 
46 18 22 45 17 19 45 16 19 46 17 20 45 18 20 45 19 20 45 19 20 44 19 20 
43 18 19 42 17 18 41 17 18 39 16 17 37 16 16 36 15 15 36 15 15 36 16 16 
37 17 16 36 18 17 35 18 16 34 16 15 32 15 13 29 12 11 27 10 8 25 8 6 
22 7 5 14 5 5 29 23 23 51 45 45 66 61 61 40 35 35 11 6 6 13 9 8 
14 11 10 14 12 10 11 10 7 26 25 21 50 49 45 87 85 81 94 91 86 95 91 87 
101 98 94 103 96 94 103 95 92 104 97 93 108 98 95 108 97 94 102 91 88 102 91 88 
80 70 68 15 9 8 20 13 9 26 19 13 17 10 5 49 42 36 75 68 62 84 77 71 
92 84 78 96 87 81 95 85 79 91 79 74 82 69 64 66 51 47 53 35 32 43 23 20 
37 15 13 41 16 15 54 27 28 79 50 51 100 69 71 116 84 86 128 94 97 66 34 34 
39 7 6 52 16 17 52 16 17 51 16 16 49 17 16 44 12 12 68 36 35 119 87 86 
126 91 91 131 94 94 133 92 94 90 43 47 71 20 24 74 17 22 80 18 25 84 18 26 
87 19 26 87 18 26 87 18 26 89 19 27 90 22 30 90 22 30 87 20 29 83 18 25 
69 17 21 50 18 18 46 15 14 41 11 11 37 8 8 37 9 9 38 11 11 40 14 14 
43 18 17 43 20 19 42 21 19 40 21 16 36 17 12 31 12 7 31 12 6 31 13 4 
32 13 2 35 15 4 44 24 12 57 36 22 69 47 34 68 45 31 59 37 21 45 22 7 
41 15 7 41 12 11 41 12 14 38 13 16 35 14 18 34 15 21 33 16 23 31 17 25 
29 16 24 26 15 21 23 13 16 22 10 13 18 6 6 19 6 3 31 17 12 53 41 34 
66 55 47 53 43 34 28 20 15 10 5 2 12 8 6 9 9 8 5 8 8 1 2 4 
55 56 52 99 101 91 108 109 101 102 102 93 96 96 87 97 95 88 99 95 88 105 99 92 
115 108 103 99 92 86 81 74 68 66 57 53 43 34 29 28 19 14 27 16 13 35 25 20 
48 39 34 68 59 55 90 83 77 98 91 85 87 80 75 37 31 27 25 19 15 56 50 45 
104 88 83 113 91 86 78 55 51 77 55 50 63 41 36 35 13 9 34 11 7 41 16 12 
55 27 24 94 62 61 116 80 80 121 81 82 102 58 61 89 42 45 81 31 35 73 24 28 
70 21 25 69 21 24 56 14 15 45 7 7 41 8 7 98 67 65 115 86 84 102 73 71 
68 24 27 60 10 15 67 17 22 71 22 26 74 25 29 75 27 30 68 22 23 63 19 18 
61 18 16 65 25 23 71 33 30 81 47 43 115 85 80 129 103 97 131 109 103 124 106 100 
99 85 79 73 62 57 79 72 67 92 88 83 98 96 91 66 66 62 44 45 41 26 27 24 
10 6 5 11 6 1 20 14 5 31 25 18 52 46 39 79 72 66 108 103 97 85 79 74 
48 41 37 13 8 7 54 48 46 97 89 87 90 84 81 62 55 53 35 28 25 23 17 14 
20 13 11 22 15 13 34 28 26 57 49 48 78 71 69 93 86 84 58 50 49 23 16 15 
9 4 4 8 4 4 18 13 13 41 36 36 54 49 49 51 46 46 23 18 18 19 14 14 
16 11 11 7 3 3 
14 5 6 11 5 5 49 45 44 59 56 55 50 47 46 22 19 18 10 6 5 7 4 3 
10 5 5 9 4 4 15 11 10 66 62 60 105 101 98 128 124 121 102 96 93 86 80 77 
68 62 59 23 16 15 15 8 7 24 16 13 27 20 15 85 78 73 141 133 129 116 107 103 
84 75 71 52 43 39 25 19 12 16 9 3 18 10 5 35 28 22 34 26 20 44 35 30 
99 90 84 110 100 94 112 100 95 122 110 105 126 112 108 122 106 103 106 88 85 78 58 56 
55 33 32 50 26 25 45 20 19 40 15 14 37 11 11 41 15 14 46 18 19 48 20 21 
62 33 34 74 47 46 79 58 54 115 95 91 142 124 120 150 134 128 141 126 121 124 111 105 
97 86 79 87 77 70 63 53 48 15 4 4 61 45 42 104 84 80 134 110 107 112 85 83 
90 61 60 72 41 41 57 25 25 52 21 20 60 32 30 70 43 41 96 71 69 142 119 116 
121 99 96 78 61 57 13 5 1 32 23 19 58 48 44 90 80 74 109 97 93 111 97 94 
97 82 77 47 29 27 28 8 6 35 14 12 42 19 18 44 20 20 44 18 18 45 17 18 
44 17 18 43 18 17 44 16 17 43 16 17 41 16 15 41 15 16 40 15 15 40 15 14 
40 14 15 39 13 15 39 11 16 40 12 17 39 13 17 38 13 17 37 13 17 34 13 16 
31 11 14 26 9 11 22 7 8 18 5 5 14 4 4 24 15 14 40 32 31 57 50 49 
51 45 43 34 29 26 14 11 8 9 6 3 9 6 3 9 6 3 11 7 5 28 25 22 
97 94 91 113 109 103 105 100 92 84 78 71 49 44 36 21 15 7 22 17 10 39 33 26 
59 53 45 77 71 64 92 86 79 99 94 85 89 84 77 77 71 63 69 64 55 76 70 63 
102 96 89 124 118 110 127 122 114 120 115 107 92 86 78 26 20 15 59 53 46 101 95 87 
125 120 113 134 120 115 137 117 113 136 116 112 133 113 109 130 110 106 127 107 102 120 100 96 
95 75 71 42 21 17 35 14 10 31 10 7 24 3 2 97 77 75 143 123 118 140 120 116 
146 127 122 150 130 126 150 130 126 138 118 113 122 102 97 102 82 78 75 55 51 48 29 25 
22 3 2 105 79 78 143 114 112 134 105 103 122 94 92 98 71 69 64 37 35 49 23 20 
45 19 17 51 27 24 85 62 60 116 93 92 139 117 116 81 59 57 46 24 23 33 10 8 
31 6 7 34 9 10 40 16 17 42 16 19 44 16 20 46 17 21 47 18 22 46 17 21 
44 14 19 44 15 18 45 16 18 45 16 18 44 16 18 44 16 18 44 16 18 43 17 18 
42 16 18 41 16 17 40 16 17 39 16 16 38 15 16 38 15 15 37 15 15 36 16 16 
37 17 16 37 17 17 36 17 16 33 16 14 31 14 12 28 11 10 25 8 7 23 6 5 
20 5 4 12 4 4 27 21 21 49 43 42 65 60 60 37 33 33 6 3 2 10 6 6 
13 10 9 14 12 10 11 10 7 32 32 28 70 69 65 135 132 128 140 137 133 135 131 127 
139 135 131 136 130 127 133 125 123 133 126 122 137 128 124 136 125 123 125 113 111 124 113 110 
97 87 84 17 11 10 27 21 17 44 38 31 46 40 34 81 75 68 110 104 96 120 114 107 
121 114 108 122 114 108 122 114 107 123 114 109 114 104 99 89 77 72 67 52 48 49 32 29 
38 20 17 41 20 18 52 29 28 73 49 48 106 79 79 135 107 108 160 131 132 72 47 47 
30 6 4 42 15 12 39 12 9 40 13 10 43 17 14 47 20 17 85 57 55 158 128 127 
150 117 117 149 112 113 151 110 113 92 44 49 69 16 21 75 16 22 80 17 25 85 17 26 
88 18 26 88 17 26 89 18 27 89 19 28 90 21 30 89 21 30 85 19 29 81 16 25 
66 15 22 47 15 19 45 13 17 42 10 14 38 8 12 37 9 10 38 11 10 39 14 11 
40 16 12 41 17 12 40 18 12 38 18 10 33 14 6 29 10 3 33 14 3 37 18 4 
40 22 5 43 24 8 53 33 17 67 46 29 81 59 42 77 55 38 63 41 25 40 17 7 
35 10 4 37 9 7 37 9 9 35 10 11 33 12 15 33 14 18 32 16 21 30 17 24 
29 16 24 26 15 21 23 13 16 21 10 12 17 5 6 17 5 3 30 17 11 53 40 33 
66 55 46 52 41 34 27 19 14 9 4 1 11 7 4 8 8 6 4 7 6 1 2 3 
61 63 57 113 116 105 132 134 124 131 132 122 130 129 120 135 132 125 134 131 123 136 132 124 
143 137 130 118 111 104 93 87 79 76 68 63 50 43 36 33 26 19 30 20 15 41 33 26 
63 56 48 97 90 84 117 110 102 124 118 110 118 112 105 51 47 39 36 32 24 82 78 70 
128 116 109 128 112 105 80 63 57 78 61 55 58 42 37 19 4 3 34 15 11 50 26 22 
68 40 38 109 77 76 127 91 91 124 83 85 104 59 62 90 42 46 81 31 35 74 24 28 
68 20 23 63 17 19 55 13 14 48 10 10 47 15 13 116 88 85 136 110 107 118 93 89 
69 30 31 56 11 14 63 19 22 66 22 24 68 24 26 68 25 27 62 21 20 53 14 13 
48 12 10 80 45 43 95 63 59 105 75 71 135 109 103 145 122 116 143 123 116 131 116 109 
104 91 85 79 69 64 97 91 85 118 115 110 127 126 122 85 85 80 55 56 51 31 32 28 
12 9 6 15 10 5 26 20 13 39 34 27 66 61 54 96 90 83 117 112 105 101 96 89 
69 63 57 23 19 13 76 71 65 129 123 119 116 111 107 82 77 72 48 43 38 29 24 19 
23 17 14 26 20 18 42 37 34 76 71 68 108 102 100 128 123 120 73 67 65 23 17 15 
7 3 2 6 2 2 16 11 11 39 34 34 52 47 47 48 44 43 20 16 15 16 11 11 
12 8 8 5 1 1 
15 7 8 12 5 5 49 45 44 59 56 55 49 46 45 22 19 18 10 7 6 9 5 4 
12 7 7 10 6 6 14 9 9 54 50 48 84 80 77 104 100 97 107 101 98 102 95 92 
83 77 74 25 18 18 19 12 11 33 26 23 37 30 25 96 89 84 151 144 139 117 109 105 
75 66 63 37 30 27 27 21 15 34 28 21 49 42 36 70 63 56 72 65 59 79 71 65 
113 105 99 119 111 105 116 106 101 108 97 92 116 103 99 124 109 105 121 105 101 107 89 86 
91 71 69 78 57 55 59 37 36 44 21 20 38 15 13 41 17 16 49 25 24 64 39 38 
84 59 58 101 78 76 110 93 88 119 104 98 125 111 105 125 113 106 101 91 84 90 81 75 
103 97 88 108 102 93 84 77 70 20 13 9 63 53 47 109 94 88 145 126 122 114 93 89 
86 62 59 67 41 39 51 24 22 47 21 19 58 36 32 67 45 42 97 78 74 152 135 130 
128 112 107 83 69 64 15 6 2 34 24 21 59 48 45 88 77 73 121 108 105 128 113 111 
110 94 91 48 31 29 26 6 5 37 15 14 45 22 22 47 22 23 45 18 19 45 17 19 
45 17 19 44 17 18 44 16 18 44 15 17 42 15 16 42 14 16 41 14 16 41 14 15 
41 13 15 41 13 16 41 12 17 42 13 18 41 13 18 40 14 18 39 14 18 36 14 17 
32 12 15 27 10 11 22 7 8 17 4 5 13 3 3 24 15 14 42 34 33 62 56 54 
52 48 45 31 27 24 13 10 7 8 5 2 9 6 3 8 5 2 7 5 2 26 24 22 
111 109 106 128 124 118 114 108 99 85 79 71 55 49 41 34 28 19 37 31 23 64 58 50 
92 86 77 102 97 89 104 99 90 96 90 81 67 62 54 63 57 48 66 61 52 76 71 62 
108 103 94 134 129 120 137 131 123 127 122 113 95 90 82 25 20 14 64 59 51 111 105 96 
136 130 122 134 123 116 130 114 109 129 113 107 127 111 105 126 110 104 127 111 105 125 108 103 
106 90 84 62 46 40 47 30 25 34 17 13 20 4 1 103 87 83 151 135 129 142 125 120 
130 114 109 120 104 98 111 95 89 108 91 85 112 95 90 124 107 102 96 80 74 64 48 43 
29 13 10 91 69 66 124 99 96 125 101 97 126 103 99 106 83 80 66 44 40 50 27 24 
45 23 20 52 32 28 88 68 65 121 101 99 148 129 127 86 65 64 49 28 26 34 11 10 
31 7 7 35 10 11 43 18 19 46 19 22 48 20 24 48 19 24 48 18 23 46 16 21 
44 13 17 45 15 18 45 16 18 45 16 18 45 16 18 44 15 18 44 15 18 43 16 18 
42 16 17 42 16 17 41 16 17 40 16 17 39 15 16 39 15 16 39 16 16 38 16 17 
38 17 17 38 18 17 37 17 17 33 16 15 31 14 12 28 11 9 24 8 6 22 6 4 
19 4 3 12 4 4 27 21 21 48 42 42 66 61 60 36 32 32 4 1 1 7 4 3 
11 8 7 13 10 9 8 7 5 35 34 31 78 77 73 141 139 134 138 135 131 125 122 118 
123 119 115 113 107 104 104 96 94 101 94 90 104 95 91 101 90 87 85 74 72 85 74 71 
71 61 58 26 20 17 48 43 38 74 68 61 85 80 72 107 102 94 123 118 111 128 123 115 
121 115 108 116 109 102 117 111 104 123 116 110 122 113 107 108 98 92 93 81 76 75 62 57 
53 38 34 49 32 29 53 34 31 63 43 41 100 78 77 138 115 114 177 152 152 93 71 71 
46 26 23 41 22 16 37 17 11 41 20 15 54 33 28 66 44 39 102 77 74 159 132 131 
145 113 113 137 101 102 134 91 95 87 38 43 70 15 21 77 15 23 82 16 26 86 17 27 
89 17 27 90 17 27 90 18 28 89 19 29 89 20 31 87 20 31 83 18 29 78 15 25 
64 13 23 47 14 23 45 12 21 43 11 18 40 10 15 38 9 11 37 10 8 37 11 7 
37 12 6 37 14 6 37 16 6 37 17 5 35 15 3 34 15 2 42 23 6 52 33 14 
60 42 20 62 42 21 69 48 27 78 58 36 89 67 46 82 60 39 65 43 25 43 20 7 
36 10 3 35 6 4 35 7 5 33 9 9 32 11 13 32 14 17 32 16 21 31 17 24 
29 16 24 26 15 20 23 13 16 21 9 12 17 5 5 18 5 3 30 16 12 53 40 33 
65 54 46 51 41 33 26 19 14 8 3 1 10 7 4 7 8 6 4 7 6 1 3 3 
67 70 63 122 125 113 135 137 126 118 119 108 102 102 91 96 94 85 92 90 82 97 94 86 
115 111 102 106 100 91 98 92 83 99 93 85 65 58 50 39 32 24 30 22 15 39 32 24 
64 57 48 107 100 93 128 122 114 136 130 121 127 123 114 52 49 42 37 34 27 94 91 82 
135 127 118 131 120 111 79 67 59 79 67 59 63 51 45 30 18 14 59 42 37 81 59 55 
98 71 68 121 89 88 124 88 89 110 69 71 92 46 49 80 31 35 73 23 27 69 20 23 
65 17 20 60 16 18 57 17 18 55 20 19 58 28 26 121 96 93 140 118 114 125 104 99 
70 35 35 53 13 15 60 20 21 58 20 20 59 21 21 60 22 22 59 23 21 53 19 17 
51 20 18 100 69 66 117 89 85 118 92 87 118 95 89 113 92 86 104 87 79 92 78 71 
70 60 54 55 48 43 89 84 78 120 117 111 133 133 127 87 88 82 60 61 55 39 39 34 
15 13 8 17 13 7 28 24 16 43 39 31 67 63 55 96 91 83 126 122 114 110 106 98 
75 70 63 24 20 14 79 76 69 137 133 126 120 117 110 86 82 75 52 47 41 30 26 20 
23 19 13 26 22 17 44 40 35 82 78 73 119 114 109 143 139 134 77 73 67 19 14 10 
7 3 3 7 3 3 17 13 12 41 36 36 54 49 49 50 45 45 21 17 16 17 12 12 
14 9 9 7 3 3 
17 8 9 13 5 5 50 46 45 59 56 55 48 45 44 21 18 17 10 7 6 10 6 5 
13 8 8 13 8 8 14 9 9 31 27 25 42 38 35 55 51 48 95 89 87 106 99 96 
91 85 82 31 24 22 29 21 20 48 40 38 52 45 41 99 92 87 140 133 128 101 93 89 
50 42 40 11 4 3 28 22 16 61 56 48 95 89 82 113 108 100 125 118 111 128 122 115 
119 112 105 118 110 104 110 101 96 82 72 66 96 84 79 117 104 100 130 116 111 138 122 118 
137 120 116 119 100 98 84 65 63 55 36 33 47 26 24 46 25 24 58 37 35 90 68 66 
115 93 91 134 114 111 147 133 127 114 102 95 84 73 66 69 61 53 34 28 21 36 32 25 
101 98 89 121 118 108 100 96 87 29 24 15 60 53 44 104 94 86 153 139 132 109 93 87 
74 55 50 59 36 33 43 21 17 41 20 16 55 36 31 60 42 37 90 75 70 150 139 132 
125 113 107 80 69 64 16 7 3 33 23 20 53 42 39 74 63 60 127 113 111 138 123 121 
111 95 94 48 31 30 26 6 6 40 16 17 49 24 26 50 24 26 46 17 20 46 17 20 
46 17 20 46 17 20 46 17 19 45 16 19 44 15 18 44 15 17 44 14 17 43 14 17 
43 14 16 43 13 17 43 13 19 44 13 19 43 14 20 42 15 20 40 16 20 37 15 18 
33 13 16 28 11 13 23 8 9 17 5 5 13 3 3 25 16 15 44 37 36 70 65 62 
56 52 50 27 24 22 11 8 5 7 5 2 8 7 3 6 6 2 3 3 1 22 22 21 
116 116 113 135 132 125 118 112 103 76 71 62 59 53 44 52 47 38 54 48 39 91 85 76 
124 118 109 117 112 103 106 101 92 83 77 68 32 26 17 35 30 20 51 46 37 65 59 50 
100 95 86 130 125 116 137 131 122 123 117 108 88 82 74 19 14 10 62 57 51 113 108 99 
141 136 126 127 117 110 112 99 92 106 93 86 104 91 84 106 93 86 115 102 95 120 107 100 
114 101 94 93 79 73 67 54 47 43 30 24 20 7 2 101 88 82 144 131 125 127 114 107 
92 79 72 63 50 43 42 29 22 50 37 30 81 68 61 138 125 118 119 106 99 88 74 68 
46 33 26 62 45 39 79 59 54 95 75 70 115 97 92 106 88 83 70 51 46 53 35 30 
49 31 26 58 41 36 87 70 66 119 102 99 149 133 130 87 68 66 49 29 27 33 12 11 
32 9 9 37 13 14 48 21 23 51 23 26 51 22 27 50 20 25 49 19 24 47 16 21 
45 13 18 46 16 19 46 16 19 46 16 19 46 16 19 45 16 18 44 15 18 44 15 18 
44 15 18 44 15 18 43 16 18 42 16 17 41 16 17 41 17 18 41 17 18 41 17 18 
40 18 19 39 18 18 37 18 17 34 16 15 31 14 13 28 11 10 25 8 7 22 6 4 
19 4 3 13 5 5 28 22 22 49 43 43 67 62 62 37 33 33 3 0 0 4 1 0 
9 5 4 11 8 7 4 3 1 36 35 32 78 77 73 123 121 116 110 107 103 88 84 81 
79 75 71 60 54 51 43 35 33 36 29 24 38 28 24 34 22 20 15 4 3 17 5 3 
26 15 11 41 35 28 79 73 66 111 105 97 128 122 115 125 120 112 120 115 108 116 111 103 
100 95 87 91 85 78 93 87 80 102 96 89 112 105 98 121 114 108 123 115 109 109 100 94 
75 63 58 63 49 45 55 40 36 52 35 32 88 70 67 130 111 108 177 156 155 121 100 99 
77 59 56 50 37 30 42 28 20 50 35 28 74 59 52 94 76 71 116 95 91 139 114 112 
124 93 93 110 73 75 96 53 56 78 27 32 74 16 23 80 16 25 85 17 27 88 17 28 
91 18 29 91 17 29 91 18 29 90 18 30 88 20 32 85 19 32 80 17 29 75 14 25 
63 13 25 47 14 27 47 13 25 45 13 22 43 13 18 39 10 13 37 8 7 34 7 2 
33 8 1 34 11 2 36 14 2 38 17 3 40 20 4 44 24 5 56 37 14 72 53 27 
86 67 39 85 65 38 87 67 41 90 70 45 94 72 48 83 61 38 67 44 23 50 28 8 
40 15 2 34 5 2 34 6 4 33 9 7 32 11 12 32 14 17 32 16 21 31 18 24 
29 17 23 26 15 20 23 13 16 21 9 12 18 6 6 19 6 4 31 17 13 53 40 34 
65 54 47 51 41 33 26 19 14 8 4 1 10 8 3 8 9 6 5 8 7 1 3 3 
72 75 68 126 129 117 125 128 115 82 84 72 42 43 31 18 18 7 9 8 2 20 18 13 
58 55 45 77 72 63 99 93 84 129 123 114 82 76 67 45 39 29 30 23 14 33 26 17 
56 50 41 103 98 89 130 125 116 138 134 124 124 121 111 46 43 39 33 30 27 96 93 83 
132 127 117 126 120 110 76 70 60 79 72 63 73 64 55 56 45 37 96 80 73 122 101 96 
134 109 106 128 96 95 112 75 75 88 45 48 72 26 29 64 15 18 62 12 15 63 14 17 
62 15 18 60 16 18 63 24 25 67 34 33 75 47 44 119 97 93 135 117 111 127 110 104 
73 42 41 55 19 20 57 21 22 50 16 16 48 15 14 51 19 17 60 29 26 62 33 29 
68 40 36 120 94 89 134 110 104 122 99 93 80 61 53 55 37 30 38 24 17 30 17 11 
19 9 5 18 12 9 67 63 57 107 105 97 125 125 117 80 81 73 61 62 55 48 48 42 
20 17 10 19 16 8 29 26 18 45 41 33 61 58 49 86 83 74 133 130 122 114 111 103 
71 68 61 18 15 11 73 70 64 129 126 118 112 109 101 80 77 69 49 46 37 29 26 18 
22 19 10 24 21 13 43 40 32 80 77 69 117 114 106 145 142 133 74 71 62 14 10 4 
9 5 4 11 6 6 21 16 16 44 40 39 57 52 52 53 48 48 24 19 19 20 15 15 
17 12 12 11 6 6 
18 9 10 14 6 7 50 46 45 59 56 55 49 46 45 20 17 16 9 6 5 8 5 4 
13 8 8 12 8 7 13 8 8 29 25 23 37 33 30 47 43 40 88 82 80 99 93 90 
90 83 80 57 49 47 63 55 53 84 76 74 93 86 82 111 103 99 121 113 109 96 88 84 
49 42 39 12 6 5 36 32 24 72 67 58 108 102 93 131 126 117 138 132 123 131 125 116 
107 100 92 94 87 79 82 74 66 62 54 46 70 60 53 81 70 64 86 73 67 120 107 101 
145 130 125 134 118 113 96 79 74 63 46 41 52 34 30 42 24 20 49 30 26 89 69 65 
111 91 87 133 115 110 160 148 141 113 103 95 73 65 57 63 58 49 33 30 20 35 33 24 
91 90 79 98 97 86 77 75 65 23 20 10 53 49 39 98 90 82 151 139 132 107 94 87 
72 56 50 55 37 32 39 21 16 37 20 15 52 37 31 55 41 35 87 76 69 153 145 137 
124 116 108 77 69 63 14 5 3 31 21 19 48 37 35 66 54 53 118 105 103 131 116 115 
107 89 90 45 29 29 24 5 6 38 13 16 47 22 25 50 23 27 48 19 23 48 19 23 
49 19 23 49 19 23 49 18 22 48 18 22 47 17 21 47 16 20 47 16 20 46 16 20 
46 15 20 46 15 20 46 14 21 47 15 21 46 16 22 45 17 22 43 18 22 40 17 21 
36 15 18 30 12 14 24 9 10 19 6 6 14 4 4 23 15 14 42 35 33 72 67 65 
56 52 50 23 20 17 9 8 4 7 6 3 9 9 5 7 8 3 4 4 2 22 23 21 
118 118 114 140 138 131 126 121 111 80 75 64 74 69 58 79 74 64 77 72 62 98 93 82 
116 111 101 111 106 95 88 83 73 60 55 45 30 25 15 33 28 18 47 43 32 68 63 53 
106 101 90 135 130 120 141 136 125 130 125 114 96 91 81 24 19 12 69 64 55 121 116 105 
145 140 129 118 110 101 93 84 76 86 77 69 74 64 57 73 64 56 94 85 77 112 103 95 
122 113 105 122 112 104 90 81 73 55 46 38 21 11 4 93 84 77 138 129 121 132 123 115 
97 87 80 64 55 47 38 29 21 34 25 17 67 57 49 140 130 123 125 115 108 100 90 82 
67 58 50 59 46 39 62 47 40 76 60 53 103 88 81 102 87 81 73 58 52 63 48 41 
70 55 49 93 79 72 107 92 88 127 112 108 148 132 129 83 66 63 46 27 25 32 12 10 
34 11 11 41 16 17 51 25 27 53 24 28 52 22 27 50 19 24 50 18 24 50 17 23 
49 17 22 50 18 22 50 18 21 49 18 21 49 18 21 48 18 20 47 17 20 47 17 20 
46 17 20 46 17 19 46 17 20 45 18 20 45 17 20 44 18 19 43 18 19 43 19 20 
42 19 20 41 19 19 39 18 18 36 17 16 33 15 14 29 12 11 25 9 7 22 6 5 
19 5 4 14 6 5 30 23 23 51 45 45 70 65 65 39 35 35 4 1 0 6 3 2 
10 7 6 11 8 7 3 2 1 37 36 34 83 82 78 132 130 126 117 114 110 91 87 83 
79 75 72 56 50 47 36 28 25 29 21 17 35 25 22 36 25 22 23 12 10 33 21 18 
48 37 33 66 58 52 102 95 88 131 125 118 146 140 133 113 108 100 88 83 76 86 82 74 
78 75 67 75 71 63 78 74 66 82 78 70 95 91 83 121 117 110 129 124 117 118 111 105 
83 75 69 68 59 53 57 47 41 50 38 33 76 63 58 102 87 83 127 111 108 115 99 96 
103 90 84 91 85 75 57 50 41 57 48 39 90 80 72 108 94 87 123 105 99 135 112 109 
118 88 87 100 63 65 81 36 41 73 21 28 74 15 23 82 16 26 88 18 28 91 18 30 
94 18 32 92 18 31 92 18 31 91 19 32 88 20 34 84 19 33 78 17 29 73 13 25 
60 12 25 45 13 28 47 15 29 47 16 26 45 15 22 42 12 15 39 11 8 36 10 2 
37 13 2 42 19 4 49 28 7 55 34 12 58 38 13 61 42 15 74 54 25 84 65 34 
93 74 41 98 78 46 101 80 50 102 81 52 102 79 52 91 68 42 75 52 28 57 33 10 
44 18 3 37 8 3 37 10 5 36 11 8 34 13 13 34 16 18 34 18 22 32 19 25 
31 18 24 27 16 21 23 13 16 21 9 12 19 6 7 21 8 6 33 19 15 54 41 36 
66 54 47 51 41 34 26 19 14 9 4 1 12 9 4 10 11 7 6 10 8 2 5 3 
67 71 63 119 123 110 125 128 115 84 87 74 46 48 36 24 26 14 13 12 5 20 18 12 
56 53 43 75 71 61 100 96 86 139 134 124 90 85 74 49 43 33 29 24 13 35 30 19 
60 55 44 107 102 91 131 127 116 139 136 125 129 127 116 48 46 41 32 30 26 94 92 81 
133 132 120 130 128 117 83 80 68 74 70 59 71 66 56 75 66 57 100 87 80 121 102 97 
136 113 109 108 77 76 90 53 54 82 39 41 68 21 23 63 14 17 66 15 19 64 15 18 
61 14 16 56 14 15 72 35 35 87 56 54 102 78 74 129 111 105 139 125 118 134 121 113 
99 74 72 74 44 44 56 26 25 44 16 14 42 15 12 48 20 18 68 42 38 86 61 57 
104 80 76 122 100 95 125 105 99 113 95 89 67 50 44 41 26 19 26 14 6 20 10 4 
13 5 2 16 11 9 67 63 57 109 106 98 129 127 119 82 82 73 65 65 57 55 55 48 
28 26 17 25 23 13 33 31 21 47 45 34 63 61 50 87 85 75 132 130 120 113 111 101 
70 68 59 15 13 11 72 70 64 131 129 119 116 114 104 84 82 72 52 50 40 30 28 19 
23 21 11 28 26 16 52 50 40 84 82 71 116 114 104 147 145 134 79 77 67 18 16 8 
6 3 2 6 2 2 16 11 11 39 34 34 51 47 47 47 42 42 18 13 13 14 9 9 
12 7 7 7 2 2 
15 7 8 13 6 7 51 47 47 61 57 57 50 46 46 22 18 17 10 6 5 8 5 4 
12 7 7 12 7 7 12 7 7 26 22 19 32 28 25 41 37 34 83 77 75 96 90 87 
94 87 85 85 78 76 95 87 85 110 102 99 117 110 105 113 106 102 103 96 91 83 75 71 
45 37 34 19 12 9 54 50 41 86 82 72 115 111 101 140 135 126 144 138 129 130 124 115 
85 79 70 65 58 49 52 44 36 37 29 23 42 32 26 48 37 30 45 34 30 102 90 85 
148 134 128 138 124 118 104 89 83 73 58 52 60 44 39 40 24 19 43 26 21 87 70 65 
108 90 85 128 112 107 155 145 138 102 93 85 56 50 41 45 41 32 24 22 13 23 22 14 
53 53 45 54 55 46 42 42 33 13 12 5 54 51 42 103 97 88 152 143 135 107 95 88 
70 56 50 53 37 32 37 21 15 34 19 13 47 34 27 47 35 28 81 72 64 154 148 139 
125 119 110 78 72 65 15 6 4 30 21 19 49 38 37 69 58 57 120 107 106 131 116 116 
105 88 89 44 28 29 23 4 5 36 11 14 45 19 22 48 21 25 48 20 24 49 19 24 
49 19 24 49 18 24 50 18 23 49 17 22 48 17 22 48 16 21 47 16 21 47 16 21 
47 15 20 47 15 20 47 14 21 47 15 21 47 16 22 46 17 23 44 18 22 41 16 21 
36 14 18 30 11 14 24 8 10 18 5 6 13 3 3 18 10 9 33 27 25 71 67 64 
57 54 51 24 22 19 10 9 6 7 7 3 8 9 5 7 8 3 4 4 2 22 23 22 
120 121 117 138 137 129 120 115 104 75 70 59 83 79 68 102 97 86 96 91 80 105 100 89 
109 104 93 88 83 72 63 58 48 39 35 25 22 17 9 30 25 16 46 41 31 66 61 50 
104 99 88 135 130 119 142 137 126 132 128 117 98 94 84 23 18 12 66 62 53 118 113 102 
144 139 128 116 110 100 86 79 71 69 62 54 55 48 39 55 48 40 79 72 63 109 102 94 
131 124 115 140 132 124 101 94 85 59 52 43 20 13 4 94 87 78 138 131 122 129 122 113 
88 81 72 55 48 39 35 28 19 30 23 15 66 59 50 148 141 132 128 121 112 101 94 85 
70 63 54 54 44 35 51 40 32 63 52 44 98 86 79 106 95 88 90 78 71 90 79 72 
100 89 81 118 106 99 118 105 100 120 106 102 121 106 102 69 54 50 40 22 19 30 10 8 
34 11 11 42 17 19 53 26 28 53 24 28 51 20 25 48 15 20 50 16 22 51 17 23 
53 18 24 51 19 23 51 19 22 50 18 21 50 18 21 49 17 20 48 17 20 48 17 20 
47 17 20 47 17 19 47 17 20 47 17 20 46 18 20 44 17 19 43 17 19 43 18 19 
43 18 19 41 18 18 38 17 17 35 15 15 32 13 12 27 11 9 24 8 6 21 5 4 
18 4 3 12 4 4 28 22 22 51 45 45 71 66 66 40 36 35 4 1 1 7 4 3 
11 8 7 11 9 8 3 2 1 38 37 35 86 85 82 140 137 133 122 118 114 92 88 85 
77 73 70 49 43 40 26 18 16 18 11 9 25 16 13 29 18 15 21 10 8 37 25 23 
58 47 44 81 74 67 113 106 99 136 130 123 144 139 131 87 82 76 48 43 38 50 47 40 
53 51 42 56 53 45 57 54 46 52 50 41 65 62 54 102 100 91 125 121 113 127 122 114 
103 97 90 79 72 66 60 51 45 46 37 31 59 49 43 70 59 54 78 66 62 114 102 97 
125 117 110 110 109 97 78 76 64 76 73 62 106 100 90 121 111 103 119 103 97 99 77 74 
89 61 59 79 43 44 69 24 30 69 17 23 74 15 23 84 17 27 89 18 29 93 19 31 
95 19 33 93 19 32 92 19 32 90 19 33 88 20 34 83 19 32 76 17 28 70 13 24 
57 10 24 42 10 26 45 13 27 46 15 26 46 15 22 43 13 15 41 13 9 40 13 3 
44 20 5 53 30 10 65 42 17 74 53 24 81 60 29 85 65 31 89 68 33 93 73 36 
97 78 40 104 83 47 108 87 53 111 89 57 109 86 56 99 76 47 85 62 34 69 45 20 
51 25 9 38 10 3 38 11 4 36 12 8 35 14 12 35 16 17 34 18 21 32 19 23 
30 18 23 26 15 19 22 11 15 20 8 10 18 6 7 21 8 7 33 18 16 54 40 35 
65 53 46 50 39 32 25 17 13 8 3 1 10 8 3 9 10 6 6 10 7 2 5 3 
66 71 62 118 124 109 127 131 117 87 90 77 49 52 39 27 29 17 13 13 6 18 16 11 
51 49 38 72 69 58 101 98 87 147 143 132 93 88 77 48 43 32 28 23 12 35 30 19 
61 56 46 109 105 94 132 128 117 141 139 128 136 134 123 50 49 44 30 29 25 90 89 78 
128 129 116 128 129 117 88 88 76 74 72 60 78 74 63 100 93 83 106 94 86 116 99 93 
130 107 103 82 54 53 64 29 30 72 29 31 65 18 21 65 16 19 71 20 24 68 19 22 
60 15 16 51 11 11 85 50 49 108 79 77 123 100 96 139 122 116 143 132 124 140 130 121 
126 105 101 96 70 68 58 32 30 42 18 15 39 16 12 46 23 19 72 51 46 103 83 78 
129 110 104 110 92 86 97 80 74 83 68 61 49 35 28 32 20 12 25 15 7 23 15 8 
15 8 4 15 10 9 66 63 56 111 109 100 134 132 124 85 84 75 66 65 57 56 55 47 
33 32 21 31 29 18 37 35 24 47 46 34 65 64 53 92 91 80 137 135 124 113 112 100 
66 65 55 14 13 10 74 72 66 135 133 122 121 120 108 86 85 74 52 50 39 30 29 18 
24 22 11 30 29 18 56 55 44 83 81 70 111 110 98 143 141 130 79 77 66 19 17 9 
5 2 1 4 0 0 14 9 9 37 32 32 49 45 44 45 40 40 15 11 11 12 7 7 
11 6 6 6 1 1 
13 5 6 12 6 6 53 48 48 62 59 58 51 47 46 23 20 19 11 8 7 8 4 3 
11 6 6 11 6 6 11 6 6 21 17 15 26 22 19 35 31 28 79 74 71 96 89 86 
101 94 91 113 105 103 121 113 111 127 120 117 129 122 117 112 105 100 89 82 77 67 59 55 
39 30 26 27 19 14 76 72 63 101 98 88 120 116 106 141 136 127 145 140 130 126 121 112 
62 56 47 37 30 21 23 16 8 12 4 2 16 6 2 19 8 2 11 2 1 86 75 71 
146 134 127 137 124 117 110 97 90 84 70 64 66 51 45 40 25 19 39 24 18 88 71 66 
107 90 85 123 108 102 142 133 126 86 79 70 38 32 23 22 18 9 12 10 3 6 6 1 
5 6 1 6 7 1 5 6 1 2 2 0 57 55 49 111 107 97 154 146 138 107 96 89 
69 56 50 51 38 31 34 21 15 30 17 11 42 30 23 40 30 23 75 68 60 153 148 139 
126 122 112 79 75 67 15 6 4 31 22 20 52 43 41 79 68 67 127 114 113 135 120 120 
105 88 89 44 29 29 23 4 5 35 10 13 43 17 20 47 20 23 48 19 24 48 19 23 
49 18 23 49 17 22 49 17 22 48 16 21 48 16 21 48 16 20 47 15 20 46 14 19 
46 15 19 47 14 20 47 13 20 47 14 20 47 15 21 46 16 22 44 16 21 40 15 19 
35 13 16 29 10 13 23 7 8 16 3 4 12 1 1 13 5 4 25 19 17 68 64 61 
58 55 52 27 26 23 12 11 8 8 8 4 8 9 4 6 7 3 3 4 1 23 24 22 
122 123 119 133 131 124 107 102 91 66 61 50 89 84 73 120 115 104 112 107 97 111 107 96 
101 96 85 60 55 44 38 33 22 22 17 8 10 5 2 26 21 14 46 41 31 63 58 47 
99 95 84 131 127 116 142 137 126 133 128 117 97 92 84 18 13 11 59 54 48 111 106 95 
140 136 125 118 113 103 87 82 73 58 52 43 44 38 29 46 40 31 71 65 56 110 104 95 
138 132 123 148 142 133 104 98 89 58 52 43 19 12 4 98 92 83 141 135 126 122 116 107 
73 67 58 41 35 26 31 25 16 31 26 17 71 66 57 156 150 141 129 123 114 97 92 83 
65 59 50 48 40 31 45 37 27 56 48 39 97 89 80 115 107 99 112 104 95 123 116 107 
132 123 115 136 126 119 124 112 107 106 94 89 84 70 66 52 37 33 34 17 13 27 7 5 
33 11 11 43 17 19 54 25 28 53 22 26 49 17 22 45 11 16 48 13 19 52 16 23 
56 18 25 52 18 23 50 18 21 49 17 21 49 17 20 49 16 19 48 15 19 48 16 19 
48 16 19 48 16 19 48 16 19 47 16 19 46 17 19 44 15 18 43 15 17 42 16 18 
42 17 18 39 16 17 36 15 15 34 14 13 29 11 10 25 8 7 21 6 4 18 4 2 
15 2 1 9 2 1 27 20 20 50 44 44 71 66 66 40 36 35 4 1 1 8 5 4 
11 8 7 11 8 8 3 2 1 39 38 36 88 87 83 143 141 137 124 121 117 93 89 85 
74 70 67 42 36 33 15 8 6 7 1 1 14 5 3 19 7 5 15 3 2 34 23 20 
61 50 46 92 84 78 116 109 103 131 125 118 132 126 119 58 53 49 9 5 2 17 14 7 
30 28 19 38 35 27 36 34 26 22 20 12 31 29 21 75 73 65 115 113 104 133 131 122 
124 121 113 91 87 79 62 56 49 38 31 25 40 32 26 40 32 26 37 28 22 115 107 101 
143 139 130 114 118 104 99 101 88 100 100 88 117 115 104 131 124 114 109 96 89 53 33 28 
53 26 24 56 20 21 60 15 20 65 13 19 74 14 22 84 18 28 90 19 30 93 19 32 
95 19 33 94 19 33 92 19 32 89 20 32 86 20 34 81 19 31 74 16 26 68 13 23 
54 9 22 39 7 22 41 10 23 43 12 21 44 14 18 43 14 14 43 15 9 43 17 4 
51 26 8 64 40 17 80 57 28 93 70 36 103 82 44 110 89 49 100 79 39 98 77 36 
100 79 38 106 84 45 112 90 52 117 96 60 116 94 60 107 84 52 95 72 42 83 59 31 
59 34 16 38 11 2 38 11 4 37 13 7 35 15 12 34 16 16 33 17 19 31 18 21 
28 16 21 23 12 17 19 8 12 17 5 8 17 4 5 20 6 6 31 17 15 52 39 34 
63 51 44 48 37 30 23 16 12 6 2 0 8 6 1 8 9 5 5 9 6 1 4 2 
67 71 62 120 126 112 129 134 120 89 93 79 50 53 40 28 29 17 11 12 6 14 14 9 
45 44 33 69 66 55 102 98 88 151 148 137 92 88 77 45 40 29 25 20 10 34 29 18 
62 57 46 111 106 95 132 130 118 143 141 130 143 141 129 52 51 46 28 29 24 86 87 75 
121 123 110 123 126 113 93 95 82 77 76 64 88 85 74 127 121 111 112 101 93 110 93 87 
118 95 91 58 33 31 40 9 8 60 18 20 63 17 20 68 20 23 75 24 28 72 24 27 
60 16 17 45 8 6 98 66 64 129 101 99 141 120 115 145 131 124 146 136 127 144 137 127 
148 130 126 115 93 89 61 39 35 41 20 17 35 16 12 43 25 20 75 57 51 116 99 93 
146 131 124 91 76 69 62 47 40 46 33 25 30 19 12 27 18 9 29 22 13 32 25 16 
20 15 10 15 11 9 66 63 54 113 110 101 139 136 128 89 87 77 66 64 54 53 50 42 
37 36 25 35 34 22 39 38 26 47 45 34 68 67 55 99 97 86 142 141 129 113 112 100 
62 61 51 13 12 9 76 74 67 139 138 126 126 124 112 87 85 73 49 47 35 29 28 16 
23 22 10 30 29 17 58 56 45 80 79 67 105 104 92 137 136 124 76 75 63 20 18 9 
6 3 1 5 1 1 14 9 9 37 33 32 50 45 45 45 40 40 15 10 10 12 8 8 
12 7 7 8 4 3 
21 13 13 20 13 13 52 47 47 62 59 58 55 52 51 19 16 15 6 3 2 6 3 2 
8 3 3 10 5 5 13 8 8 19 15 12 22 18 15 31 27 24 77 71 68 94 87 84 
99 92 90 112 104 102 124 116 114 134 126 124 136 129 125 118 111 106 92 84 80 64 56 52 
35 26 23 27 19 15 90 85 76 112 109 99 121 118 107 129 125 114 137 132 122 128 123 112 
73 67 57 39 33 23 18 11 3 13 6 1 16 6 1 18 8 1 16 5 1 82 71 65 
138 126 118 137 124 116 115 102 95 87 73 66 53 38 32 34 19 13 43 27 21 96 80 73 
115 98 92 128 113 106 140 130 122 86 77 69 36 30 23 12 7 4 9 6 1 8 8 1 
7 9 1 8 9 1 7 9 1 6 6 1 51 49 41 99 94 85 145 137 129 104 93 86 
70 57 51 53 39 32 28 16 13 25 13 10 46 33 27 52 43 35 83 76 68 141 137 128 
119 116 106 74 71 64 8 2 1 34 26 24 57 48 46 79 68 67 126 114 113 131 117 117 
97 80 81 46 28 29 28 8 9 38 14 17 49 23 26 52 25 29 50 21 26 49 19 24 
49 18 23 49 18 23 51 19 24 52 19 24 51 18 23 48 15 21 47 14 19 46 13 18 
47 14 19 48 15 21 50 16 23 49 16 23 48 16 22 46 16 22 43 15 20 38 13 18 
33 12 15 28 9 12 23 7 8 17 4 5 13 3 3 22 14 13 38 32 30 57 53 50 
49 47 43 29 28 24 11 11 7 7 7 3 8 8 4 5 6 2 2 3 0 21 22 21 
115 116 113 133 131 124 114 109 98 70 65 54 89 85 74 122 117 106 129 125 114 110 105 95 
84 79 68 61 56 45 38 33 23 19 14 5 8 3 1 22 17 11 45 40 29 74 69 58 
102 97 86 128 123 112 146 142 131 135 130 119 96 92 83 18 13 11 64 59 53 117 112 101 
140 135 124 115 111 100 90 85 76 78 73 63 39 34 29 32 28 24 85 79 70 107 103 93 
123 119 110 135 129 120 101 96 87 60 56 47 17 11 4 99 94 85 143 139 129 123 118 109 
75 71 61 37 33 25 13 8 5 15 11 5 55 51 43 138 133 124 132 128 118 111 106 97 
75 69 60 53 47 37 46 39 30 54 48 38 96 89 80 115 108 99 112 106 96 112 106 97 
126 119 111 152 143 135 136 126 120 115 103 98 90 76 72 53 37 34 35 17 14 33 12 10 
37 13 13 43 17 18 51 21 24 53 21 26 52 18 24 51 14 21 52 15 22 55 17 24 
57 20 27 53 18 23 51 17 21 50 17 21 50 17 20 50 16 20 50 16 20 49 16 20 
49 16 19 49 16 19 49 16 19 49 16 20 48 16 20 48 17 20 46 17 19 45 17 19 
43 17 19 40 16 17 37 15 15 33 13 13 29 11 10 25 9 7 22 7 5 19 6 3 
17 5 2 12 4 4 30 24 24 53 47 47 66 61 61 37 33 32 7 3 2 13 10 9 
10 7 6 6 3 2 2 1 0 37 36 34 84 83 79 133 131 127 122 118 114 96 92 88 
74 70 67 37 32 30 8 2 2 6 0 0 13 4 3 20 9 6 23 12 9 36 24 21 
61 50 46 107 99 91 116 110 101 123 117 109 135 130 121 64 59 51 15 11 3 19 17 8 
31 29 19 37 35 25 35 34 24 25 24 14 36 35 25 77 76 66 112 112 102 126 126 115 
112 112 101 95 93 83 64 61 53 16 12 9 30 24 18 42 36 28 49 43 34 114 108 99 
139 136 126 118 124 109 106 111 97 101 104 91 104 104 92 119 113 103 108 96 89 73 54 49 
62 36 33 53 20 19 47 7 7 59 7 12 72 12 20 85 19 29 89 19 30 91 18 30 
92 18 30 92 19 31 91 20 31 88 20 32 84 19 31 78 18 29 71 16 24 66 13 22 
55 12 23 43 13 25 41 11 21 38 8 15 36 6 9 44 16 13 44 17 9 40 14 3 
43 17 4 61 37 15 85 61 29 87 64 27 96 73 34 105 83 41 101 80 37 100 79 36 
103 81 38 110 89 46 119 97 55 125 103 64 124 101 64 112 89 55 97 73 41 81 57 27 
59 33 14 42 14 3 41 15 4 39 16 8 38 18 14 37 19 18 34 18 19 29 16 19 
24 11 16 20 8 13 17 7 12 19 7 11 17 4 6 18 5 5 30 16 14 52 39 34 
64 52 45 50 39 32 25 17 13 7 2 1 9 6 2 7 8 3 4 8 3 1 3 1 
63 67 58 113 119 105 121 127 112 86 90 76 50 53 40 26 28 15 11 13 5 15 15 10 
45 44 33 77 74 63 107 104 93 136 133 122 90 86 75 47 42 32 17 12 5 35 30 21 
66 62 51 110 105 94 130 128 116 138 137 125 134 132 120 50 50 43 31 32 25 90 90 78 
119 123 109 122 126 112 97 99 86 76 77 65 90 89 77 138 133 123 122 113 104 111 96 89 
104 81 77 64 36 34 47 14 13 52 11 12 65 21 23 69 22 25 67 17 21 69 22 25 
60 17 18 46 8 7 99 67 65 140 115 111 166 148 142 135 124 116 132 124 115 145 139 128 
142 127 121 114 96 91 71 53 49 32 17 15 18 5 3 26 13 11 81 66 61 127 113 106 
152 139 133 83 72 64 59 48 40 54 44 36 27 19 11 21 14 6 26 19 10 27 21 12 
20 15 7 20 16 10 67 64 55 108 105 96 130 127 117 90 87 76 66 63 53 51 49 39 
43 41 28 37 36 23 37 36 23 49 48 35 67 66 52 92 90 77 130 128 115 105 104 91 
61 59 48 13 12 9 77 76 68 141 139 126 121 119 106 84 83 70 49 48 35 27 25 13 
16 14 5 22 21 13 59 58 45 85 84 71 111 109 96 139 137 124 80 79 66 25 23 13 
9 4 3 5 1 1 14 10 10 40 36 35 52 47 47 45 40 40 10 6 6 11 7 7 
15 11 11 16 11 11 
17 9 10 17 11 11 49 45 44 61 58 57 57 54 53 17 14 14 5 2 1 7 4 3 
8 3 3 9 5 5 12 8 7 15 11 9 17 13 10 26 22 19 75 69 66 91 85 82 
95 88 85 107 99 97 119 112 110 130 122 120 133 126 122 109 102 97 77 69 65 54 46 42 
29 21 18 26 19 16 96 92 83 117 114 103 121 117 106 121 116 105 121 116 105 108 102 92 
57 51 41 31 24 15 18 11 2 20 12 5 21 11 4 20 10 3 15 5 1 76 65 60 
131 118 110 135 121 114 128 114 107 107 93 86 64 49 42 38 22 16 37 21 15 75 58 52 
93 76 69 106 91 84 118 107 100 96 87 79 76 68 61 66 60 56 65 62 56 58 57 48 
37 38 28 22 23 14 11 12 4 6 6 1 50 48 40 100 96 86 152 144 136 124 113 106 
101 89 82 93 79 72 75 63 58 73 61 57 90 79 72 93 84 76 111 104 95 145 142 132 
117 115 105 71 68 61 6 1 0 34 27 26 57 48 46 75 65 63 125 113 112 131 118 118 
97 81 81 47 29 30 29 8 10 39 16 18 48 22 26 51 24 28 50 21 26 49 19 24 
49 18 23 50 18 23 52 19 24 53 19 25 52 18 24 49 15 21 47 13 19 46 13 18 
48 14 20 49 16 22 51 17 24 50 17 24 48 17 23 45 16 22 42 15 20 37 13 17 
32 11 14 28 9 11 22 7 8 17 4 5 14 4 4 25 17 16 42 36 34 54 50 47 
46 43 40 29 27 24 11 10 6 7 7 3 8 9 5 5 6 2 3 3 1 21 22 20 
112 113 110 137 135 128 129 124 113 94 90 79 109 104 93 132 127 116 133 128 117 95 90 79 
56 52 41 48 43 32 31 26 16 16 11 3 12 7 2 24 19 11 46 41 30 78 73 63 
104 99 88 127 122 111 148 143 132 136 132 121 97 92 84 18 13 12 67 62 56 121 116 106 
142 137 126 110 107 96 83 80 70 80 75 66 40 36 30 37 33 27 100 96 87 114 110 101 
117 114 104 114 109 100 84 80 70 49 46 37 12 7 3 93 89 81 140 137 127 130 126 116 
106 103 93 84 81 72 65 61 56 66 63 56 91 88 79 142 137 128 124 121 111 94 90 80 
50 46 38 37 31 23 35 30 21 47 41 31 83 78 68 101 94 85 98 92 83 98 92 83 
116 110 101 151 143 134 134 124 118 109 96 91 74 59 55 49 32 28 37 17 15 36 14 12 
39 15 15 44 17 19 50 20 23 53 20 25 54 18 25 53 15 22 54 15 23 57 17 25 
59 20 27 53 18 23 51 17 21 51 17 21 51 17 21 51 17 21 51 16 21 51 16 20 
51 16 20 51 16 20 51 16 20 50 16 20 50 16 20 49 17 20 48 17 20 46 17 20 
44 17 19 41 16 17 38 15 16 34 13 13 29 11 10 25 9 7 22 7 5 19 6 3 
16 5 2 12 5 4 31 24 24 53 47 47 64 59 58 35 31 31 7 3 3 14 11 10 
10 7 6 4 1 0 2 1 0 37 36 34 84 83 79 133 131 127 128 125 121 112 108 104 
101 97 93 79 74 72 63 56 55 62 56 54 65 56 53 59 48 45 35 24 21 42 30 27 
67 56 52 115 107 99 119 112 103 118 111 102 118 112 103 60 54 44 20 16 6 25 22 12 
34 32 21 39 38 27 37 36 25 29 29 18 38 38 27 71 71 60 102 103 91 118 118 107 
114 114 102 112 111 100 80 78 69 11 8 4 22 18 10 33 28 18 38 33 23 84 79 69 
106 104 92 100 107 92 113 119 105 113 117 103 99 99 87 101 97 86 86 75 68 52 36 33 
49 24 22 51 18 18 57 17 18 64 15 18 74 16 22 84 19 29 88 19 29 90 19 29 
91 18 29 91 19 30 89 20 30 86 20 30 81 18 28 74 17 25 67 15 21 64 13 20 
56 14 21 46 17 25 46 17 23 40 12 14 32 4 4 38 11 8 54 28 19 74 47 32 
78 52 34 90 65 38 103 79 42 96 72 32 97 73 32 102 79 34 102 78 34 104 81 36 
108 85 40 116 93 48 125 102 58 131 108 66 131 109 69 119 95 59 100 76 42 80 56 24 
58 33 12 41 14 3 40 14 3 38 15 7 37 17 12 37 19 16 33 18 18 28 15 17 
23 10 14 19 7 12 17 6 12 19 7 12 17 4 6 18 4 4 30 16 14 52 39 35 
64 53 47 50 40 33 25 18 14 7 3 1 9 6 2 7 8 3 4 7 3 1 3 0 
64 68 59 117 123 108 131 135 121 107 111 97 84 87 74 71 73 60 62 63 53 64 63 55 
82 80 69 95 92 81 105 101 91 110 106 95 73 69 58 39 34 25 13 8 2 37 32 23 
69 64 54 108 104 93 130 126 115 138 136 125 132 131 119 50 49 43 32 32 25 90 90 77 
121 124 111 128 131 118 108 111 98 99 101 88 110 109 97 140 135 124 115 106 97 92 77 70 
70 48 43 53 26 23 52 19 18 64 24 25 67 23 25 68 22 24 67 19 22 67 21 23 
59 17 18 51 13 13 105 74 72 141 118 114 159 142 135 100 90 82 92 85 76 116 112 101 
128 116 109 113 97 91 79 63 58 45 32 28 26 14 11 25 13 10 84 72 66 129 118 111 
149 139 132 68 58 51 39 30 24 38 29 24 27 20 13 26 20 11 28 22 13 25 20 10 
17 13 5 19 16 10 68 65 55 112 109 98 139 136 126 112 109 97 96 93 81 86 83 71 
79 78 63 75 73 58 75 73 58 88 87 71 100 99 83 114 113 97 138 137 121 108 107 92 
62 61 48 16 15 9 79 78 68 140 139 124 117 115 101 83 81 67 51 49 36 30 28 15 
17 16 5 22 20 11 58 57 44 84 83 69 109 108 94 135 134 120 76 75 61 22 20 10 
8 4 2 4 1 1 14 10 10 41 36 36 53 48 48 45 40 40 8 4 4 11 7 7 
17 12 12 19 14 14 
9 2 2 11 5 5 46 42 41 60 57 56 56 53 52 17 14 14 6 3 2 9 6 5 
9 5 4 9 5 5 10 5 5 11 7 5 12 8 5 20 16 13 70 64 61 85 79 76 
87 81 78 101 93 91 112 104 102 121 113 111 125 118 114 93 85 81 53 46 41 41 32 28 
23 15 13 26 18 16 97 93 84 118 114 103 119 114 103 115 110 99 104 98 88 81 75 65 
32 26 16 20 13 4 21 13 4 27 19 10 28 18 10 24 13 7 12 2 1 70 59 55 
124 110 102 131 116 109 142 126 119 133 117 111 85 69 63 47 30 25 29 11 6 43 24 19 
59 39 34 73 56 50 86 75 67 109 99 92 128 121 113 141 136 127 142 139 129 124 123 112 
78 79 68 44 46 34 19 20 11 2 2 1 52 50 43 107 103 93 164 156 148 151 140 133 
141 129 122 144 131 124 140 126 120 140 127 120 146 136 128 141 132 124 143 137 128 156 153 143 
119 117 106 68 66 59 5 1 0 34 28 26 55 47 45 68 59 57 124 113 112 134 121 121 
101 87 86 47 30 30 28 7 9 39 15 18 44 18 21 47 20 24 49 21 25 48 18 23 
48 17 22 49 17 22 51 18 24 52 19 24 52 18 24 49 15 21 47 14 19 47 13 19 
49 15 21 50 17 23 50 18 24 49 17 24 47 16 22 44 16 21 40 14 19 36 12 17 
32 10 14 28 9 11 22 7 8 17 4 5 14 4 4 24 16 15 40 34 32 55 51 48 
47 43 40 28 25 22 10 9 5 8 7 3 10 10 6 7 8 3 4 5 1 22 22 20 
111 112 108 142 140 133 145 140 129 127 122 111 135 130 120 144 139 128 128 124 113 75 70 59 
28 23 12 29 24 14 20 15 7 13 8 1 18 14 3 29 24 14 47 42 31 78 73 63 
104 99 88 127 122 111 148 143 132 137 132 121 98 93 85 18 13 12 68 63 57 124 119 108 
145 140 129 108 104 93 76 73 63 73 69 59 46 43 33 52 48 38 115 111 101 125 122 112 
116 113 103 88 85 75 60 57 47 32 29 22 6 2 2 86 82 76 137 134 124 139 136 126 
147 144 134 148 145 135 141 138 128 142 138 128 145 142 132 153 149 139 111 108 98 65 62 53 
16 13 5 13 8 2 20 15 8 37 32 22 67 61 51 81 75 66 80 74 65 87 80 71 
107 100 92 140 132 124 126 115 109 94 81 77 49 34 30 42 24 21 38 17 15 38 15 13 
40 15 16 45 17 19 52 19 23 54 20 25 55 18 25 54 16 23 55 15 23 58 17 25 
61 19 27 54 18 23 52 17 22 52 17 22 52 17 22 52 17 22 52 17 22 53 16 21 
53 16 21 53 16 21 53 16 21 52 16 20 50 15 20 49 16 20 48 16 20 46 17 20 
44 17 19 41 16 18 39 15 16 34 14 14 29 11 10 25 9 7 21 6 4 19 5 3 
16 4 2 11 4 3 30 23 23 52 46 46 62 57 57 34 30 30 6 2 2 13 10 9 
9 6 5 4 1 0 2 1 0 38 37 35 86 85 81 138 136 131 138 135 131 131 127 123 
135 131 127 138 132 129 139 131 129 136 129 125 133 124 120 109 98 95 46 35 32 49 37 34 
74 63 59 119 111 102 123 115 106 115 107 97 96 89 79 50 44 34 23 18 8 30 27 16 
38 36 25 43 41 29 41 39 28 34 34 21 39 40 28 63 65 52 91 92 79 111 112 99 
121 122 109 132 131 119 100 98 87 15 12 5 17 13 4 20 16 5 19 14 3 45 40 29 
65 64 52 77 83 69 120 124 110 126 128 115 95 95 83 83 79 68 56 48 41 15 2 1 
29 5 4 49 17 17 76 34 37 74 25 29 76 20 27 82 20 27 86 20 28 88 19 28 
90 19 28 89 19 28 87 19 28 83 19 27 77 17 24 71 16 21 64 14 18 62 13 17 
54 14 18 46 18 21 50 23 23 45 18 16 35 8 4 34 8 4 71 45 34 123 98 74 
132 106 77 132 107 72 126 101 61 110 84 42 102 76 32 99 74 28 101 76 31 108 83 36 
116 91 44 123 99 52 130 106 61 136 112 69 139 116 74 126 103 63 105 81 45 80 56 23 
57 31 9 40 13 2 38 11 2 35 12 4 34 15 8 35 17 13 32 17 16 28 15 17 
23 11 14 19 8 13 17 6 12 19 7 12 17 4 6 18 4 4 30 16 14 52 39 35 
64 53 48 50 40 34 25 18 14 7 3 1 9 6 2 7 8 3 4 7 3 1 3 0 
68 71 63 126 131 117 147 150 137 137 140 127 129 132 119 133 134 122 130 130 118 129 127 116 
131 128 117 115 112 101 97 94 83 79 74 63 50 45 34 27 22 13 14 9 2 39 34 25 
71 66 55 106 101 91 130 126 115 140 137 126 135 133 122 52 50 43 32 30 24 88 87 75 
125 127 114 137 139 126 122 123 111 131 131 119 135 134 122 134 129 119 102 92 83 67 53 46 
32 12 7 37 11 7 54 22 21 81 43 44 68 26 28 65 20 23 69 24 26 65 20 22 
61 19 21 62 25 25 114 84 83 139 116 112 136 120 113 60 50 41 47 41 31 78 74 64 
116 104 97 114 99 93 87 72 66 70 56 50 46 33 27 30 18 12 85 74 67 126 116 110 
141 133 127 51 42 37 16 7 4 13 6 4 29 23 16 34 28 20 32 27 18 24 20 10 
14 11 4 16 12 9 68 64 55 120 116 105 157 154 142 141 139 125 136 132 119 133 129 116 
128 127 109 125 124 105 125 125 106 138 137 119 143 142 123 146 145 127 154 153 135 116 115 97 
65 64 48 20 19 10 80 79 66 137 136 120 114 113 97 82 81 66 52 51 37 33 31 18 
21 19 7 24 23 11 56 54 41 82 80 67 107 105 92 132 130 117 71 69 56 16 14 4 
5 2 1 3 0 0 13 9 9 40 35 35 53 48 48 45 41 41 9 5 5 12 8 7 
18 13 13 20 15 15 
17 11 11 16 10 9 47 43 43 60 57 56 56 52 51 17 14 14 6 3 3 10 7 6 
10 5 5 9 5 5 9 5 4 10 6 3 9 5 2 14 9 6 44 38 35 58 52 49 
70 64 61 99 91 89 112 104 102 118 110 108 125 117 113 87 80 76 43 35 31 32 23 20 
20 11 9 26 18 16 94 89 80 116 111 100 119 114 104 117 112 101 108 103 92 90 83 73 
50 43 33 34 27 17 28 20 11 31 21 13 33 22 14 30 19 12 14 3 2 70 56 53 
119 104 97 122 104 98 134 116 110 128 110 105 84 65 59 51 32 26 33 13 8 39 18 13 
57 35 30 68 48 43 64 52 45 92 82 75 115 107 99 123 116 107 126 122 112 117 115 105 
90 91 80 72 73 62 45 47 38 4 4 3 48 46 39 100 96 86 153 146 137 141 131 123 
130 117 111 126 113 106 124 110 103 122 110 103 122 111 104 124 116 108 133 128 118 147 145 134 
117 116 105 70 69 61 6 2 1 37 31 27 55 49 44 63 55 51 124 113 110 136 124 122 
103 90 88 45 29 29 26 7 8 40 18 19 44 20 21 46 21 22 48 21 23 47 18 21 
47 16 20 48 16 20 51 18 22 51 19 23 51 18 22 49 16 20 48 15 19 48 15 19 
50 17 21 50 18 23 49 18 24 48 17 24 46 17 22 43 16 21 40 15 19 35 13 16 
31 10 13 26 9 10 22 7 8 17 4 5 14 4 4 24 16 15 41 34 32 55 50 48 
46 42 40 27 24 21 10 8 5 9 7 4 12 11 7 8 8 4 5 4 2 21 21 20 
109 108 105 136 133 126 137 132 123 131 126 116 136 131 121 140 135 125 126 121 111 75 69 60 
29 24 15 33 27 18 19 14 9 10 5 2 21 16 7 29 24 14 43 38 28 72 67 58 
99 94 84 123 118 108 143 138 128 132 127 117 95 90 82 17 12 11 66 61 56 121 115 106 
143 138 128 121 116 106 96 91 82 80 76 66 59 54 45 66 61 51 119 114 104 132 127 117 
118 113 104 72 67 58 49 44 35 28 23 17 6 2 1 97 92 86 150 145 136 142 137 128 
140 135 126 133 128 119 119 114 105 119 114 105 124 119 110 136 131 122 109 104 95 78 73 64 
43 38 29 25 20 11 24 18 9 38 32 22 60 54 44 78 71 62 91 84 75 104 97 88 
120 112 104 137 128 120 126 113 108 94 79 75 45 28 25 41 22 19 40 17 16 40 15 15 
43 16 17 48 17 20 53 18 23 56 19 25 57 18 25 57 15 23 57 15 23 60 16 25 
62 18 27 55 18 24 53 18 22 53 18 22 53 18 22 53 18 22 54 18 22 54 17 22 
54 16 21 54 16 21 54 16 21 54 16 21 52 15 20 50 15 19 49 16 19 48 17 20 
45 16 19 43 16 18 40 16 17 35 14 14 30 12 11 25 9 8 21 7 4 17 5 2 
15 4 1 11 4 3 30 24 24 53 47 47 63 57 57 34 30 30 5 2 2 12 8 8 
9 5 4 4 1 0 2 1 0 38 37 35 85 84 80 135 133 129 135 132 128 125 121 117 
120 116 112 126 120 117 128 121 118 120 113 108 117 108 104 96 85 82 35 24 21 43 31 28 
73 62 57 121 112 102 126 117 107 121 113 103 113 106 95 54 47 40 17 11 4 27 22 11 
37 34 21 43 41 28 43 41 28 35 34 21 42 42 28 70 71 57 100 101 87 116 117 103 
116 117 103 124 123 110 91 89 79 9 7 4 16 12 4 25 20 8 31 27 15 66 60 48 
90 86 74 101 104 92 115 116 104 105 105 94 73 71 60 81 76 66 66 56 49 29 14 9 
42 20 17 53 22 21 61 22 23 67 21 24 72 20 24 77 18 24 80 18 24 83 18 24 
85 18 24 84 18 24 82 18 24 79 18 23 73 16 20 68 16 18 64 16 16 60 15 14 
49 12 11 35 9 6 31 8 7 42 19 14 61 35 23 65 40 25 97 72 51 137 112 85 
141 115 83 137 112 75 128 102 61 101 74 32 91 65 22 92 66 22 100 74 28 113 88 40 
128 102 54 132 107 59 136 111 65 141 116 72 146 122 80 133 109 69 111 87 48 82 57 22 
57 32 8 39 13 2 36 10 2 33 10 2 31 12 4 33 15 10 31 16 14 28 16 17 
24 11 15 20 8 14 17 6 12 18 6 11 16 3 6 18 4 4 30 16 14 52 39 35 
64 53 48 50 40 34 25 18 14 7 3 1 9 6 2 7 8 3 4 7 3 1 3 1 
69 72 64 127 130 117 142 146 133 129 132 119 120 122 110 124 125 113 124 123 112 123 121 110 
124 121 111 107 103 93 87 81 72 65 59 50 38 32 22 21 15 6 21 15 6 45 39 30 
73 67 57 103 98 88 130 125 115 142 137 128 137 134 124 53 50 44 33 30 25 90 87 76 
134 133 122 145 144 132 117 115 104 128 125 113 130 126 115 125 118 109 104 94 85 78 65 57 
49 30 24 39 14 11 44 13 12 61 25 25 69 30 31 67 25 26 56 13 15 63 21 23 
79 39 40 101 66 66 126 99 96 140 119 114 139 124 117 78 69 60 65 60 50 87 83 73 
129 117 109 128 113 107 103 88 81 91 77 71 56 44 39 20 10 8 71 61 56 116 106 101 
140 131 127 62 54 49 29 23 18 24 18 13 26 21 14 27 22 14 26 22 14 20 17 7 
13 10 3 16 13 10 70 66 57 121 117 105 156 152 139 137 133 119 129 125 110 128 123 108 
133 131 111 127 126 105 121 119 98 123 121 100 123 122 101 127 126 105 141 140 120 108 106 86 
61 59 42 17 15 8 72 70 59 130 128 111 122 119 103 87 85 69 49 47 33 22 20 9 
11 9 2 17 15 10 52 49 39 88 85 73 120 117 106 147 144 132 83 80 69 24 21 13 
7 3 2 4 0 0 14 10 10 43 38 38 56 51 51 48 43 43 11 6 6 14 9 9 
19 14 14 20 15 15 
24 18 17 20 14 14 49 45 45 61 57 57 56 53 52 17 14 14 5 2 2 9 5 4 
9 4 4 9 4 4 9 5 4 10 6 4 10 6 3 13 9 6 38 32 29 55 49 46 
74 67 64 110 102 100 117 109 107 113 105 103 111 104 99 70 63 59 26 18 16 21 13 10 
15 6 4 23 15 13 81 75 66 112 107 96 128 122 112 125 119 109 123 116 106 108 101 91 
57 50 41 33 25 18 23 15 9 32 21 14 35 23 15 33 19 13 21 7 4 80 64 59 
131 113 107 129 110 104 129 109 103 115 95 89 75 53 49 48 26 21 32 9 6 33 10 7 
43 20 17 47 27 24 40 28 22 59 49 42 76 67 59 81 75 66 93 89 80 102 100 90 
103 104 93 106 107 95 79 80 70 9 9 6 52 50 43 101 97 88 144 137 128 124 114 107 
104 92 86 90 77 70 80 68 61 76 65 58 78 68 61 91 83 75 111 107 97 140 139 128 
120 120 109 76 75 67 7 3 1 38 34 29 56 51 45 61 55 49 124 115 111 136 126 122 
101 90 86 42 29 28 24 8 7 42 21 20 47 24 24 48 23 24 46 20 21 45 17 19 
45 16 18 46 16 18 50 18 21 51 19 22 51 18 21 49 16 20 49 15 19 49 16 19 
51 18 21 50 19 23 48 19 24 47 18 24 45 17 22 42 16 20 39 14 18 34 12 15 
30 10 12 25 8 10 21 6 7 17 4 5 14 4 4 24 15 15 40 32 31 55 49 47 
46 42 39 27 23 21 10 7 5 8 6 3 12 10 6 9 7 4 5 4 2 22 20 19 
107 105 103 126 123 116 120 115 106 113 108 99 117 112 103 123 118 109 124 119 110 93 87 79 
61 56 47 57 51 43 31 26 20 10 5 1 15 10 5 26 20 13 43 37 28 71 66 57 
100 95 86 126 121 112 145 139 130 133 128 119 95 90 83 17 12 11 66 61 55 121 115 106 
145 140 131 136 130 121 122 116 107 110 104 95 99 93 84 105 99 90 136 130 121 134 128 119 
105 99 91 43 38 32 28 23 18 18 13 8 8 3 1 96 91 85 147 141 132 135 130 120 
118 112 103 100 94 85 80 74 65 81 75 66 96 91 81 129 123 114 109 104 94 83 77 68 
50 44 35 34 28 18 29 22 13 34 27 18 50 42 33 74 65 57 105 96 88 120 111 103 
122 111 104 111 99 92 100 86 81 72 57 54 32 16 14 38 18 16 42 18 17 43 16 16 
46 16 19 50 17 21 54 18 23 57 18 25 59 17 25 59 16 24 60 16 24 62 16 25 
63 17 26 56 18 24 54 18 23 54 18 23 54 18 23 55 18 23 55 18 23 56 17 22 
56 17 22 56 17 22 56 16 22 55 16 21 54 16 21 51 15 19 49 15 19 48 16 19 
46 16 19 44 17 18 40 16 17 35 15 14 30 12 11 25 10 8 20 7 5 17 5 2 
14 3 1 12 5 5 32 26 26 55 49 49 64 59 59 35 31 31 5 2 1 11 7 7 
8 5 4 4 1 0 2 1 0 37 36 34 83 82 78 132 130 126 129 125 121 112 108 104 
96 93 89 90 84 81 82 75 72 69 62 59 70 61 58 62 51 48 29 17 14 39 27 24 
66 55 49 111 101 90 123 114 102 127 119 107 128 120 107 58 51 44 12 6 2 20 15 5 
33 29 17 41 38 24 42 40 25 28 27 15 34 33 22 70 70 55 111 111 96 127 127 111 
109 109 93 106 105 90 76 74 63 11 8 3 25 21 11 39 34 20 47 42 28 91 85 72 
112 107 95 106 106 95 107 105 95 105 102 92 100 96 86 103 96 87 85 74 66 47 31 26 
56 34 30 54 27 25 43 11 11 58 16 17 67 18 20 72 17 20 76 17 21 79 18 22 
81 18 21 81 18 21 78 17 20 74 16 18 68 15 15 63 14 13 59 14 11 56 13 9 
45 11 5 31 7 1 27 5 1 55 32 23 99 74 54 112 87 64 130 105 78 146 121 89 
136 110 75 126 99 60 113 87 45 92 65 24 88 60 18 92 65 21 101 75 29 117 90 43 
133 106 58 136 111 63 141 115 68 146 119 74 149 124 80 135 110 68 112 87 48 85 60 23 
62 36 10 44 17 3 39 13 2 34 12 2 31 12 3 31 14 8 30 15 13 29 16 17 
25 12 16 20 9 14 17 6 11 17 5 9 15 2 5 18 4 4 30 16 14 52 39 35 
64 53 48 50 40 34 25 18 14 7 3 1 9 6 2 7 8 2 4 7 2 1 4 0 
67 70 62 121 124 111 128 131 119 104 106 94 83 84 73 77 76 66 72 70 63 70 67 61 
71 67 62 63 57 51 52 46 39 39 33 26 26 20 12 21 15 6 27 20 12 46 39 31 
70 64 55 100 93 85 130 124 115 143 137 128 135 131 123 52 48 44 32 29 25 90 87 78 
129 125 115 134 129 119 103 97 87 113 108 97 122 115 105 128 119 110 114 103 95 99 84 77 
82 63 58 49 26 21 38 10 7 46 13 12 61 24 25 59 21 22 44 6 7 64 26 26 
97 60 61 137 105 105 141 116 113 148 128 123 153 139 132 112 103 94 104 98 88 118 113 103 
140 128 120 139 124 117 123 108 101 114 100 94 70 58 54 20 10 7 69 58 54 111 101 97 
134 126 122 74 66 62 44 37 32 32 26 20 25 21 13 23 19 11 21 18 10 17 14 5 
12 9 2 18 14 10 71 66 56 116 111 99 143 138 124 114 109 94 98 93 78 90 84 68 
87 85 65 83 82 60 81 79 56 80 79 55 90 88 64 108 106 82 140 139 116 113 111 89 
67 65 47 21 19 9 77 74 61 133 130 113 118 116 98 87 84 68 54 51 37 28 26 14 
18 15 6 23 19 12 51 47 37 84 81 70 116 112 101 140 137 126 79 75 64 23 18 11 
8 3 2 5 1 1 16 11 11 45 40 40 57 52 52 48 44 44 11 6 6 13 8 8 
17 12 12 17 12 12 
27 21 21 22 16 16 51 47 47 62 59 58 56 53 52 17 14 14 4 1 1 6 3 2 
7 3 2 8 3 3 9 5 4 12 8 6 12 8 5 15 11 8 42 37 34 64 58 55 
88 81 78 124 117 115 123 115 113 106 98 96 90 83 79 48 42 39 9 2 1 11 3 1 
10 2 0 18 12 10 64 59 49 105 99 89 134 128 117 134 127 117 140 132 123 129 121 111 
65 57 48 34 26 21 22 13 10 36 24 17 39 25 18 38 22 16 33 16 10 95 77 71 
148 127 122 144 121 117 124 101 96 97 73 69 63 39 35 43 18 15 32 7 4 33 8 7 
34 9 8 32 11 9 29 17 11 29 20 13 31 24 16 36 30 21 58 55 45 84 84 72 
115 116 104 137 138 127 110 111 101 13 14 8 59 57 49 105 102 92 137 131 122 106 98 89 
76 65 58 51 40 33 31 20 13 24 15 7 33 25 17 54 48 39 87 84 74 134 134 123 
123 124 113 81 81 72 6 4 1 38 35 30 57 53 46 62 57 49 124 116 111 135 126 122 
99 89 83 39 29 26 23 8 7 42 23 20 50 28 28 51 26 27 46 20 20 44 17 18 
44 15 17 45 15 16 49 17 20 50 18 21 50 18 20 49 17 20 49 16 19 50 17 18 
52 19 22 51 20 24 47 19 24 47 18 23 44 17 22 41 16 20 37 13 17 33 11 14 
29 9 12 25 7 9 21 6 7 17 5 5 14 4 4 24 15 14 40 32 31 56 49 47 
47 42 39 27 23 21 10 6 5 8 5 3 11 8 5 9 6 3 6 3 1 22 19 19 
107 104 101 119 115 109 104 98 90 88 82 75 89 84 76 99 94 85 117 112 104 115 109 101 
105 99 90 89 84 76 51 45 38 17 11 5 9 4 2 22 17 12 44 39 30 72 67 59 
104 99 91 132 127 118 148 143 136 136 131 123 97 92 85 18 13 12 65 60 55 121 116 107 
148 143 136 148 142 133 143 137 128 140 133 124 141 134 126 146 139 130 154 148 139 134 128 119 
92 85 79 20 14 13 12 6 5 11 4 3 11 4 1 92 85 78 137 130 121 126 119 110 
92 85 76 62 55 46 38 31 22 41 34 25 70 63 54 130 123 114 114 107 98 87 80 71 
51 44 35 42 34 25 34 26 17 28 20 11 40 31 23 72 61 54 120 110 102 135 123 116 
119 106 99 75 61 55 65 50 45 45 30 27 18 3 2 35 14 13 44 18 18 46 18 18 
49 17 20 53 18 22 56 19 24 58 18 25 60 17 26 62 17 26 63 16 26 64 16 26 
65 17 26 57 18 24 55 19 24 56 19 24 56 19 24 56 18 23 56 17 23 57 17 23 
58 17 23 58 17 23 57 16 22 57 16 22 56 16 21 52 15 20 50 15 19 48 15 19 
47 17 19 44 17 19 40 16 17 35 15 14 30 12 11 25 10 8 20 7 5 17 5 2 
14 3 1 14 6 6 34 28 28 58 52 52 67 62 62 36 32 32 5 2 1 10 7 6 
8 5 4 4 1 0 2 1 0 36 36 33 82 81 77 130 128 123 122 119 115 99 95 91 
74 70 66 48 42 39 25 17 16 9 3 2 16 7 5 24 12 9 25 14 11 35 23 20 
56 44 38 94 84 71 116 106 92 130 121 108 138 131 115 65 59 51 16 10 6 20 14 7 
33 28 16 42 38 23 43 40 23 24 23 13 30 29 20 71 70 53 124 123 106 139 138 121 
101 100 82 86 84 67 59 56 42 18 13 3 41 36 23 59 53 38 66 61 44 116 109 94 
128 122 109 100 96 86 95 89 80 108 102 93 140 134 125 129 120 112 106 93 87 71 55 50 
73 53 48 59 35 32 30 5 4 49 12 11 61 15 15 67 15 17 73 17 18 77 19 19 
79 20 20 78 19 19 75 17 17 69 15 14 64 13 10 58 12 6 53 11 4 51 10 3 
44 12 3 36 14 4 38 15 6 78 55 39 136 113 86 157 133 104 159 134 102 148 123 87 
125 99 60 106 79 39 92 65 24 88 60 20 91 62 20 97 68 24 107 78 33 122 93 46 
136 108 60 141 114 66 146 120 73 151 125 78 150 124 79 135 110 66 113 88 48 91 65 27 
69 43 14 51 25 6 44 19 4 37 15 3 31 13 3 30 13 7 30 15 13 29 16 17 
26 13 17 20 9 14 16 5 11 15 3 7 14 1 4 18 4 5 30 16 15 52 39 36 
64 53 48 50 40 34 25 18 14 7 3 0 9 6 1 7 8 2 4 7 2 1 4 0 
65 68 60 114 116 105 113 115 105 76 76 66 41 40 30 19 17 9 9 6 3 4 0 0 
5 1 0 9 3 1 12 5 1 13 6 2 18 11 4 24 17 9 32 23 17 45 37 30 
66 60 52 97 90 84 130 124 116 144 137 129 133 127 120 49 45 43 31 28 25 91 87 80 
120 113 105 119 110 101 86 77 68 94 85 76 109 100 91 130 119 111 123 110 103 120 105 98 
120 101 96 66 44 39 40 14 11 40 9 7 50 16 15 47 14 13 37 7 6 67 34 33 
113 79 79 166 136 134 154 129 125 155 135 130 163 149 142 139 129 121 136 129 119 145 139 129 
143 130 122 143 127 120 143 127 121 136 121 115 87 73 68 27 15 11 72 60 57 106 96 92 
125 116 112 88 81 76 62 56 51 43 37 32 28 24 16 21 18 10 19 15 7 15 11 2 
12 8 1 20 15 9 71 66 55 111 105 92 129 123 109 89 83 67 64 57 41 46 39 24 
29 27 10 31 29 8 37 34 10 36 35 10 58 56 30 93 90 64 145 144 118 123 121 97 
77 74 53 27 25 11 85 83 67 142 138 120 113 110 93 88 84 68 64 60 45 42 39 24 
33 29 15 34 30 18 53 50 39 81 77 66 107 103 92 127 123 112 68 64 54 17 12 5 
8 3 2 6 1 1 16 11 11 45 40 40 57 52 52 48 43 43 9 5 5 10 5 5 
13 8 8 12 7 7 
16 10 10 13 8 8 49 45 44 62 59 58 57 54 53 17 14 14 4 1 1 7 3 2 
8 4 3 9 4 4 10 5 5 11 6 4 10 6 3 14 10 7 40 34 31 68 62 59 
98 91 88 124 117 114 116 108 106 92 84 82 69 62 58 41 34 30 17 9 6 13 5 2 
11 3 0 19 11 8 57 51 41 82 76 65 104 98 86 128 122 110 138 131 120 134 126 116 
105 96 85 89 79 70 76 64 56 59 46 37 62 47 39 66 50 42 63 44 37 111 90 83 
149 126 121 142 118 113 107 82 77 74 48 43 59 32 28 53 24 20 57 28 24 80 51 48 
86 56 53 89 64 60 96 85 78 67 59 51 43 37 28 36 32 22 52 50 40 79 79 68 
116 119 106 141 144 132 113 116 106 10 12 8 48 48 40 96 94 84 140 137 127 106 100 91 
75 67 59 55 46 38 27 19 14 20 13 8 38 33 24 50 48 38 81 81 70 132 134 122 
116 119 107 73 75 66 3 2 1 34 33 27 55 53 44 66 62 53 125 119 112 134 126 120 
95 86 78 38 28 25 20 7 5 36 19 15 47 26 24 49 26 25 45 20 18 44 17 17 
44 15 15 44 15 14 48 17 18 50 18 19 50 18 18 49 17 18 49 17 18 50 18 18 
53 21 22 51 21 24 46 19 24 45 18 23 42 17 21 39 15 19 36 13 16 31 11 14 
27 9 11 23 7 8 20 6 7 17 5 5 14 4 4 25 16 15 41 34 32 57 50 48 
49 43 41 30 25 23 11 7 5 9 5 3 12 8 6 10 6 3 7 3 1 24 20 19 
110 106 104 131 127 121 121 116 108 88 82 76 74 69 62 72 67 59 82 77 70 103 98 91 
118 113 106 108 103 96 79 73 66 47 42 35 24 19 14 28 22 16 43 38 30 70 64 58 
104 99 92 133 128 120 147 141 135 133 128 121 95 89 83 17 12 11 62 57 52 116 111 103 
146 140 134 136 128 121 123 113 105 115 105 97 115 106 98 122 113 105 139 129 122 143 134 126 
123 114 107 68 59 53 50 41 35 33 24 20 12 3 2 92 83 78 139 129 121 128 118 110 
84 75 67 51 41 34 33 24 16 34 25 17 72 62 54 151 141 133 137 127 119 113 103 95 
81 72 64 50 40 32 32 21 13 27 16 7 42 31 24 80 68 61 137 125 118 151 137 131 
126 111 105 64 48 43 60 42 39 49 30 28 34 13 12 41 16 16 46 18 18 49 18 20 
52 18 21 55 18 23 58 18 24 59 17 25 61 17 26 63 17 26 64 16 26 65 16 26 
65 16 26 58 18 24 56 19 24 56 19 24 56 19 24 57 18 23 57 17 23 58 17 23 
59 17 23 59 16 23 58 16 22 57 16 22 57 16 22 53 15 20 51 15 19 49 15 19 
47 16 19 43 16 18 40 16 16 35 15 14 30 12 11 25 10 8 20 7 5 17 5 2 
14 4 1 12 5 4 33 27 27 58 52 52 67 62 62 36 32 32 5 2 1 11 8 7 
9 6 5 6 3 2 4 3 1 38 37 34 83 82 78 131 129 125 124 121 117 104 100 96 
83 79 75 43 37 35 13 5 4 9 2 1 13 3 2 18 6 4 22 10 7 30 19 16 
46 34 28 73 63 48 102 92 77 126 116 102 142 134 117 97 89 75 65 59 46 71 65 50 
64 59 43 60 56 39 64 60 42 64 61 45 75 74 58 104 102 83 145 143 125 147 144 127 
97 94 75 73 69 52 51 46 30 27 21 6 63 55 40 88 80 64 99 91 74 124 115 99 
120 112 100 87 78 71 62 52 46 69 60 54 111 102 95 110 99 92 111 99 92 115 100 94 
109 89 84 87 62 59 52 23 20 55 18 15 59 16 13 63 15 13 68 16 14 73 18 16 
77 21 19 76 20 18 72 18 15 66 16 11 61 13 6 56 12 4 51 11 3 51 12 3 
57 26 10 69 48 22 86 65 38 111 90 60 139 117 83 147 123 89 142 118 81 130 105 65 
114 88 47 93 66 29 79 50 17 107 77 36 113 83 39 111 81 36 121 92 45 135 106 59 
150 120 73 155 127 79 159 132 84 160 134 88 157 130 85 146 120 75 129 103 60 102 77 36 
81 55 24 64 38 17 53 28 11 42 20 5 33 14 3 31 14 7 30 15 12 28 15 16 
25 13 17 21 9 15 16 5 11 14 2 7 14 1 4 18 4 6 30 16 15 52 39 36 
64 53 48 50 40 34 25 18 14 7 3 0 9 6 1 7 8 2 4 7 2 1 4 0 
69 71 64 121 122 113 121 122 114 84 84 76 50 49 41 29 27 20 14 10 7 6 1 0 
10 3 0 15 8 3 19 12 6 23 15 11 25 16 11 27 18 12 32 21 17 41 32 27 
64 56 50 102 94 89 136 129 123 148 141 134 131 124 119 49 44 42 32 27 25 90 85 79 
135 125 118 135 121 114 86 72 65 77 64 57 80 67 60 94 80 73 105 90 83 119 104 97 
138 121 114 96 76 71 75 51 47 70 44 41 46 18 17 43 14 13 59 27 26 82 49 48 
117 86 84 158 130 128 141 117 113 127 108 102 115 100 93 80 70 61 75 68 58 91 84 74 
103 89 81 125 107 101 148 130 124 142 125 120 96 80 75 39 24 20 69 57 53 91 80 77 
106 96 93 108 99 96 99 91 88 81 74 70 43 38 32 26 21 15 19 14 7 12 7 2 
9 4 0 19 14 10 75 70 58 120 114 99 142 135 120 104 98 81 81 74 56 67 59 41 
62 58 33 70 67 39 77 74 45 62 60 32 72 69 41 97 94 66 147 145 117 116 113 87 
62 59 38 18 15 7 83 79 66 148 143 124 134 131 112 109 104 88 79 73 59 46 41 27 
38 33 20 46 40 29 75 70 59 105 100 90 129 123 114 138 133 124 79 73 65 25 19 13 
7 3 2 4 0 0 14 10 10 42 37 37 53 48 48 45 41 40 8 4 4 8 4 4 
10 6 5 9 4 4 
15 9 9 14 8 8 49 45 44 62 59 58 57 54 53 17 14 14 5 2 2 8 4 4 
9 5 4 9 5 4 9 4 4 9 4 3 8 4 2 13 9 7 47 41 38 79 73 70 
109 102 100 125 118 116 111 103 101 84 76 74 56 49 45 35 28 24 21 13 9 18 9 5 
17 8 5 24 15 11 49 42 32 65 58 47 85 78 67 127 119 108 140 132 121 139 130 119 
121 112 101 113 102 92 102 90 80 78 63 54 85 69 61 100 82 74 109 89 82 134 111 105 
149 124 118 134 108 103 92 65 60 58 29 25 53 23 19 49 18 15 61 28 26 101 68 65 
114 81 78 122 95 91 128 119 111 89 82 73 56 51 42 46 44 34 58 58 47 79 81 70 
111 115 102 133 138 125 106 111 100 9 12 8 52 55 46 103 104 92 146 144 133 109 105 96 
78 73 64 62 55 46 29 24 17 21 17 11 44 42 32 51 51 40 79 81 69 131 136 123 
111 117 104 68 73 63 1 3 1 31 32 25 54 54 44 71 68 58 126 121 112 132 125 118 
94 86 78 40 30 25 21 8 4 32 15 10 42 22 19 46 24 21 45 21 18 44 18 16 
43 16 15 44 15 13 47 17 16 48 18 18 49 18 17 48 17 17 49 17 17 50 19 18 
53 22 22 51 22 24 45 20 24 43 19 23 41 17 21 38 15 19 34 13 16 30 10 13 
26 9 10 23 7 8 20 6 6 17 5 5 14 4 4 25 16 15 42 34 33 63 56 54 
54 47 45 32 26 24 12 7 6 10 5 3 13 8 6 12 7 4 9 4 2 27 21 20 
113 108 106 131 125 121 117 111 105 84 78 73 69 64 58 64 58 52 64 59 53 97 91 85 
126 121 114 122 116 111 101 96 90 72 66 60 35 29 23 35 29 23 48 43 36 71 66 60 
105 100 94 134 128 122 145 139 134 131 126 120 94 88 83 18 13 11 61 55 51 113 107 101 
143 138 132 126 117 111 109 97 90 105 93 86 103 91 84 110 98 91 128 116 109 139 127 120 
130 119 112 94 83 76 71 59 52 45 33 28 13 3 2 95 84 80 142 130 123 128 117 110 
84 73 65 54 42 35 43 31 24 38 26 19 70 58 51 144 132 125 133 121 114 116 105 97 
97 85 78 53 40 33 32 19 11 35 22 14 54 41 34 88 75 68 136 122 116 148 132 126 
118 102 96 54 36 31 56 36 33 51 29 27 41 16 15 44 18 17 48 19 19 52 19 21 
55 19 23 58 18 24 59 17 24 60 17 25 63 17 26 66 17 27 66 17 27 67 16 26 
66 15 25 58 18 24 56 19 23 56 18 23 56 18 23 57 17 23 58 17 23 58 16 22 
59 16 22 59 16 22 58 16 22 58 16 22 57 15 21 55 15 21 53 15 20 51 16 20 
47 16 19 43 15 17 39 14 15 34 14 13 30 12 11 25 9 8 21 8 5 18 6 3 
15 4 2 9 3 2 31 25 25 56 50 50 67 62 62 36 32 32 5 2 2 11 8 7 
11 8 7 9 6 4 7 5 2 39 38 35 83 82 78 133 131 127 127 124 120 107 103 99 
89 85 81 43 37 35 8 1 0 9 2 0 13 3 1 17 6 3 21 10 7 27 15 12 
38 26 20 57 47 32 90 80 64 121 111 95 146 137 120 126 118 101 108 101 84 104 98 79 
89 84 66 80 76 58 82 78 59 88 84 66 101 97 79 123 120 101 141 137 119 131 127 109 
85 80 61 66 61 43 51 45 28 39 31 14 83 74 57 115 105 89 132 122 105 120 109 93 
102 90 79 79 66 62 51 38 34 54 41 37 88 76 71 100 87 82 119 105 100 144 128 122 
117 98 92 92 68 62 67 38 33 51 19 16 48 11 8 57 13 8 63 15 10 67 17 12 
71 19 14 70 18 12 66 16 10 62 15 7 59 14 5 55 13 3 50 12 3 53 16 4 
64 34 13 83 64 28 113 94 56 135 115 76 149 129 89 151 128 88 135 112 71 113 88 47 
107 82 40 91 63 26 76 46 13 103 73 32 117 86 42 123 92 48 128 97 52 139 109 62 
152 123 75 163 134 87 168 140 93 168 141 95 163 137 91 152 126 81 136 111 66 115 90 47 
95 69 37 77 51 30 63 38 19 48 26 10 35 16 3 30 13 5 28 14 10 27 15 15 
26 13 17 21 10 15 17 6 12 15 3 7 14 1 5 18 4 6 30 16 16 52 39 36 
64 53 48 50 40 34 25 18 14 7 3 0 9 6 1 7 8 2 4 7 2 1 4 0 
70 72 66 123 123 115 121 120 113 84 83 76 51 50 42 33 30 24 20 15 11 14 7 5 
19 11 8 22 14 10 25 16 12 28 18 14 28 18 14 28 18 14 31 20 17 41 30 26 
66 56 52 110 100 97 143 134 130 152 144 139 131 124 120 52 46 42 34 28 25 90 83 78 
140 126 120 140 121 115 85 67 61 76 58 52 72 55 49 74 57 51 100 84 78 121 106 99 
138 122 115 114 95 89 97 75 70 86 62 58 49 23 20 45 17 15 69 38 36 89 58 57 
119 90 88 152 126 123 125 102 98 101 82 77 78 64 57 51 40 32 46 38 29 57 49 40 
71 55 48 105 86 81 147 128 123 145 127 122 104 87 83 51 35 32 64 51 48 72 60 58 
81 69 68 112 103 101 122 113 112 112 104 102 64 58 53 41 36 30 32 26 19 21 15 10 
15 9 4 22 16 10 76 69 57 118 111 96 140 132 117 105 97 80 85 76 59 76 67 48 
84 80 51 94 92 60 97 94 62 73 70 39 75 72 42 96 93 64 146 143 115 117 113 86 
66 62 39 23 19 8 84 80 65 147 142 122 138 133 114 116 111 95 88 82 67 50 45 31 
45 39 27 58 52 41 92 86 76 118 112 103 133 127 119 131 125 117 74 67 60 24 17 13 
6 2 2 3 0 0 13 10 10 41 37 37 53 49 49 46 41 41 9 5 5 10 6 6 
14 9 9 13 9 8 
21 15 15 22 16 16 51 47 47 62 59 58 56 53 52 17 14 14 5 3 2 9 6 5 
10 5 5 9 4 4 8 3 3 7 2 1 5 1 0 12 8 8 62 56 54 96 90 87 
119 113 110 127 119 117 107 99 97 77 69 67 47 40 35 31 24 19 23 15 11 23 14 10 
24 16 12 28 20 15 39 32 22 49 42 31 68 61 50 116 108 97 130 121 110 130 120 109 
122 111 100 120 107 97 114 100 91 96 80 72 109 91 83 130 109 102 150 127 121 149 124 118 
138 111 106 118 90 86 78 48 44 49 17 14 48 16 12 42 9 6 54 20 19 103 67 65 
124 88 86 135 106 103 136 127 119 102 96 87 75 71 62 70 70 59 77 79 67 88 93 80 
102 109 95 116 123 109 90 97 85 9 14 7 62 66 55 114 117 104 151 150 139 113 111 101 
83 79 69 68 63 53 34 30 20 26 24 13 49 49 38 53 56 44 80 84 71 131 138 125 
110 118 104 68 75 64 6 10 5 33 35 26 56 57 46 77 76 65 125 121 111 130 124 115 
96 88 79 47 37 29 26 13 7 29 14 8 38 20 15 44 22 18 46 22 19 44 19 16 
43 17 14 43 15 13 46 17 15 47 18 16 48 18 17 47 17 16 48 17 16 50 19 17 
53 22 21 50 23 23 45 21 25 43 19 23 40 17 21 37 15 19 33 12 15 29 10 12 
25 9 10 22 7 8 19 6 6 17 5 5 15 5 4 24 15 14 41 33 32 70 63 61 
59 52 51 32 25 24 13 7 6 11 5 3 15 8 6 14 7 5 11 5 3 28 22 20 
115 107 106 125 118 115 105 100 95 80 74 69 68 62 57 61 55 50 52 47 42 86 80 75 
121 115 110 126 120 115 116 111 106 94 88 83 48 42 37 46 40 35 58 52 47 75 70 64 
107 101 96 133 128 122 142 137 131 130 124 119 94 88 84 20 14 12 61 55 51 111 106 101 
141 135 130 120 109 103 100 86 80 100 86 79 93 80 73 96 82 76 115 101 94 125 111 105 
125 112 105 112 98 91 84 70 63 51 38 33 15 4 3 99 87 83 147 133 127 131 117 111 
96 82 75 73 60 53 68 54 48 56 42 36 74 60 54 127 114 107 116 102 95 105 91 85 
98 85 78 55 40 33 39 24 17 53 38 31 75 59 53 100 84 79 128 112 107 133 117 112 
104 86 81 44 24 20 51 29 26 50 25 24 42 16 16 45 18 18 49 20 20 54 21 22 
57 20 25 59 19 25 60 17 24 62 17 25 64 17 27 68 18 29 68 17 28 68 16 27 
67 14 25 58 17 23 55 18 23 56 17 23 56 17 23 57 17 23 58 17 23 58 16 22 
58 15 22 58 15 22 58 15 22 58 15 21 57 15 21 57 16 22 55 16 21 52 16 20 
48 16 19 43 14 17 38 13 14 33 12 12 29 11 10 25 9 7 21 8 5 19 7 4 
15 5 2 7 1 1 28 23 22 55 48 48 66 61 61 36 32 32 5 2 2 12 8 8 
12 9 8 10 8 6 8 7 4 39 38 35 83 81 78 133 131 127 128 125 120 109 105 101 
90 86 83 44 39 37 9 2 1 10 3 0 14 5 2 19 8 5 23 11 8 25 14 11 
32 20 14 45 34 19 76 65 49 108 98 81 139 130 112 142 133 115 136 128 110 123 116 97 
110 103 85 101 96 77 100 95 75 104 99 80 113 108 89 128 124 104 121 116 97 102 96 78 
70 64 45 63 57 39 59 51 33 54 45 27 99 89 72 136 125 108 160 148 130 106 93 78 
74 60 50 68 52 50 48 32 31 47 31 29 66 51 47 90 75 71 122 107 102 159 144 137 
117 99 92 94 72 64 86 59 52 47 21 18 36 5 1 49 8 3 55 12 5 59 13 7 
62 14 7 61 13 5 60 13 4 58 14 4 60 17 6 59 19 8 57 20 10 63 28 14 
75 48 22 95 77 35 131 113 69 152 133 88 160 141 96 156 136 90 129 106 63 94 70 31 
101 75 33 95 67 27 85 55 19 97 66 26 117 85 42 136 104 60 134 102 58 141 110 64 
152 122 76 169 139 93 175 146 100 176 147 101 171 144 97 159 133 87 144 119 74 132 107 62 
112 86 52 90 64 42 72 47 28 53 31 15 36 18 4 29 12 3 27 12 8 26 13 14 
26 14 17 22 11 16 18 7 13 16 4 8 14 2 5 18 4 6 30 16 16 52 39 37 
64 53 49 50 40 34 25 18 14 7 3 0 9 6 1 7 8 2 4 7 2 1 4 0 
72 72 67 123 123 116 119 117 111 81 79 73 49 46 40 34 30 25 24 18 14 21 14 10 
29 20 16 29 20 16 29 19 16 29 17 14 29 17 15 29 18 15 30 19 16 41 30 27 
69 58 55 118 107 104 147 137 134 153 144 141 132 124 120 55 48 43 37 30 26 89 82 78 
139 121 117 140 116 112 87 64 60 82 61 56 73 53 48 59 40 35 94 78 72 114 99 92 
121 105 98 120 102 96 112 92 87 98 76 72 64 38 35 59 31 29 77 49 47 97 69 67 
123 97 94 150 126 122 111 89 85 78 59 54 51 36 29 41 29 21 36 26 18 37 28 19 
46 29 23 87 66 62 142 121 117 146 128 123 114 96 92 65 48 45 62 46 44 54 40 39 
54 41 41 103 93 92 127 118 117 129 121 119 89 82 78 69 63 57 59 53 46 46 40 31 
34 28 19 35 28 18 80 72 60 116 107 93 134 125 110 100 91 74 83 74 56 80 71 51 
100 96 65 109 106 72 105 102 69 76 73 41 76 73 41 96 93 62 145 141 112 123 118 91 
78 74 49 33 29 11 82 77 58 133 128 107 128 122 103 118 112 95 99 94 78 65 58 46 
63 57 46 77 71 61 109 102 93 122 115 108 124 117 111 110 103 97 60 53 48 19 12 9 
6 2 1 4 0 0 14 10 10 43 38 38 56 51 51 48 44 44 12 7 7 15 10 10 
20 15 15 21 16 16 
32 27 27 38 33 32 57 53 52 63 60 59 56 53 52 17 14 14 5 2 2 9 5 4 
10 5 5 9 5 5 9 4 4 7 3 1 6 2 0 18 13 13 95 90 87 120 114 111 
121 115 112 124 117 115 94 86 84 54 47 44 32 24 20 23 16 12 22 15 10 25 17 13 
28 19 15 29 21 16 25 19 9 28 21 10 34 27 16 45 38 27 48 39 29 58 48 38 
95 82 73 112 98 88 123 108 99 132 115 107 133 113 106 128 106 100 116 92 87 97 71 66 
81 52 48 73 43 39 62 30 27 55 21 18 58 23 20 50 14 12 55 18 17 90 52 51 
105 66 65 111 80 78 109 102 93 113 110 100 121 119 108 131 133 121 131 136 123 121 128 114 
97 106 91 83 92 77 57 66 52 13 22 9 54 61 48 100 105 92 143 145 133 109 110 99 
80 79 68 63 61 50 34 33 22 26 26 15 43 46 33 54 58 45 83 90 76 133 143 128 
116 128 112 84 94 80 37 42 30 51 54 42 66 68 56 83 84 72 122 120 109 127 122 112 
100 93 83 65 56 47 46 33 25 38 23 17 44 26 20 46 26 21 46 23 19 44 20 16 
43 18 15 44 16 13 46 17 15 47 18 16 47 18 16 46 17 15 47 18 15 48 19 17 
52 23 20 49 23 23 44 21 25 42 19 23 39 17 21 36 15 18 31 12 15 28 10 12 
24 8 9 21 6 7 18 6 6 17 5 5 15 5 4 21 12 11 35 27 26 69 61 60 
60 52 51 32 25 24 14 6 6 12 4 3 16 8 7 14 6 5 10 3 2 25 19 18 
106 97 97 126 118 116 116 110 106 84 78 74 57 50 47 34 28 25 20 14 13 37 32 29 
65 58 55 89 83 80 109 103 100 115 109 106 90 84 80 77 71 67 73 66 63 81 75 72 
108 101 98 130 124 121 137 131 128 128 122 118 96 89 86 26 19 17 64 58 55 112 106 102 
139 133 130 116 105 100 92 77 71 80 65 59 54 39 34 49 34 29 80 65 60 103 88 82 
123 109 103 141 126 120 107 92 86 66 51 45 24 9 4 105 90 85 154 139 133 146 131 125 
142 127 121 139 125 119 140 125 119 125 111 105 121 106 100 129 115 109 101 86 80 78 63 57 
62 47 41 66 50 44 77 61 54 95 79 72 114 98 93 125 108 103 127 109 104 122 103 99 
90 70 66 35 13 10 44 20 18 45 19 19 41 13 13 45 17 17 50 20 21 56 21 24 
59 21 26 61 19 25 62 17 24 62 16 25 65 17 27 69 19 29 70 18 29 69 16 27 
67 14 25 58 16 23 54 17 22 55 17 22 55 17 22 56 16 22 58 16 22 58 15 21 
58 15 21 59 14 21 59 14 21 58 14 21 57 14 20 58 17 23 56 17 22 52 16 20 
48 15 19 43 13 16 37 11 13 32 11 11 28 10 9 24 8 7 21 8 6 19 8 5 
15 7 3 7 2 1 29 23 23 55 49 49 67 62 62 36 32 32 5 2 1 10 7 6 
10 7 6 8 5 4 4 3 1 34 33 31 75 74 70 122 120 115 119 116 112 101 97 93 
79 75 71 44 38 35 16 8 7 9 2 1 13 4 2 19 8 5 24 13 10 27 15 12 
30 18 11 35 24 8 45 33 16 58 47 29 77 67 48 95 86 67 110 101 83 120 112 92 
123 116 97 124 118 98 123 117 97 120 114 95 111 105 86 92 87 66 79 74 54 69 62 44 
61 53 34 69 60 42 76 66 48 79 68 49 106 93 76 129 116 99 148 134 116 74 59 49 
34 18 13 33 14 14 29 9 9 29 10 9 33 15 12 53 36 33 95 78 74 157 141 134 
154 135 128 151 130 122 146 122 114 73 45 38 38 8 3 36 3 1 42 5 2 46 6 3 
50 6 3 52 6 3 55 10 3 59 17 5 71 30 17 85 47 31 100 65 47 115 81 62 
130 104 72 146 130 80 160 143 93 161 143 93 152 134 84 135 114 66 97 74 39 59 34 11 
83 55 19 108 79 36 131 102 58 138 106 62 147 115 70 156 124 79 157 123 80 162 130 86 
171 140 94 182 152 106 186 157 110 186 158 111 184 156 109 179 151 105 172 146 99 168 142 96 
137 111 75 100 75 51 80 55 34 56 35 17 36 17 3 27 10 2 24 10 6 25 12 12 
26 13 17 23 12 17 20 9 15 18 6 12 16 3 7 18 4 6 30 16 16 52 39 37 
64 53 49 50 40 34 25 18 14 7 3 0 9 6 1 7 8 2 4 7 2 1 4 0 
79 79 75 135 133 128 126 124 119 84 81 77 49 44 40 32 26 22 20 13 10 16 8 5 
23 14 11 24 14 12 25 14 13 26 14 13 28 15 14 29 17 16 31 19 18 41 29 28 
67 55 54 111 100 98 134 124 122 139 129 127 122 113 111 55 46 43 39 30 28 84 75 73 
137 116 114 145 118 115 104 77 75 89 65 61 64 43 40 30 11 9 44 27 22 55 39 33 
63 48 41 103 87 80 128 111 105 141 120 115 129 106 102 121 96 92 116 90 87 126 101 98 
143 119 115 161 137 133 108 87 82 66 48 42 35 20 13 41 29 21 36 26 17 26 16 7 
37 17 12 77 55 51 132 110 107 149 129 125 128 109 106 89 70 68 72 56 54 50 35 34 
32 20 19 61 52 50 79 70 69 94 85 84 123 116 113 131 124 120 127 120 114 116 110 102 
99 93 83 87 81 69 114 107 94 134 126 112 141 131 116 105 95 78 91 80 62 90 80 60 
110 105 73 113 109 75 107 103 69 89 86 51 94 90 56 112 108 75 147 142 112 128 123 94 
88 83 57 38 33 13 50 44 23 76 70 48 95 89 69 122 116 98 140 133 118 131 123 112 
132 124 114 135 127 118 136 128 122 117 109 103 94 86 81 73 65 60 42 34 30 18 10 8 
8 4 3 6 2 2 16 11 11 45 41 40 58 54 54 51 47 46 15 10 10 19 15 15 
26 21 21 28 23 23 
26 22 22 33 28 28 56 52 52 64 61 60 57 54 53 17 14 14 5 2 1 7 4 3 
9 4 4 10 5 5 10 6 5 9 5 3 8 4 2 20 15 14 94 88 85 111 105 102 
104 98 95 100 92 90 74 66 64 42 34 32 24 16 12 20 13 8 23 16 11 27 19 15 
30 21 17 30 21 16 23 17 7 23 16 4 24 16 5 24 16 5 26 17 6 39 28 18 
80 66 57 97 83 74 110 95 86 127 109 101 128 108 101 121 99 93 105 80 74 77 49 45 
55 25 21 50 19 15 55 21 18 59 24 22 60 24 22 55 17 16 59 20 19 82 42 42 
89 49 48 89 57 55 81 75 66 104 103 92 123 124 112 128 132 119 129 135 121 117 126 112 
89 99 84 74 84 69 62 73 58 52 63 48 72 81 66 97 103 89 123 127 114 97 99 87 
73 74 62 58 58 46 39 40 28 33 35 23 42 46 34 56 62 49 84 92 78 126 138 123 
112 125 109 93 104 88 72 77 63 72 76 63 78 81 68 90 91 78 119 118 106 123 119 109 
103 97 87 82 73 64 64 52 44 51 35 29 54 36 30 52 32 27 46 24 19 44 21 17 
43 18 15 43 16 13 45 18 15 46 18 15 47 18 15 46 17 14 46 17 15 48 19 16 
51 22 20 49 23 23 43 21 25 41 19 23 38 17 20 34 15 18 31 12 14 27 10 12 
24 8 9 20 6 7 18 6 6 17 5 5 15 5 4 20 11 11 34 26 25 69 61 60 
59 51 50 32 24 23 15 7 6 13 5 4 16 7 6 13 5 4 9 2 2 23 16 16 
94 85 85 111 103 101 100 94 91 69 62 60 41 35 32 20 13 11 12 7 5 23 17 15 
41 34 32 66 59 56 90 84 81 104 97 95 90 83 81 78 72 69 71 64 61 72 65 63 
93 86 83 112 105 103 117 111 108 111 104 101 84 77 75 21 16 14 55 49 47 97 91 88 
123 117 114 103 91 87 81 65 60 70 54 49 39 24 20 32 17 13 68 52 47 86 70 65 
108 92 87 139 124 118 104 88 82 63 47 42 26 10 5 93 77 72 133 117 112 125 109 104 
134 119 113 138 122 117 132 117 111 126 110 104 118 102 96 109 94 88 86 70 65 65 49 43 
46 30 25 59 42 36 75 58 51 93 76 70 113 96 91 118 100 95 107 88 83 101 81 77 
73 53 49 27 6 4 37 14 13 44 19 18 47 20 20 48 18 19 52 19 21 57 22 24 
60 21 26 62 19 26 62 17 24 63 16 25 66 17 27 70 19 30 71 18 29 70 16 27 
67 14 24 57 16 22 54 17 22 54 16 21 54 16 21 55 16 21 57 15 21 57 14 21 
58 14 20 59 14 20 59 14 20 58 14 20 57 14 20 59 17 23 57 18 23 52 16 21 
48 15 18 42 13 15 36 10 12 31 10 9 27 9 8 23 8 6 21 8 6 19 9 5 
16 8 4 7 2 1 30 24 24 57 51 51 68 63 63 37 33 33 4 1 1 9 6 5 
8 5 4 5 2 2 2 1 0 29 28 26 65 64 60 102 100 96 97 94 90 81 77 74 
64 60 56 38 32 29 17 9 8 9 2 1 12 3 1 19 7 4 26 14 11 28 16 13 
32 20 14 41 29 13 46 34 17 53 41 23 63 53 34 85 76 57 104 95 76 113 105 85 
119 111 92 122 115 96 122 116 95 118 112 91 107 101 81 89 84 63 80 73 53 72 65 45 
67 59 39 73 63 45 82 70 52 92 80 61 101 88 70 114 100 82 132 117 99 66 50 38 
31 13 7 33 11 13 29 6 8 30 8 8 37 16 14 51 32 29 83 66 62 134 118 111 
142 124 116 147 127 119 148 125 117 97 70 62 77 47 40 83 51 47 88 52 47 92 53 47 
94 52 46 93 49 42 91 48 38 89 49 34 96 57 40 106 69 50 118 84 63 131 98 76 
142 117 82 153 137 84 163 147 93 155 137 85 134 116 65 117 97 48 94 71 32 74 49 19 
91 63 23 117 87 43 144 114 69 152 120 75 156 124 79 159 126 83 163 129 86 170 137 94 
179 147 102 188 157 112 191 161 115 191 162 116 191 162 116 189 161 115 187 160 113 185 158 111 
149 123 87 107 82 57 84 60 38 58 36 18 35 16 2 25 8 1 22 8 5 23 11 10 
25 13 16 24 13 18 22 11 17 21 9 15 17 4 8 18 4 6 30 16 16 52 39 37 
64 53 49 50 40 34 25 18 14 7 3 0 9 6 1 7 8 1 4 8 1 1 4 0 
64 64 60 111 109 104 107 104 100 71 67 63 41 36 32 28 21 19 18 10 8 14 5 3 
22 12 10 26 15 13 29 17 16 32 19 18 28 15 15 27 14 14 30 17 17 39 26 25 
60 47 47 97 85 84 113 102 101 117 107 105 107 97 96 48 39 37 35 26 24 75 67 65 
120 98 96 129 99 97 99 70 68 77 51 48 54 30 27 28 8 5 33 16 11 40 24 18 
50 35 28 88 72 66 112 95 89 123 103 98 125 103 99 122 99 95 115 91 87 113 88 85 
123 98 95 138 115 111 102 81 77 64 45 40 28 12 5 36 24 16 38 27 19 35 24 16 
36 16 11 65 42 38 109 86 83 130 109 105 116 96 93 83 64 62 66 49 47 44 29 28 
25 12 11 41 30 29 56 46 45 74 65 65 109 101 99 125 117 114 129 122 117 127 120 112 
111 104 94 97 90 79 117 110 97 134 125 111 139 130 115 109 99 82 103 92 75 110 99 79 
132 127 94 131 127 91 121 117 81 110 106 70 110 106 71 117 113 80 132 127 96 120 115 85 
95 90 63 60 55 32 55 49 26 61 55 33 75 69 49 108 101 84 132 125 110 123 115 103 
123 115 105 125 117 109 125 116 110 100 91 86 72 63 59 49 40 37 30 21 19 16 8 7 
9 4 4 7 2 2 16 12 12 45 41 40 58 53 53 51 46 46 14 10 10 19 14 14 
26 21 21 28 23 23 
14 10 10 20 15 15 52 49 48 65 62 61 59 56 55 18 15 15 4 1 1 6 3 2 
9 4 4 11 6 6 12 8 7 11 7 5 11 7 4 19 15 12 70 64 62 81 75 72 
73 67 65 63 56 54 49 41 39 33 25 23 19 12 8 19 12 8 24 17 13 29 21 17 
31 22 19 31 22 18 28 20 11 26 18 8 26 17 7 26 17 7 30 20 10 42 29 20 
67 52 44 77 61 53 85 67 59 98 77 70 105 82 76 107 81 75 99 69 65 73 40 37 
51 15 13 45 9 6 56 18 17 65 25 24 62 22 21 61 20 19 65 23 22 76 34 33 
76 34 33 69 37 34 55 51 41 82 82 71 100 102 91 94 99 87 98 105 92 95 104 90 
79 90 75 78 88 74 84 95 80 99 110 95 97 107 92 94 103 89 94 100 87 76 80 67 
60 64 51 49 53 41 44 48 35 43 48 34 46 53 39 60 70 54 82 94 77 111 127 108 
100 116 97 97 110 93 104 110 95 94 99 84 91 95 81 94 99 84 113 116 102 116 118 104 
104 104 91 94 92 79 80 75 63 62 54 43 64 53 43 58 45 36 46 31 23 42 24 17 
41 20 14 41 17 13 44 18 14 45 18 15 47 18 16 46 16 15 46 17 15 47 18 17 
50 21 20 49 22 22 44 21 24 42 19 23 39 17 20 35 15 18 31 12 14 27 9 12 
23 8 9 20 6 8 18 6 7 16 5 6 14 4 5 21 12 12 36 28 27 68 61 60 
58 50 49 31 23 22 15 8 7 12 5 4 14 6 5 12 4 3 9 2 1 20 13 12 
75 67 66 82 75 73 68 62 60 44 38 35 24 18 15 12 6 3 16 10 7 23 16 13 
32 25 22 47 40 37 64 56 54 74 66 64 67 59 57 62 54 51 58 49 47 54 45 43 
68 60 57 82 74 71 86 78 76 83 75 72 64 55 53 16 8 7 42 33 31 75 66 63 
96 87 84 82 67 64 68 49 45 64 45 40 38 20 17 32 14 13 65 46 41 71 52 47 
86 66 61 117 98 93 86 67 62 55 34 30 31 11 6 75 54 49 99 79 74 88 68 63 
101 81 76 103 83 78 89 69 64 93 72 68 90 70 65 80 60 55 71 50 46 60 38 33 
44 23 18 50 27 21 60 35 30 74 50 44 92 69 64 94 71 67 80 56 52 77 53 49 
57 34 31 23 1 1 35 10 10 46 19 19 57 27 28 52 21 22 53 19 21 58 22 25 
61 21 27 62 20 26 62 17 24 64 16 25 67 18 27 71 20 30 72 19 29 70 17 27 
67 14 24 58 16 23 54 17 22 54 16 22 54 16 21 55 16 21 56 15 21 56 14 20 
57 13 20 58 13 20 58 13 20 57 13 20 57 14 21 59 18 24 57 18 24 53 17 22 
47 15 18 41 12 15 35 10 11 29 8 8 26 8 7 23 8 6 21 9 6 19 9 6 
16 8 5 8 2 1 30 25 24 58 52 52 69 64 64 37 33 33 5 1 1 8 4 4 
6 3 3 4 1 1 2 1 1 24 22 21 50 49 45 74 72 68 67 64 60 53 50 47 
45 42 38 29 23 20 14 8 6 9 2 1 12 3 1 18 7 3 25 14 11 30 18 15 
40 27 19 58 44 24 66 53 30 72 59 36 75 64 41 93 81 58 104 92 70 102 91 69 
104 93 72 106 96 74 108 99 76 105 96 73 103 94 71 102 93 70 100 90 67 94 84 61 
85 75 51 79 67 45 83 70 47 96 84 60 91 77 55 96 81 59 113 99 76 67 52 32 
43 25 13 44 20 23 36 12 13 38 16 14 52 32 28 62 42 38 78 60 54 100 84 77 
106 89 81 114 95 87 124 101 93 120 95 84 131 103 90 154 122 109 159 124 108 161 124 107 
161 122 104 153 113 94 143 104 83 132 95 72 127 90 67 125 89 66 125 92 67 130 98 73 
135 109 72 140 123 69 153 136 82 141 124 71 115 97 47 102 82 34 102 79 33 109 83 38 
110 83 38 124 94 49 142 111 67 152 121 76 156 124 79 158 124 81 163 129 86 172 139 94 
182 150 105 190 158 113 194 163 117 195 165 119 195 166 120 195 166 121 193 166 120 191 164 118 
153 127 91 108 84 59 86 62 40 59 37 19 34 16 2 24 7 1 22 7 3 23 10 8 
25 12 15 24 12 18 23 11 18 22 10 16 18 5 9 17 4 6 29 15 15 51 39 37 
64 53 50 50 40 35 25 18 15 7 2 0 10 6 1 7 8 1 5 7 1 2 4 1 
40 39 36 70 66 63 73 68 66 48 44 41 29 24 21 24 16 14 16 8 6 14 5 4 
22 11 11 28 17 16 33 21 21 38 25 25 29 16 16 25 12 12 28 15 15 34 20 20 
49 35 35 75 61 61 85 71 71 88 75 74 86 72 71 40 28 26 30 19 17 64 52 50 
95 68 67 102 67 66 84 50 49 60 29 27 47 18 15 43 15 11 44 20 15 49 27 22 
60 38 32 76 54 48 83 61 55 82 58 53 91 65 60 95 67 64 95 66 62 84 54 50 
88 58 55 103 73 69 94 67 63 68 42 38 32 9 3 38 17 11 46 27 21 55 36 29 
45 19 14 58 28 25 84 55 53 102 75 72 91 66 65 65 42 42 54 33 33 40 21 22 
27 11 12 33 18 19 45 33 32 61 50 49 71 62 60 84 76 72 96 88 82 100 93 85 
94 87 76 89 81 68 105 97 83 122 113 98 132 122 106 114 103 86 119 108 90 135 124 103 
159 154 117 155 151 110 142 138 97 133 129 89 125 120 82 117 112 75 112 106 70 108 102 68 
102 96 65 91 84 56 78 70 44 67 59 36 64 56 37 85 77 60 98 89 75 78 69 59 
77 68 60 81 73 66 89 80 75 72 63 59 50 42 39 32 24 22 22 14 12 15 8 6 
9 4 4 7 2 2 16 11 11 44 39 39 57 52 51 49 44 44 12 7 7 16 11 11 
22 17 17 24 19 18 
9 8 7 13 11 10 49 46 45 65 60 60 61 57 56 18 15 15 5 2 2 8 5 4 
11 8 7 13 9 8 13 9 8 12 8 7 10 7 6 11 8 6 21 16 16 23 18 18 
22 17 16 20 14 13 17 10 9 15 7 6 15 7 7 21 12 12 28 19 19 32 23 23 
33 24 24 33 24 23 33 22 17 32 20 14 31 18 12 28 15 10 28 13 8 31 12 8 
37 15 12 42 16 14 48 18 15 56 21 18 62 23 20 68 23 22 74 21 24 73 17 21 
73 14 19 74 16 19 78 19 23 80 22 26 78 23 26 73 21 23 68 19 20 65 18 17 
64 20 18 57 25 22 37 40 29 46 54 41 54 62 50 54 62 51 60 69 58 65 75 63 
67 76 65 84 93 82 96 106 94 99 110 97 92 103 91 76 87 75 48 60 46 34 48 32 
28 43 26 29 45 27 37 56 35 46 67 43 56 79 53 67 92 65 74 101 72 76 106 74 
83 113 81 97 120 93 119 128 109 108 119 100 99 114 93 91 113 88 91 117 89 92 122 91 
93 127 95 92 126 92 81 116 81 65 97 62 64 91 60 59 80 52 51 65 39 36 41 20 
30 27 11 32 20 9 36 18 11 41 17 14 46 17 18 48 15 19 49 15 21 49 15 22 
51 15 24 51 17 24 50 20 22 49 19 22 45 17 20 40 14 17 34 9 13 29 7 11 
26 7 11 24 7 11 20 6 11 15 4 9 10 2 6 19 13 16 36 31 33 60 55 56 
52 48 48 32 28 27 12 9 7 8 4 1 9 4 1 9 3 1 9 4 1 12 7 3 
25 18 16 24 19 18 18 16 14 14 10 9 11 7 4 10 5 1 13 6 3 16 7 5 
20 9 7 25 13 10 30 16 14 33 18 16 32 15 14 34 14 13 35 14 12 34 12 11 
36 16 14 38 19 18 39 20 19 40 19 18 38 16 14 31 7 3 38 14 9 47 22 16 
51 26 21 53 24 20 54 20 18 52 19 16 47 13 11 47 13 11 56 22 19 58 23 20 
61 25 23 68 32 29 62 25 22 57 20 16 56 18 14 63 24 19 65 26 21 61 21 17 
65 24 20 66 24 21 62 20 17 62 21 18 62 20 17 61 18 15 61 18 14 62 18 12 
62 19 11 72 20 14 75 20 15 71 18 14 71 21 18 69 21 18 66 19 15 64 19 17 
57 14 13 45 4 5 47 10 10 52 15 17 58 22 25 54 20 22 54 19 22 57 20 24 
59 20 25 60 20 26 62 20 26 65 19 25 68 20 25 70 20 26 71 19 25 72 19 24 
71 18 24 62 20 26 58 20 27 58 19 26 57 18 25 57 17 24 56 16 23 56 15 22 
57 14 22 57 14 22 57 14 22 56 14 22 56 15 22 57 18 25 56 20 26 53 20 25 
46 18 22 39 13 16 32 9 11 26 8 8 24 9 9 24 11 10 23 12 10 21 11 9 
16 9 6 7 5 2 26 24 21 50 48 45 62 58 57 36 30 30 7 1 1 11 3 5 
13 5 8 13 6 9 10 4 6 13 9 9 17 15 15 23 23 21 20 21 19 15 17 15 
13 15 11 10 11 7 9 8 4 11 8 3 14 8 3 15 7 3 13 4 3 34 22 19 
60 45 30 88 68 28 95 73 32 97 75 34 97 74 33 93 70 32 88 65 29 79 55 24 
76 53 23 78 54 24 83 60 27 88 64 30 97 75 39 114 93 56 120 99 61 122 102 62 
120 101 59 99 82 39 87 71 28 88 73 28 82 68 24 82 69 25 89 78 29 59 48 15 
37 24 6 24 6 6 34 16 5 41 23 6 45 28 10 59 41 25 64 47 33 62 44 35 
70 52 44 83 64 55 100 81 68 133 115 95 166 148 120 198 180 143 202 183 139 202 182 132 
199 178 124 187 164 110 176 151 98 165 138 88 153 124 79 144 113 73 136 105 68 136 103 69 
134 107 66 132 113 61 139 119 68 131 110 61 112 89 44 87 62 23 97 72 32 124 97 56 
128 98 57 135 105 63 145 114 72 154 122 78 160 128 81 166 133 83 169 137 86 176 143 92 
184 152 100 192 160 109 199 167 118 203 171 125 204 172 128 200 169 128 196 166 125 192 161 123 
146 119 86 96 74 46 84 62 36 58 37 19 34 14 2 30 11 2 28 10 4 27 10 8 
25 8 11 22 8 13 21 8 15 22 9 16 17 5 10 14 4 6 22 11 11 48 39 38 
65 56 54 49 41 36 24 17 15 7 2 1 12 5 3 10 4 2 9 3 2 10 3 5 
18 11 14 24 16 21 26 18 23 21 14 17 16 10 12 15 7 10 13 5 7 13 5 7 
16 8 10 21 12 13 25 16 17 29 19 20 28 17 17 27 15 14 28 14 13 29 12 12 
32 13 13 39 17 17 41 19 18 43 19 18 45 19 18 36 9 8 35 6 7 45 15 16 
62 20 19 70 21 20 68 17 17 65 13 13 64 11 11 67 12 12 69 14 13 71 15 14 
73 16 15 76 19 16 77 21 17 76 20 16 77 21 18 79 22 19 81 22 18 79 20 16 
81 21 17 86 24 20 85 23 20 81 19 17 76 14 13 80 18 17 83 21 21 87 24 24 
80 18 16 79 18 16 82 22 22 83 26 27 76 22 25 65 16 21 59 14 20 53 13 20 
47 13 19 41 12 15 41 16 16 41 22 19 32 18 16 38 26 19 47 36 23 36 28 21 
58 50 38 89 80 58 92 84 60 103 93 70 116 103 82 119 107 85 140 127 105 165 152 125 
178 173 116 176 172 108 168 162 99 156 150 87 138 131 70 120 110 52 105 93 40 108 94 44 
117 101 54 127 110 68 103 84 49 76 56 28 68 48 27 60 41 25 49 31 22 32 19 15 
28 17 15 27 18 16 29 20 19 23 16 16 17 12 12 15 12 9 16 14 11 16 14 11 
12 6 5 8 2 2 16 10 10 44 38 38 56 50 50 48 42 42 10 5 5 8 3 3 
10 4 4 11 5 5 
12 12 11 15 14 13 50 46 46 65 60 60 62 57 57 19 15 15 5 2 2 9 6 5 
12 9 8 13 10 9 12 10 8 11 9 7 9 7 6 8 6 4 7 4 3 7 3 3 
9 4 4 10 4 3 10 3 3 11 3 4 16 7 8 23 13 14 29 18 20 32 21 23 
32 21 23 32 21 22 35 22 18 35 20 16 34 18 15 33 16 13 32 13 11 33 11 9 
35 9 7 39 8 7 44 8 8 50 9 9 56 10 10 63 10 12 70 11 16 77 14 20 
83 17 24 86 19 25 87 21 27 86 22 28 82 23 27 77 21 24 71 19 21 67 18 18 
71 25 24 70 39 36 60 65 54 80 90 78 98 107 96 105 114 103 115 125 114 124 133 123 
130 140 129 152 161 151 163 173 163 159 170 159 152 164 152 137 149 137 110 124 111 92 108 93 
80 98 80 73 93 73 65 87 65 66 91 65 77 104 75 88 116 86 92 122 90 89 121 86 
99 132 97 112 137 108 127 136 117 116 129 109 106 124 101 96 123 95 90 122 91 89 127 92 
94 137 99 94 139 99 86 131 89 70 113 72 69 107 69 65 96 61 56 79 48 38 50 25 
29 31 13 29 22 9 35 18 11 41 17 15 45 16 18 48 15 20 50 14 23 51 15 25 
52 14 26 53 16 24 52 19 21 51 19 21 47 17 20 42 14 16 35 9 13 30 7 11 
27 6 11 25 7 12 20 6 12 14 4 10 9 1 6 18 12 16 35 30 33 55 52 53 
50 46 47 32 29 27 14 11 8 8 5 2 8 4 0 9 5 1 10 6 1 11 6 1 
11 4 1 7 4 1 5 4 2 6 4 2 8 5 2 10 6 2 14 6 4 17 7 5 
19 7 5 21 7 5 23 7 5 24 6 4 25 4 3 29 5 4 32 7 5 33 6 5 
32 6 5 32 6 4 33 6 5 35 7 5 38 9 6 42 13 8 44 14 9 45 14 9 
43 12 7 51 15 12 57 16 15 56 15 14 57 16 15 59 17 16 62 19 19 64 20 19 
64 20 19 64 20 18 66 20 18 69 22 19 73 26 22 70 22 18 68 19 14 68 18 14 
68 18 13 68 17 12 67 15 11 65 14 9 64 13 8 65 13 7 69 16 9 73 19 12 
77 23 15 87 25 19 87 23 18 78 16 11 72 13 9 69 13 9 69 15 11 66 15 13 
62 14 13 56 11 11 55 14 14 57 18 19 61 23 26 56 20 22 55 19 22 56 19 24 
58 20 25 61 20 26 63 20 26 66 20 25 68 20 24 70 20 24 71 20 24 73 19 24 
73 19 24 64 20 27 60 20 28 59 20 27 59 18 26 58 17 25 57 16 24 57 15 23 
57 15 23 57 14 23 57 15 23 57 15 23 56 16 23 57 18 26 56 20 27 54 21 27 
47 18 23 39 13 17 31 8 11 25 7 8 24 9 9 24 11 11 24 12 11 21 11 9 
16 8 6 7 6 2 24 24 20 48 46 43 60 57 55 35 30 29 8 1 2 12 3 6 
15 6 9 16 8 11 12 5 8 9 5 6 8 6 6 8 9 8 7 9 8 6 9 7 
5 9 4 7 10 4 10 11 5 13 11 5 16 10 5 16 8 3 12 3 1 39 28 23 
76 60 43 120 96 50 129 105 55 132 106 58 132 106 59 125 99 54 118 91 49 112 84 46 
113 85 49 118 90 54 127 99 60 134 107 67 144 118 77 159 133 91 163 138 95 163 139 94 
159 137 89 135 115 65 115 98 46 102 87 34 102 88 35 106 93 38 113 103 43 95 85 35 
86 75 36 88 73 49 110 94 65 123 107 76 127 111 84 136 119 97 134 116 99 121 103 92 
132 114 105 144 126 115 156 139 124 175 159 135 195 179 146 214 200 156 216 201 148 212 197 137 
204 188 123 186 167 102 170 149 87 157 133 75 147 120 68 140 110 64 135 103 63 135 101 64 
131 102 60 125 105 54 123 101 52 112 90 43 96 71 29 75 49 15 96 69 33 135 107 67 
138 108 68 145 114 73 153 121 79 160 128 83 166 134 85 172 140 88 175 143 90 181 149 95 
188 156 102 196 164 112 203 171 120 208 176 128 209 176 132 205 173 132 200 169 130 196 165 129 
146 120 87 92 71 43 83 61 36 58 37 19 34 14 2 32 12 2 30 11 5 29 9 9 
24 6 9 21 6 11 21 7 14 22 9 15 17 6 10 14 4 7 20 11 11 48 40 38 
65 58 55 49 42 37 24 18 15 8 2 1 13 6 5 12 3 3 10 2 3 14 4 7 
12 3 8 10 2 9 12 3 10 13 5 10 13 6 10 12 5 9 12 5 8 13 6 8 
15 8 10 19 11 13 23 15 16 27 18 18 31 20 20 34 21 20 34 18 18 34 15 15 
34 12 12 35 10 11 36 9 10 38 9 9 42 10 10 45 11 12 47 12 14 49 13 15 
62 13 14 70 13 14 72 14 16 75 15 17 78 17 18 82 19 20 85 20 20 87 20 20 
88 20 19 88 19 16 87 18 15 87 18 14 91 22 18 94 23 20 95 23 20 95 22 19 
95 21 18 94 21 17 92 19 16 92 19 17 94 19 19 96 20 21 97 21 22 98 22 23 
96 23 22 93 22 20 89 20 19 84 19 20 77 16 19 69 12 18 65 13 21 60 14 23 
55 15 23 46 13 16 42 14 14 40 18 14 36 19 13 50 36 24 70 58 40 71 62 47 
107 98 78 149 140 113 148 139 111 156 145 117 163 151 125 161 148 122 174 160 136 189 177 146 
193 188 124 192 187 115 187 181 110 176 170 99 161 153 84 146 134 69 134 120 58 136 119 61 
142 123 70 151 130 84 117 94 56 80 56 27 68 45 22 52 29 14 36 14 6 21 3 1 
16 1 2 14 2 3 13 3 5 11 3 5 9 4 5 10 8 5 14 14 10 16 14 11 
13 7 6 9 3 2 16 10 10 44 38 38 57 50 50 49 43 43 12 6 6 11 5 5 
14 8 7 15 9 9 
17 17 15 19 18 17 51 47 47 65 60 60 62 58 58 19 15 15 6 3 2 10 6 5 
11 8 7 11 10 8 10 10 8 9 9 7 8 7 5 7 6 4 9 6 5 11 7 6 
12 8 7 14 8 8 14 7 7 15 6 7 19 9 10 24 13 15 30 17 19 31 18 21 
30 17 19 30 16 17 35 19 17 37 19 16 37 18 16 37 17 15 39 17 15 41 16 14 
44 16 14 49 16 15 54 16 17 61 16 18 67 17 20 72 16 21 76 15 21 83 18 25 
89 21 29 90 22 28 90 23 29 88 24 29 82 22 26 77 21 24 74 21 23 74 25 25 
87 41 40 96 65 61 96 101 90 136 145 134 170 179 169 184 193 182 197 206 196 207 217 206 
212 222 211 230 240 230 239 248 239 231 242 231 226 237 226 218 229 218 203 217 204 180 195 181 
157 174 158 136 155 136 104 125 104 91 114 90 102 128 101 113 140 111 120 149 118 121 152 119 
129 160 127 133 157 129 133 142 125 124 136 118 116 133 112 109 134 109 99 130 101 95 133 99 
98 141 103 97 142 102 89 133 93 74 116 77 75 112 75 71 101 67 62 83 54 43 55 31 
33 36 17 31 23 10 36 20 12 41 17 15 45 15 17 48 15 20 51 15 23 53 16 25 
54 15 27 53 17 24 52 19 21 51 19 21 47 17 20 42 14 16 36 9 13 31 7 12 
27 6 11 25 7 12 20 6 12 14 4 10 9 1 6 17 11 15 33 28 31 54 50 52 
48 45 45 31 28 27 16 14 10 10 7 3 8 5 1 10 7 1 11 7 1 13 7 1 
13 7 1 10 7 2 8 8 4 8 8 4 10 7 4 12 7 4 16 8 6 19 10 8 
23 11 10 26 12 10 27 11 10 28 10 9 29 8 7 33 10 9 37 12 11 40 12 11 
40 12 10 41 12 9 43 12 10 45 13 11 47 16 13 51 19 16 52 20 17 52 20 17 
50 18 14 60 19 19 68 20 21 67 19 20 68 20 21 70 22 23 74 25 26 77 27 28 
78 28 28 79 28 28 81 29 28 83 30 29 86 32 30 85 30 27 85 29 26 87 30 26 
86 29 24 85 28 23 84 26 20 81 23 17 80 21 15 79 21 13 82 24 16 86 27 19 
90 29 22 97 33 27 97 31 26 88 24 20 81 20 16 78 20 16 77 22 19 74 22 20 
68 20 19 62 17 17 60 18 19 61 21 22 64 26 27 58 20 23 55 18 22 56 19 24 
59 19 25 62 20 25 63 20 25 66 20 24 68 20 24 71 19 24 72 20 24 73 19 23 
74 19 24 65 20 27 61 20 28 60 19 27 60 18 26 59 17 25 59 16 24 58 15 24 
58 15 23 58 15 23 58 15 23 58 16 23 57 16 24 57 19 26 56 20 27 54 21 26 
48 18 22 40 13 17 32 9 11 26 7 8 24 8 9 24 11 10 23 11 10 20 10 8 
15 8 5 6 6 1 24 24 20 48 47 43 61 58 55 36 30 29 8 2 2 11 3 6 
15 6 9 16 8 11 11 6 8 9 5 6 8 6 7 9 10 10 9 11 10 8 12 10 
7 11 6 9 13 7 12 14 7 15 13 6 17 12 5 18 10 4 15 5 1 45 33 27 
88 72 55 145 121 75 158 133 84 162 137 89 166 140 93 164 137 92 162 135 92 162 134 93 
169 141 101 179 151 111 189 162 122 198 171 130 204 177 136 207 181 139 206 180 137 201 176 131 
193 171 122 170 150 99 147 129 76 124 109 53 129 115 57 138 126 65 150 139 74 142 131 66 
149 137 76 174 159 108 201 186 138 219 203 162 227 211 179 230 213 188 224 206 188 209 191 179 
222 204 193 229 212 199 232 216 199 222 205 180 217 201 166 216 202 157 214 199 146 206 190 130 
191 176 110 169 150 85 150 128 67 134 111 54 128 101 49 126 96 50 128 94 54 128 94 56 
124 95 53 117 96 46 108 85 37 95 71 27 81 56 17 70 44 12 99 72 37 143 115 75 
145 115 75 152 121 79 161 129 85 167 134 88 172 139 90 176 144 92 180 148 94 186 153 99 
192 160 106 200 168 115 206 174 123 210 178 130 211 179 134 208 176 135 204 173 135 201 170 134 
149 123 90 92 71 43 83 61 36 58 37 19 35 15 2 32 12 2 31 11 6 28 9 9 
23 5 8 20 5 10 20 7 13 22 9 16 17 6 11 14 5 7 20 12 12 48 40 39 
66 58 56 49 42 38 24 18 16 8 2 1 14 7 6 12 4 4 11 2 4 15 5 8 
12 4 9 11 3 10 12 5 11 13 6 11 13 6 11 13 6 10 13 6 9 14 6 9 
16 8 11 20 12 14 24 16 16 28 18 18 35 23 23 39 25 25 40 23 24 40 21 21 
42 18 19 43 17 19 45 17 18 48 17 18 53 18 20 56 20 22 59 21 24 61 23 26 
74 20 25 81 20 25 83 21 26 84 22 26 87 23 26 91 26 28 95 27 29 98 28 30 
101 29 30 101 28 27 101 27 25 102 26 25 112 35 33 116 39 37 116 38 36 115 36 34 
113 33 32 110 31 30 105 27 26 102 25 24 100 23 23 99 23 23 99 22 22 99 23 22 
103 29 28 103 31 29 99 28 27 93 26 28 85 22 26 75 18 23 70 18 26 64 18 26 
58 16 24 49 15 17 46 18 16 48 25 19 56 39 26 86 72 54 122 110 88 142 132 106 
180 172 143 219 211 180 220 210 179 224 214 182 226 214 184 211 198 169 208 194 167 209 197 163 
204 198 133 203 198 125 200 195 122 192 186 113 184 175 105 176 165 97 171 157 92 168 152 91 
167 147 93 165 143 96 122 99 60 80 55 25 67 42 20 52 28 14 38 15 7 27 4 2 
22 3 5 20 5 8 19 8 10 16 7 9 13 7 8 10 9 6 13 12 9 15 13 10 
13 7 7 9 3 3 16 10 10 44 38 38 58 52 52 52 46 46 16 10 9 18 12 12 
24 18 18 27 20 20 
13 13 11 14 13 12 50 46 45 66 60 60 62 58 58 19 15 15 6 3 2 9 6 5 
11 9 7 10 10 8 9 9 7 8 9 6 7 8 5 6 7 4 8 7 6 10 9 7 
13 10 9 14 10 9 16 9 9 18 9 10 22 11 13 27 14 16 32 17 20 32 17 20 
31 14 18 31 13 16 37 15 15 39 16 15 40 17 15 41 17 15 44 18 16 47 19 18 
51 20 19 56 20 21 62 20 23 69 21 24 74 21 25 78 20 26 81 19 24 87 21 27 
92 23 30 92 24 30 93 25 31 90 25 31 84 23 26 79 22 24 76 22 24 76 27 27 
102 55 55 118 86 83 108 112 103 148 156 147 183 191 182 198 206 198 210 218 209 218 226 217 
222 230 221 234 242 234 238 247 239 231 240 231 228 238 229 222 233 223 210 223 213 194 208 196 
175 191 177 154 172 156 118 138 119 106 128 107 123 147 123 133 158 132 141 168 140 147 176 146 
153 182 151 153 176 150 150 157 142 143 153 138 138 154 136 135 158 136 117 146 120 107 142 112 
104 146 111 101 144 107 91 134 96 75 116 78 78 115 79 76 105 72 67 88 59 51 62 39 
40 42 24 35 27 15 38 21 14 40 16 14 44 14 15 49 15 20 52 16 23 55 16 25 
56 16 27 55 17 25 53 19 21 51 18 21 48 16 20 43 14 16 36 9 13 31 7 12 
27 6 11 25 7 12 21 6 12 15 5 11 10 2 7 18 12 15 33 28 30 54 51 52 
48 46 46 31 29 27 14 11 7 8 6 1 8 5 1 9 6 1 11 8 1 13 9 1 
12 7 1 11 9 4 10 12 7 10 10 6 10 9 5 11 7 5 15 9 7 20 11 10 
24 13 13 29 15 14 31 15 15 32 13 14 34 11 12 36 11 12 38 11 12 40 12 13 
42 12 13 43 12 12 44 12 12 46 13 14 48 15 16 51 17 18 51 18 18 51 17 17 
50 16 16 65 17 19 76 18 22 76 18 22 76 18 22 78 20 24 82 23 27 85 26 29 
88 28 30 90 29 31 92 30 31 93 31 31 95 31 31 96 31 31 97 31 30 96 30 28 
96 29 27 96 29 25 95 28 23 93 25 20 91 24 18 91 23 17 92 24 18 95 26 21 
99 29 24 103 36 31 102 36 31 94 29 25 87 25 22 83 25 21 81 26 23 77 25 23 
71 22 21 63 18 19 60 18 19 59 20 21 60 23 24 57 19 22 56 18 21 57 19 22 
60 19 24 62 20 24 65 20 24 67 20 24 70 20 24 72 20 24 73 19 23 74 19 22 
75 19 23 66 20 26 62 20 27 62 19 26 61 18 25 61 17 24 60 16 23 60 15 22 
60 15 22 60 15 22 60 15 23 59 16 23 58 17 23 58 19 25 57 21 26 54 21 25 
48 18 21 40 14 16 33 10 11 27 8 8 24 9 7 23 11 8 21 11 8 19 10 7 
15 8 4 5 6 1 23 25 20 48 47 43 61 58 55 36 31 29 8 1 2 11 2 5 
14 5 9 15 7 10 11 6 8 8 5 6 7 6 7 8 10 10 8 11 10 8 12 10 
8 13 8 10 13 7 11 13 6 13 11 5 15 10 3 16 8 2 15 5 1 47 35 29 
89 73 56 138 114 71 152 126 80 159 133 88 167 140 96 169 142 99 170 143 101 173 144 104 
181 152 112 191 162 122 201 171 132 207 178 138 211 182 142 211 184 143 206 180 137 200 175 129 
192 168 120 173 151 101 152 133 80 130 113 58 129 113 56 135 120 61 147 134 72 150 137 73 
162 149 88 185 172 119 201 187 139 216 202 160 230 214 181 235 218 193 235 217 198 227 210 196 
232 215 201 234 217 202 234 217 198 230 214 188 224 208 172 215 199 153 207 191 137 194 177 117 
177 159 94 158 138 73 143 121 59 131 106 49 123 96 43 119 88 41 116 82 41 117 82 44 
113 82 40 105 83 33 100 77 29 97 73 28 96 71 28 91 65 26 115 87 48 149 119 79 
150 120 79 157 125 83 165 133 88 169 137 90 173 141 91 177 145 93 182 149 95 187 155 100 
194 161 107 201 168 115 206 173 123 210 177 129 210 177 133 209 176 135 207 174 136 205 172 136 
151 124 91 92 71 44 84 62 38 60 39 20 37 17 3 34 14 4 32 12 7 28 9 9 
23 5 8 21 5 10 21 7 13 23 11 17 18 7 12 15 5 8 21 13 12 49 41 39 
66 60 57 50 44 39 24 19 16 7 3 2 15 8 6 12 6 5 11 4 4 15 6 9 
13 6 10 11 6 10 12 7 11 12 7 11 12 7 11 12 7 11 13 7 10 15 8 10 
17 10 12 21 14 15 26 17 17 30 19 19 31 18 18 32 17 17 34 15 16 36 14 14 
38 13 14 41 12 14 43 13 14 47 14 15 53 15 18 56 18 20 60 20 22 62 21 24 
74 19 24 81 18 24 82 18 23 83 19 22 85 20 23 89 22 24 93 24 26 97 26 28 
101 28 30 103 29 28 105 29 28 107 28 28 115 36 35 119 39 37 119 39 37 119 38 36 
117 36 34 114 33 32 111 30 29 108 28 27 106 26 26 104 25 25 103 24 24 103 25 24 
110 34 34 111 37 37 107 35 35 99 32 34 89 26 30 78 20 25 70 18 25 63 16 23 
55 14 19 47 12 13 48 19 15 56 33 23 71 53 37 109 95 74 153 142 116 174 163 134 
197 187 155 218 209 174 221 212 176 224 214 177 224 213 177 218 207 173 218 205 172 217 204 165 
207 201 133 203 198 124 200 194 120 193 186 112 186 176 105 179 167 98 170 156 90 166 149 87 
162 143 87 159 136 88 114 89 50 71 45 16 64 38 17 52 27 13 41 17 9 33 10 8 
30 10 12 29 12 16 27 14 17 22 12 15 17 9 11 12 9 7 13 10 7 14 11 8 
14 9 8 9 4 4 15 10 10 43 38 38 58 53 52 53 48 48 20 15 14 24 19 19 
31 26 25 33 28 28 
10 10 8 9 9 8 50 45 45 67 60 61 63 58 58 19 15 15 5 2 2 8 6 5 
9 8 7 9 9 7 8 9 7 7 9 6 5 8 5 4 6 3 5 7 4 8 8 6 
11 9 7 13 9 8 15 8 9 18 8 10 24 11 13 29 14 17 34 17 21 36 18 22 
36 15 20 36 13 18 42 14 15 44 15 16 45 17 16 47 18 17 50 20 19 53 21 20 
57 22 22 62 22 24 66 22 25 72 22 26 77 21 26 80 20 26 82 18 23 87 20 26 
91 22 29 93 24 31 95 27 33 93 28 34 87 25 29 80 22 24 75 21 22 73 24 24 
108 61 61 135 102 100 137 140 132 170 178 170 200 208 200 214 222 214 223 231 224 229 237 229 
230 238 230 237 245 238 237 245 239 226 234 227 223 232 225 219 229 222 215 226 217 206 219 209 
192 206 194 172 188 174 132 151 134 120 140 121 140 161 140 152 175 152 163 188 164 175 201 175 
179 206 179 181 202 179 183 189 177 178 187 174 172 186 171 165 187 167 141 169 146 124 158 130 
114 153 121 108 149 115 96 137 101 78 118 81 82 117 82 78 106 75 68 88 60 55 66 43 
45 47 29 37 30 17 38 21 14 40 16 13 44 13 14 50 16 20 55 17 24 58 18 27 
58 17 27 56 17 25 53 19 21 52 18 22 49 17 20 43 14 17 36 10 13 31 7 11 
27 6 11 25 7 12 21 7 12 15 5 10 10 2 6 19 13 16 36 31 33 57 53 54 
50 48 47 32 31 28 13 12 8 8 6 2 8 7 2 9 7 1 11 8 1 13 10 1 
12 8 1 11 10 4 11 12 8 9 10 6 8 8 4 9 6 4 13 8 6 18 10 10 
24 13 13 30 15 16 32 15 17 34 14 16 36 13 15 38 12 15 40 13 16 43 13 17 
44 12 16 46 12 16 48 13 17 50 14 19 52 16 20 54 18 22 55 19 23 55 18 22 
53 17 21 68 16 21 79 15 21 79 15 20 79 15 21 81 17 23 85 20 25 88 23 27 
91 25 29 94 26 30 95 27 30 97 28 30 98 28 30 101 30 31 103 30 31 102 29 29 
102 29 28 102 29 27 103 28 25 101 26 23 99 25 21 98 24 19 100 25 20 102 27 22 
106 29 25 105 36 31 102 36 32 94 30 26 88 27 23 83 25 22 81 26 24 76 24 22 
70 21 20 62 17 17 58 16 17 57 16 18 57 19 20 57 18 20 57 18 21 58 19 21 
60 19 23 63 20 23 65 20 23 68 20 24 70 20 24 73 19 24 73 19 22 75 19 22 
75 19 22 67 19 25 64 19 26 63 18 26 63 18 24 62 17 24 62 16 23 62 16 22 
62 16 22 62 16 23 62 16 23 61 17 23 59 17 23 60 20 25 58 21 25 54 20 24 
48 18 20 41 14 16 34 11 11 28 9 8 24 10 7 22 10 7 20 11 6 18 10 5 
14 9 4 5 5 1 23 25 20 47 48 43 61 58 55 36 31 29 8 2 2 10 3 4 
13 5 8 14 7 10 10 6 7 8 5 6 7 6 7 7 10 9 7 11 9 7 12 9 
7 13 7 9 12 6 10 11 5 10 9 3 12 8 2 14 6 1 12 3 0 47 35 30 
93 76 60 147 123 81 161 136 91 169 143 99 177 151 108 180 153 111 183 155 114 188 158 118 
196 166 126 204 174 134 211 182 142 215 185 146 216 187 147 214 186 145 208 182 138 202 177 131 
196 172 123 185 162 111 169 149 95 151 133 76 141 125 67 142 126 66 152 137 75 160 146 82 
173 159 99 191 178 126 202 189 140 215 201 158 230 215 180 239 222 194 242 224 203 239 222 205 
240 223 207 240 222 205 237 220 198 232 215 187 222 205 168 207 191 143 196 179 124 182 164 104 
166 147 82 156 134 69 145 121 58 134 108 49 122 94 40 114 83 35 109 74 32 108 72 33 
102 70 29 92 70 23 88 64 21 95 71 27 108 83 38 107 80 38 123 95 54 146 116 76 
150 119 78 157 125 82 165 132 87 171 137 91 174 140 91 176 143 91 181 148 94 187 154 100 
194 161 107 201 167 114 206 172 122 209 176 128 210 176 131 210 176 134 209 176 137 207 174 137 
151 124 92 91 70 44 84 62 38 61 40 21 40 19 4 35 15 5 32 13 8 29 10 10 
22 5 8 21 5 10 21 8 13 23 12 17 18 8 11 14 6 7 21 13 12 48 42 39 
66 61 56 49 44 39 23 19 16 7 3 2 13 8 6 11 6 5 10 4 5 13 6 9 
12 7 10 10 7 10 11 7 10 11 7 10 11 7 10 12 7 10 13 7 10 16 8 11 
18 11 12 22 14 14 26 16 16 30 18 18 31 16 16 32 14 15 34 13 14 36 12 14 
39 12 14 43 12 15 47 13 15 51 15 17 56 16 20 60 19 22 64 21 24 66 23 26 
78 20 26 84 19 26 85 18 25 85 19 24 87 20 24 92 23 25 96 26 28 101 29 31 
106 32 33 109 33 33 112 33 32 113 33 32 117 36 35 120 38 36 121 38 36 121 38 36 
120 37 35 118 35 33 116 33 31 113 31 29 111 29 28 110 28 27 109 27 26 108 27 26 
113 36 36 112 39 38 107 36 36 101 33 35 91 27 30 79 21 24 70 18 23 62 16 20 
55 14 16 51 16 13 56 26 19 72 47 35 112 94 74 149 135 109 181 169 138 197 187 152 
210 200 163 220 211 170 221 212 170 222 212 170 221 211 169 219 208 167 219 206 167 217 204 160 
205 199 128 200 195 119 197 191 115 189 181 106 182 172 99 176 163 93 168 152 86 164 146 84 
160 140 85 159 135 87 113 88 49 70 43 15 62 35 14 53 26 12 44 19 11 38 14 12 
36 15 17 35 17 21 32 18 20 25 14 17 19 11 13 14 9 7 13 9 6 13 9 7 
14 10 9 9 5 4 15 10 10 42 37 37 57 53 53 53 49 49 21 16 16 25 20 20 
31 26 26 32 27 27 
8 8 7 7 6 6 50 44 44 68 60 61 64 58 58 20 15 15 5 2 1 6 5 4 
8 8 6 8 9 6 7 9 6 5 9 5 3 8 4 2 6 2 3 5 2 5 6 3 
7 7 5 10 7 6 13 6 7 17 6 8 24 9 12 31 14 18 37 18 23 41 19 25 
42 18 24 43 16 22 48 15 17 50 16 17 51 17 19 53 19 19 56 20 21 60 22 23 
63 22 24 66 22 25 69 22 26 74 22 26 78 20 26 81 19 25 81 16 21 86 18 24 
90 21 27 93 23 30 96 28 35 97 31 37 91 28 32 82 24 26 74 20 20 68 19 19 
110 63 62 147 115 113 166 169 162 192 200 193 214 222 215 227 234 228 234 241 235 237 244 238 
234 241 235 236 243 238 230 237 233 211 217 214 207 215 211 207 215 210 208 218 211 210 221 213 
204 216 207 189 202 190 151 167 153 138 156 140 158 177 159 171 192 173 186 208 187 201 224 202 
204 228 205 209 228 209 217 223 214 213 222 212 205 219 206 194 213 197 167 193 173 145 176 152 
126 163 135 119 158 127 103 143 109 80 118 84 83 117 84 79 106 75 67 87 60 58 69 46 
48 50 32 39 31 18 38 21 14 40 15 13 44 12 14 51 16 19 57 18 25 61 20 29 
59 17 28 57 17 25 54 20 22 53 19 22 49 17 21 44 15 17 37 10 13 32 7 11 
28 7 10 26 8 12 21 7 11 16 6 9 10 3 5 21 15 17 39 35 36 60 56 56 
52 51 48 33 32 28 14 13 9 8 7 3 9 8 3 10 8 2 11 9 2 12 10 2 
11 8 1 10 10 4 9 11 7 7 8 6 6 6 3 7 5 2 10 6 5 16 9 9 
23 12 12 29 14 16 32 14 17 35 14 17 36 13 17 40 13 18 43 13 19 46 13 20 
46 12 20 48 12 20 51 14 22 53 15 23 54 16 24 57 18 26 58 19 27 58 19 27 
57 18 26 70 14 22 80 11 19 79 10 18 81 12 19 83 14 21 85 16 22 88 19 24 
91 21 26 94 22 27 95 23 28 97 23 27 98 24 27 102 27 29 105 28 30 105 28 29 
105 28 28 106 28 26 106 28 25 105 27 23 104 25 22 103 24 21 104 25 21 107 27 22 
110 29 25 105 34 30 99 34 30 93 29 25 87 26 23 82 24 22 79 24 22 74 22 20 
68 19 18 61 16 16 57 14 15 55 14 15 55 15 16 57 17 18 58 18 20 59 19 20 
61 19 22 64 20 23 66 20 23 69 20 23 71 20 23 73 19 23 74 19 22 76 19 22 
76 18 22 69 19 24 66 19 25 65 18 25 65 18 24 64 17 23 64 16 24 65 16 22 
65 16 23 65 16 24 64 17 23 62 17 23 61 18 24 61 20 25 59 21 25 54 19 23 
48 18 19 42 15 15 35 12 12 29 11 8 25 10 7 21 10 6 19 9 4 17 9 4 
14 8 4 4 5 1 23 24 20 47 48 43 61 59 55 35 32 29 8 3 1 10 4 3 
13 6 7 13 7 9 9 5 6 8 6 7 8 7 7 7 10 9 7 11 8 7 12 8 
6 12 6 8 11 5 8 10 4 7 8 1 10 6 1 12 4 0 9 1 0 47 35 31 
97 81 65 160 136 96 175 150 106 182 157 113 190 165 123 193 166 125 196 168 128 202 173 133 
209 180 140 215 186 146 220 190 151 222 192 152 221 191 150 217 187 146 211 183 139 207 181 133 
203 178 128 198 175 123 190 168 113 176 157 98 159 141 82 154 137 77 161 145 83 172 156 92 
183 168 108 195 182 130 203 190 142 215 201 158 229 215 178 240 225 194 246 229 205 246 229 210 
247 229 211 244 226 206 239 222 196 229 212 181 216 198 159 198 181 132 185 166 110 171 152 91 
158 137 73 156 133 68 149 124 60 138 110 50 123 93 39 112 79 31 105 69 27 101 64 25 
93 61 20 82 59 15 77 53 13 91 66 25 113 88 42 116 89 45 127 99 56 142 112 70 
149 117 76 156 123 80 163 130 85 172 137 91 174 140 90 175 141 89 180 147 93 187 153 99 
194 161 106 201 167 113 206 172 120 209 176 127 210 177 131 210 177 134 209 176 137 208 175 138 
151 124 92 90 68 42 83 61 39 62 40 22 42 20 6 36 15 5 33 13 8 30 10 11 
22 4 8 20 5 9 21 8 13 23 12 16 17 8 10 13 6 6 20 14 12 47 43 39 
65 61 55 48 44 38 22 19 16 6 2 1 12 8 6 10 6 4 9 4 4 11 7 8 
10 7 9 9 7 10 9 6 9 10 6 9 10 6 9 11 6 9 13 7 9 16 8 10 
19 11 12 22 13 13 26 15 15 29 16 17 32 15 16 34 14 16 37 13 16 40 13 16 
44 13 16 47 13 17 52 15 18 57 17 20 61 19 23 66 22 25 70 24 27 72 25 29 
82 21 28 87 20 28 88 19 27 88 20 26 91 21 27 96 24 28 102 29 32 108 33 35 
114 37 38 117 38 38 119 38 37 120 37 36 119 37 35 120 37 34 122 38 34 123 38 35 
123 38 35 123 37 34 120 35 33 118 33 31 116 31 29 115 31 28 114 30 27 113 30 27 
114 37 36 111 37 36 105 33 33 100 32 32 91 27 28 79 20 22 69 16 19 61 14 16 
56 14 14 56 21 15 66 36 26 91 66 49 158 139 115 191 176 144 204 192 155 214 203 163 
220 210 166 223 213 167 220 211 162 219 210 161 219 208 160 217 205 158 216 204 157 213 202 151 
201 195 122 196 191 113 192 186 108 183 174 98 176 165 92 171 157 87 165 148 82 162 143 81 
160 138 83 159 134 87 114 87 50 69 41 15 60 31 11 53 25 12 48 20 13 43 17 16 
41 18 20 39 19 23 35 18 22 28 15 18 21 11 14 16 9 7 14 8 6 13 9 6 
14 10 9 9 5 5 15 11 10 42 37 37 57 53 52 53 49 49 20 16 16 24 19 19 
28 23 23 27 22 22 
16 15 14 14 13 11 52 45 46 68 60 61 64 57 58 20 15 15 5 3 2 7 6 4 
8 9 6 7 10 7 5 10 6 3 9 5 2 8 3 1 6 2 1 5 2 3 5 2 
5 6 4 8 5 4 10 4 4 14 3 5 22 6 10 32 12 16 41 17 23 46 19 26 
47 19 26 48 17 24 55 16 19 57 17 19 59 18 20 61 20 22 63 22 24 65 23 26 
68 24 27 71 24 27 73 23 27 76 22 27 79 20 27 82 19 26 83 17 22 86 18 24 
90 20 26 93 23 29 97 29 34 99 33 38 94 31 35 85 26 29 75 21 22 64 15 14 
109 62 62 150 118 116 169 173 166 193 201 195 213 220 215 226 231 227 231 237 233 232 237 234 
226 231 229 220 225 223 201 206 204 162 167 166 164 169 168 166 172 170 163 170 167 186 194 190 
200 210 204 201 211 203 185 199 188 179 195 182 185 202 187 195 213 197 205 224 207 215 236 217 
219 240 222 223 238 224 226 231 226 224 231 224 217 229 219 205 223 211 187 211 194 167 197 176 
147 181 156 139 176 148 114 151 121 76 111 80 80 112 82 77 104 75 68 87 61 59 69 47 
49 50 33 39 31 19 38 21 14 40 16 12 45 14 13 52 16 20 58 18 25 61 19 28 
60 17 26 58 17 24 55 19 22 53 18 22 50 17 21 45 14 17 38 10 14 32 8 11 
28 7 10 26 8 12 22 8 11 16 7 9 11 4 5 20 15 15 37 34 33 58 57 55 
51 51 48 32 32 28 14 13 10 8 7 3 8 7 2 9 7 1 11 9 2 13 10 4 
11 9 2 8 9 4 6 9 6 5 7 5 5 5 4 6 4 3 9 5 6 15 8 9 
21 11 12 28 13 17 31 13 19 34 13 19 37 12 19 38 10 19 40 9 19 43 10 20 
45 9 20 47 9 21 51 11 24 52 11 24 52 12 23 54 12 24 55 12 25 56 13 25 
57 14 27 69 12 21 78 10 18 79 10 18 80 11 19 82 12 20 85 14 22 87 15 23 
89 17 25 92 19 26 93 20 26 94 20 25 95 20 24 98 22 25 100 23 25 100 23 23 
100 23 22 101 23 21 103 24 22 103 24 21 103 24 20 103 24 20 104 24 20 106 26 21 
111 28 24 103 32 29 97 32 30 91 27 26 85 24 22 81 23 20 77 22 20 73 21 19 
68 19 18 63 16 17 60 15 16 57 15 16 56 16 17 58 17 18 59 18 19 59 19 20 
62 19 21 65 20 22 67 20 23 69 20 22 72 20 22 75 19 22 75 19 21 77 19 21 
77 19 21 71 19 23 68 19 24 68 18 25 68 18 23 67 17 23 67 17 23 67 17 22 
67 17 22 66 17 23 66 18 23 65 18 23 63 19 24 63 21 24 60 20 23 54 19 22 
48 18 18 43 15 15 37 13 12 31 12 8 25 10 6 20 9 4 18 9 2 16 9 2 
13 8 2 3 4 1 22 24 20 47 49 43 61 61 57 35 33 30 7 3 1 9 3 3 
12 5 6 13 7 7 9 5 6 8 6 7 8 8 8 7 10 8 7 11 8 6 11 7 
6 12 6 8 12 6 10 12 5 9 9 2 10 6 1 11 4 0 13 3 0 50 38 33 
101 85 69 163 140 100 180 155 112 189 164 122 199 173 132 203 177 136 208 180 139 212 182 142 
218 188 148 222 193 153 224 194 154 223 193 152 222 192 150 221 190 147 215 186 140 210 183 135 
208 183 132 206 182 128 200 177 121 190 169 110 177 157 97 171 152 91 173 156 92 184 166 102 
193 178 116 201 189 136 207 194 146 216 203 159 228 215 176 239 224 192 246 230 203 249 232 210 
247 229 208 241 223 200 233 214 187 224 206 172 210 191 150 192 173 123 174 155 98 160 140 78 
151 129 64 152 128 62 146 120 56 134 106 46 123 92 37 113 79 30 104 68 24 98 60 20 
89 56 16 80 56 14 77 53 13 85 59 19 97 71 27 107 79 36 125 95 52 144 113 71 
149 117 74 155 122 78 162 129 83 171 138 89 174 140 89 175 141 87 180 146 91 187 153 97 
194 161 105 202 169 114 208 175 123 212 179 129 213 180 134 212 179 136 210 177 137 208 175 136 
150 122 90 89 65 41 82 58 38 61 37 21 40 18 5 37 15 7 33 13 9 28 9 9 
21 3 7 19 4 8 20 7 11 22 12 15 16 8 9 12 6 5 18 13 11 46 41 37 
63 59 54 46 43 37 21 18 15 5 2 1 11 7 5 8 5 3 7 3 3 10 7 7 
9 7 9 7 7 9 7 6 8 7 5 7 7 5 6 9 5 7 11 6 7 14 8 9 
18 10 11 22 13 13 26 14 14 30 14 16 35 16 17 38 16 19 41 15 19 45 15 18 
48 15 18 52 15 19 57 17 20 61 18 21 65 20 24 69 22 26 73 23 28 75 25 30 
84 21 29 88 19 28 89 18 26 90 19 26 93 21 28 99 25 31 106 30 35 113 35 38 
119 39 41 121 39 40 122 38 39 122 37 37 123 38 36 124 39 36 127 41 37 128 40 37 
128 40 36 127 39 36 126 38 34 123 36 32 120 33 30 119 32 28 118 31 27 117 32 28 
114 37 34 110 37 34 104 33 31 99 31 31 89 25 25 76 17 18 66 13 13 58 9 9 
52 9 6 59 22 14 78 48 33 112 87 65 180 159 129 208 191 154 214 201 158 218 207 160 
220 211 159 221 212 157 218 209 153 217 208 152 217 206 150 213 202 148 213 201 148 212 200 143 
199 193 118 194 188 108 189 182 103 180 170 93 174 161 87 168 154 82 164 146 79 161 140 79 
158 134 79 151 125 77 101 74 41 57 28 7 57 27 8 54 24 11 49 20 14 44 18 17 
42 17 21 39 17 22 34 16 20 28 13 17 22 10 13 17 9 8 15 8 7 14 9 7 
13 9 8 8 4 4 14 10 10 41 37 37 57 53 52 53 49 48 19 15 14 20 17 16 
23 20 19 20 17 16 
21 20 19 19 18 16 54 46 47 68 59 60 64 56 57 20 15 15 5 2 1 6 6 4 
7 9 6 6 10 7 4 10 6 2 10 5 2 9 3 1 7 2 2 7 3 4 7 4 
6 7 5 8 5 4 10 3 3 13 1 3 22 4 8 32 9 15 42 14 21 48 17 25 
50 17 26 52 16 24 57 14 18 60 14 17 61 15 19 63 18 21 65 20 23 67 21 25 
70 23 26 72 23 26 74 22 27 77 21 27 80 21 27 82 19 26 82 17 22 85 17 23 
88 19 25 90 22 26 95 27 32 96 31 36 93 32 35 84 27 29 73 20 21 60 11 10 
108 62 61 153 121 119 173 176 171 198 205 201 219 225 221 230 236 233 235 240 238 233 238 236 
223 226 226 214 218 218 182 186 187 117 121 122 116 120 121 121 126 127 128 134 134 166 172 171 
192 200 197 202 211 205 202 213 206 202 215 206 203 218 207 209 224 212 216 232 219 223 240 225 
224 242 228 227 240 230 230 234 232 229 236 233 224 235 229 215 231 222 203 224 211 187 214 197 
169 201 180 160 194 169 127 162 135 76 109 81 79 109 80 76 101 74 69 87 63 57 67 46 
47 48 31 38 30 19 38 22 15 41 17 13 46 15 14 53 16 19 59 18 24 63 19 27 
61 17 26 59 17 24 56 19 22 54 19 23 51 17 21 46 15 18 38 11 14 32 8 11 
28 7 10 27 8 11 22 8 10 17 7 8 11 4 4 19 14 14 34 31 30 56 54 53 
49 49 46 30 31 27 13 13 9 8 7 3 8 7 2 10 8 3 13 10 5 14 12 6 
13 10 5 8 9 5 4 7 5 5 6 6 5 5 6 7 5 6 11 6 9 16 8 11 
21 9 14 26 11 17 31 12 20 34 12 21 37 11 22 39 9 21 41 8 21 45 9 23 
45 7 21 46 6 20 49 7 23 49 7 22 49 7 21 49 7 21 51 7 22 53 8 25 
56 11 28 67 10 22 75 9 18 77 10 20 78 10 21 80 11 22 81 11 23 82 13 23 
84 14 24 86 15 24 86 15 22 85 15 20 84 15 18 92 20 23 96 22 24 95 20 21 
94 20 20 96 21 20 100 24 23 100 24 22 100 23 21 100 23 20 101 24 20 104 26 22 
107 28 24 99 29 27 92 28 28 88 25 24 82 22 21 77 20 19 74 19 17 70 18 17 
67 17 17 64 16 17 61 15 17 59 15 17 57 16 17 58 17 18 60 18 19 61 18 20 
63 19 21 66 19 22 68 19 22 70 20 22 73 20 22 75 19 22 76 19 21 77 19 21 
78 19 21 73 19 23 71 19 24 71 18 24 70 18 23 69 17 23 69 17 23 69 17 22 
69 17 22 68 17 23 68 18 23 66 19 23 65 20 24 64 22 25 60 20 23 54 18 20 
49 17 17 43 16 15 38 14 12 32 13 9 25 11 5 20 8 2 16 8 1 16 8 1 
13 8 1 3 4 0 22 24 20 47 49 43 61 62 57 36 34 30 7 4 1 9 4 2 
11 5 5 12 6 6 9 5 5 8 7 7 8 9 8 8 11 8 7 11 7 6 11 6 
6 11 5 9 12 5 11 12 5 10 10 2 11 7 1 12 4 1 14 3 0 52 39 34 
104 87 72 167 143 105 186 161 119 198 172 130 209 183 141 213 186 145 216 188 147 219 191 150 
223 195 154 227 197 155 228 197 155 225 195 151 223 193 148 223 193 147 218 189 141 213 185 135 
209 182 129 206 181 126 202 178 121 196 173 113 186 165 104 182 162 99 184 165 101 194 175 110 
201 185 123 204 193 140 212 200 150 220 207 162 229 216 177 237 223 189 244 229 200 251 235 209 
246 228 203 237 218 192 224 206 175 215 196 160 202 183 139 187 167 115 168 148 90 156 134 72 
148 126 61 148 124 58 142 115 51 131 102 42 121 88 34 112 76 27 102 65 21 94 56 17 
87 55 14 81 57 14 78 53 13 81 54 15 87 59 18 93 64 24 111 81 39 134 102 60 
143 111 68 148 114 70 152 118 72 165 131 82 171 136 85 173 139 85 179 143 89 185 151 95 
192 159 103 202 169 113 208 175 123 212 179 130 213 179 133 210 176 134 205 172 133 201 168 129 
146 117 86 88 63 40 80 55 36 58 34 19 37 14 3 34 12 4 32 11 7 28 9 9 
20 3 6 18 3 8 19 6 10 20 10 14 15 7 8 11 5 4 17 13 10 45 41 36 
62 59 52 46 43 36 20 18 15 4 2 1 9 7 4 7 5 3 5 3 2 9 6 7 
8 7 9 7 7 9 5 6 7 5 4 5 5 4 4 8 5 5 11 6 6 14 8 8 
18 10 11 23 11 12 27 12 13 31 13 15 35 14 16 39 14 17 41 14 17 46 13 17 
50 13 17 53 13 17 58 14 18 62 16 19 66 17 21 69 19 24 72 20 25 74 21 27 
82 18 26 86 16 25 86 15 23 87 16 23 91 18 24 97 22 28 105 28 32 111 33 36 
118 37 39 119 37 37 120 36 36 120 34 33 123 37 34 126 39 35 129 41 36 130 41 37 
130 41 36 129 40 36 128 39 34 126 37 32 123 35 30 121 33 28 121 33 27 120 33 28 
115 37 34 109 37 34 103 33 30 98 30 29 88 24 23 75 16 15 63 10 9 55 7 5 
52 10 4 66 29 18 90 59 40 126 101 73 192 171 136 216 198 156 217 203 154 218 207 152 
219 210 151 220 211 149 219 210 147 217 208 144 215 205 142 210 199 138 209 198 137 208 198 133 
198 192 113 193 187 105 188 180 100 179 168 90 172 159 84 167 151 79 161 143 75 158 136 74 
155 130 75 148 121 74 98 69 38 54 23 5 55 23 6 54 22 10 50 20 14 46 18 17 
43 17 20 39 15 21 33 14 18 28 11 15 23 8 12 19 8 8 17 8 7 15 8 7 
11 7 6 6 3 3 13 10 10 41 38 37 57 53 52 52 49 48 18 15 14 19 16 15 
21 18 17 19 16 15 
24 23 21 23 21 20 55 46 47 69 57 59 65 55 56 21 15 15 5 2 1 5 5 2 
6 9 5 5 10 6 3 11 6 2 11 5 2 9 3 2 8 3 2 10 5 5 10 6 
8 9 6 9 6 5 11 3 3 14 1 3 23 3 7 33 7 14 43 12 20 49 15 24 
51 15 24 53 13 22 59 10 15 61 10 15 63 11 16 64 14 18 66 16 21 68 18 22 
70 20 24 72 21 25 75 21 26 78 21 26 80 21 26 82 19 25 81 16 21 83 16 21 
85 17 22 87 19 24 90 24 28 92 28 32 90 31 33 82 26 28 70 19 19 55 7 7 
107 62 61 155 125 122 177 180 176 204 211 206 225 232 228 235 243 240 239 245 243 235 239 238 
219 222 223 208 211 213 164 167 170 74 76 79 69 72 75 78 81 84 95 98 101 141 145 147 
176 181 181 195 202 200 209 217 214 217 226 222 217 229 221 219 231 223 223 235 226 226 239 229 
225 240 230 227 238 232 231 234 236 232 238 238 229 238 237 222 236 232 215 234 225 204 228 214 
191 219 202 180 211 189 140 173 148 78 110 84 78 106 79 75 98 73 70 86 64 53 63 43 
42 43 28 37 28 18 39 22 15 42 18 14 47 16 15 54 16 19 60 17 22 64 19 26 
63 17 25 61 17 24 57 20 23 55 19 23 51 18 22 46 15 18 38 11 14 33 8 11 
29 8 10 27 9 11 23 9 10 18 7 7 12 4 4 18 13 12 32 29 28 53 52 50 
47 47 44 29 29 25 13 13 9 9 8 4 9 8 4 12 9 5 14 11 7 15 13 8 
14 12 8 8 8 6 3 5 5 5 6 7 7 6 9 9 7 10 14 7 12 17 8 14 
20 8 15 25 9 17 30 10 20 34 10 23 38 11 24 42 11 26 47 12 28 54 15 33 
56 16 34 58 17 34 62 20 38 63 20 38 63 20 38 62 21 37 67 23 41 73 26 47 
79 29 53 87 30 48 93 31 45 96 31 47 97 31 49 98 32 49 97 31 47 98 32 47 
100 32 47 100 32 45 97 30 41 93 27 36 89 25 30 99 31 37 104 34 40 101 29 34 
97 26 30 97 26 29 101 29 32 98 27 27 96 25 23 95 23 22 97 24 22 99 26 23 
101 28 25 94 27 26 88 25 25 84 23 22 78 19 19 73 17 17 70 15 15 67 15 15 
64 16 16 64 16 17 61 16 18 60 16 18 59 16 18 59 17 18 61 17 19 62 18 19 
64 19 21 66 19 22 69 19 22 71 20 22 73 20 22 75 19 22 76 19 21 78 19 21 
78 19 21 75 19 23 73 19 24 72 18 24 72 18 23 72 17 23 71 17 23 71 17 23 
71 17 23 71 17 23 69 19 23 68 20 24 67 21 25 65 22 25 60 21 23 54 18 19 
49 17 16 44 16 14 39 16 13 32 14 9 25 11 5 19 7 1 15 6 1 15 8 1 
13 8 1 3 4 0 22 24 20 47 49 43 62 63 57 36 35 31 7 4 1 8 4 1 
9 5 4 10 6 6 9 5 4 9 7 7 9 10 9 8 11 8 7 11 7 6 11 5 
5 11 4 9 12 5 12 13 5 12 10 2 12 8 1 13 5 1 14 3 0 53 39 35 
106 88 73 172 148 109 192 168 125 205 181 138 218 193 150 221 194 152 222 195 153 224 197 155 
227 199 156 229 200 156 230 200 154 226 196 150 224 195 146 225 196 146 221 192 141 215 187 133 
206 179 122 201 176 118 198 174 114 195 173 110 190 169 105 189 168 103 193 172 106 202 181 115 
207 190 127 206 197 143 216 205 154 224 212 166 230 217 177 236 222 185 243 228 195 252 236 207 
243 226 197 230 212 181 214 195 162 205 186 147 195 175 129 183 161 109 165 143 84 154 131 69 
149 125 60 146 120 55 138 110 47 128 97 38 118 84 30 109 73 24 101 63 19 92 54 15 
87 54 14 83 59 15 78 53 13 78 51 12 80 51 12 80 50 12 94 63 24 115 82 42 
129 96 54 132 98 55 133 98 54 155 121 74 166 132 81 172 136 83 176 141 87 182 148 92 
190 157 100 200 167 112 207 175 122 212 179 130 211 177 131 205 172 130 198 165 126 191 158 119 
140 111 80 87 62 40 79 53 34 56 31 18 35 11 2 32 9 2 31 10 6 28 9 9 
21 3 6 18 2 7 18 5 10 19 9 12 14 6 6 11 5 2 17 13 9 45 42 36 
62 60 52 45 43 35 20 19 14 3 3 1 8 8 4 5 5 2 4 3 2 7 6 6 
7 7 9 6 8 9 5 6 7 4 4 5 4 3 4 7 4 5 11 6 6 15 8 8 
19 10 11 24 11 12 28 11 13 32 11 14 36 12 15 40 13 16 42 12 15 47 13 15 
51 12 16 55 12 17 59 13 17 63 14 18 66 15 20 69 17 22 72 18 23 73 18 24 
82 16 24 86 14 23 84 13 21 85 13 20 88 15 21 95 20 25 102 25 30 109 30 33 
115 34 36 118 34 34 118 33 32 118 32 30 123 35 32 126 38 33 128 39 34 130 41 35 
130 41 35 130 41 34 128 39 33 127 38 31 125 36 29 123 35 28 123 34 27 122 34 28 
115 38 34 108 37 33 102 32 29 97 30 28 87 24 21 74 16 13 61 9 6 55 8 3 
56 14 7 83 46 31 110 79 55 142 116 84 200 180 139 219 202 153 217 203 147 217 205 144 
217 207 143 218 209 142 219 211 140 218 208 138 214 204 134 206 196 127 205 195 126 204 194 124 
196 189 108 192 184 101 187 178 97 177 165 86 170 156 79 164 147 74 157 137 69 153 130 68 
149 123 68 145 116 69 98 67 36 56 23 4 54 20 4 53 19 8 51 19 13 48 18 17 
44 16 20 39 14 20 33 12 17 28 9 13 24 7 11 21 8 9 20 9 8 16 8 7 
9 5 5 5 2 2 13 10 10 41 38 37 56 53 52 52 49 48 17 14 13 18 15 14 
21 18 17 20 17 16 
24 23 21 23 22 20 55 46 46 69 57 57 65 55 55 21 15 15 6 2 1 7 5 2 
7 9 5 5 11 5 4 11 5 2 11 3 2 10 2 2 10 2 3 12 5 6 11 6 
9 10 6 11 8 5 14 5 5 18 3 5 27 5 9 36 9 14 45 12 19 51 14 22 
52 13 22 54 11 19 62 8 14 64 8 13 64 9 14 65 12 16 66 14 18 68 16 20 
70 18 22 72 19 23 74 20 24 77 21 24 79 20 25 80 19 23 78 15 19 79 15 18 
80 16 19 80 16 19 83 20 23 85 24 27 84 27 28 77 25 24 66 19 17 49 6 4 
103 63 60 155 127 123 180 184 179 205 213 208 225 232 228 236 243 240 238 243 241 230 234 233 
209 212 213 186 189 191 132 134 137 31 32 36 34 35 39 43 45 49 48 49 54 89 91 95 
131 135 138 173 178 180 206 211 213 224 230 230 225 235 230 225 235 230 225 235 230 225 236 229 
225 237 230 227 236 233 231 233 238 231 236 240 229 238 239 225 237 236 223 239 233 215 236 226 
203 230 214 193 222 203 150 180 158 81 111 87 78 104 80 73 95 71 65 82 60 47 56 36 
36 38 22 33 26 15 37 22 14 43 19 15 49 17 16 55 16 19 59 16 21 63 16 24 
64 15 24 61 17 24 57 20 24 55 19 24 51 18 22 46 15 18 39 11 15 33 9 12 
29 8 10 27 10 11 23 9 10 18 7 7 12 4 3 18 12 11 32 28 26 53 50 48 
48 46 43 30 29 26 15 15 11 10 9 5 8 7 4 10 8 4 13 10 6 14 11 8 
14 10 7 7 5 5 1 2 3 4 4 7 8 7 11 13 9 14 16 8 15 18 7 15 
20 5 16 24 5 16 29 6 20 34 8 23 39 10 26 50 16 35 65 27 48 86 46 68 
106 64 86 124 80 103 137 90 116 141 93 120 144 95 122 147 97 125 159 108 137 174 122 151 
189 137 167 194 139 165 197 140 163 198 140 164 197 139 162 197 139 161 198 139 160 200 141 161 
200 141 160 198 139 156 187 129 145 176 117 131 164 105 118 163 104 115 159 99 108 150 88 97 
136 75 82 125 63 69 115 52 57 103 40 43 94 32 32 89 26 26 89 25 25 89 26 25 
91 27 26 88 25 26 84 23 25 81 21 22 75 18 19 70 15 16 66 13 13 63 13 13 
63 14 15 63 16 16 62 16 18 61 16 18 60 16 18 60 17 17 61 17 18 63 18 18 
65 19 20 67 19 21 69 19 21 72 20 21 74 19 21 76 19 21 77 19 21 79 18 21 
79 18 21 76 18 24 75 18 24 74 17 24 74 17 24 74 17 23 73 17 23 73 17 23 
73 17 23 73 18 24 72 19 24 71 20 25 69 21 25 66 22 25 61 21 23 54 18 19 
49 17 16 45 16 15 40 16 13 33 14 10 25 11 5 18 7 1 15 6 1 15 7 1 
13 8 1 3 4 0 22 25 20 48 50 44 62 62 57 36 34 31 7 4 1 7 3 1 
9 4 3 10 5 5 9 5 4 9 7 6 10 9 7 9 11 7 7 10 5 5 9 4 
5 9 3 9 11 4 12 12 5 13 10 2 14 8 1 14 5 1 15 2 0 53 38 33 
106 88 72 175 152 111 197 173 128 210 186 142 223 197 154 225 199 154 225 199 153 224 198 152 
227 200 152 229 201 152 229 200 150 225 196 145 224 195 142 226 197 144 221 192 136 211 183 125 
197 170 111 188 163 102 183 159 97 185 162 98 186 164 99 189 168 101 194 173 105 203 182 113 
209 191 127 209 201 147 218 209 158 225 214 166 228 217 173 233 220 180 241 226 190 251 235 203 
237 220 187 220 202 167 199 181 144 196 176 135 190 169 122 182 159 105 164 140 82 154 130 68 
152 126 61 145 118 53 135 105 43 121 90 32 114 80 27 107 71 22 100 63 18 93 54 15 
88 54 14 85 59 15 79 53 13 76 49 11 74 46 10 72 42 9 75 44 13 82 49 17 
92 58 21 94 60 22 100 65 27 145 110 65 164 130 81 170 136 84 174 140 87 180 148 92 
188 157 100 199 166 111 206 174 121 210 179 129 207 175 129 198 167 124 187 156 116 177 145 107 
133 104 74 88 62 42 78 53 34 55 30 18 34 10 2 34 10 5 32 10 8 29 8 9 
23 4 8 20 4 8 18 5 9 19 9 11 14 6 6 11 5 2 18 13 9 46 42 36 
63 61 52 45 45 36 19 19 15 2 3 1 8 9 4 6 6 3 4 4 3 7 7 7 
7 9 9 6 9 8 5 7 6 4 5 5 5 4 4 7 4 5 12 6 7 17 9 9 
22 10 12 26 12 13 30 12 14 34 11 14 41 15 18 47 17 21 51 17 21 55 17 21 
60 18 22 63 18 23 67 18 23 71 19 24 76 21 27 78 22 28 80 23 28 81 23 29 
90 22 31 93 20 30 90 18 27 90 17 24 92 18 24 98 21 27 106 27 32 113 33 36 
120 37 40 123 38 39 124 38 37 123 36 34 122 35 30 123 34 29 124 35 29 126 37 30 
127 38 31 128 39 31 127 38 29 126 38 29 126 38 29 124 36 27 123 36 27 123 37 28 
112 38 31 104 35 30 98 30 25 94 29 25 86 25 20 74 18 12 64 14 6 58 13 3 
64 23 13 132 96 76 162 132 103 176 151 114 210 190 144 219 203 149 216 203 142 215 204 138 
215 205 135 216 206 133 218 209 133 217 208 131 212 203 127 203 194 118 202 192 117 201 190 114 
189 181 99 183 175 92 178 168 86 167 155 75 160 145 69 153 136 64 146 126 59 140 117 56 
135 108 54 131 100 54 94 61 29 59 25 5 52 18 3 51 17 7 52 18 13 50 18 18 
46 16 20 40 13 20 34 10 16 29 8 13 25 8 11 23 8 9 22 8 9 18 8 7 
9 5 5 5 2 2 13 10 10 41 38 37 56 53 52 51 48 47 15 12 11 17 14 13 
22 19 18 23 20 19 
27 26 24 27 25 23 56 46 46 69 56 56 65 54 54 22 14 14 7 2 1 8 5 2 
7 9 4 6 11 5 4 12 5 2 11 4 2 10 3 2 10 2 3 11 4 6 11 5 
10 10 6 13 9 6 17 7 6 22 6 7 31 7 11 40 11 16 48 14 21 53 14 22 
54 12 21 57 10 19 66 11 17 69 12 17 69 12 17 69 14 19 69 16 20 70 18 22 
71 19 23 72 20 24 74 21 25 76 22 25 78 22 25 78 20 23 74 15 17 75 14 17 
76 15 17 76 16 18 79 20 22 81 24 26 80 27 27 74 25 23 62 19 16 45 6 4 
101 64 60 155 131 125 185 191 184 209 218 212 228 236 231 238 246 242 237 244 241 227 232 231 
205 209 209 182 186 188 127 130 133 25 27 31 26 27 32 30 30 36 26 27 32 74 75 81 
122 124 129 166 169 173 205 208 212 227 231 234 230 236 236 228 235 233 226 233 231 224 233 229 
226 234 231 228 234 234 230 233 240 231 236 241 230 237 241 228 238 239 227 241 238 222 240 232 
213 236 223 204 229 213 160 187 168 90 117 95 82 107 84 73 94 71 61 78 56 41 51 31 
31 33 17 31 25 12 36 22 13 42 19 15 49 18 16 55 16 18 59 15 20 63 15 22 
65 15 23 62 17 24 57 20 25 55 19 24 51 18 22 46 15 18 40 11 14 34 9 12 
30 8 11 28 9 11 24 9 9 19 7 7 13 4 3 19 13 11 33 30 27 55 52 49 
49 47 44 31 29 26 15 13 10 9 7 4 9 6 3 10 7 5 13 8 7 14 10 8 
14 9 7 7 4 5 1 0 4 4 2 7 10 5 12 15 8 16 17 8 17 18 5 16 
20 3 15 22 3 16 27 3 19 33 5 22 39 7 26 54 18 40 72 33 57 92 50 75 
119 76 102 144 98 126 157 109 138 163 113 144 167 115 147 171 119 151 185 132 165 201 147 181 
217 163 198 221 169 199 222 171 199 222 171 198 221 170 197 221 170 196 223 172 197 226 175 198 
227 175 197 223 171 192 210 158 178 196 144 162 183 130 148 177 125 140 170 117 130 159 105 117 
141 88 98 124 70 79 108 53 61 96 42 47 87 32 36 80 24 28 78 23 26 78 23 25 
79 24 26 83 25 29 84 24 28 81 22 26 76 18 22 70 15 18 64 12 14 63 12 14 
63 14 16 64 17 18 64 18 20 63 18 20 62 17 19 62 17 18 62 17 17 64 17 18 
66 18 19 68 19 20 70 19 21 73 19 21 75 19 20 76 19 21 78 19 21 79 18 21 
79 18 21 77 18 24 76 18 24 75 17 24 75 17 24 75 17 24 75 17 23 74 17 23 
74 18 24 74 18 24 73 19 25 72 20 25 70 21 25 67 22 26 62 21 23 55 18 19 
49 17 16 45 17 15 40 17 14 34 15 11 26 11 5 18 6 1 14 5 1 14 7 1 
13 8 1 3 4 0 22 24 20 48 50 43 63 62 57 37 35 31 8 4 1 8 3 0 
9 4 2 11 5 4 9 5 4 10 7 6 11 9 7 10 11 7 8 10 5 6 9 4 
6 9 2 10 11 4 14 13 5 16 11 3 16 8 1 16 5 1 17 2 0 54 37 33 
108 88 73 178 155 113 199 176 130 212 188 142 224 199 153 226 200 153 225 199 151 223 197 147 
226 199 148 228 201 148 229 201 146 226 197 142 225 197 139 228 200 141 221 194 133 210 183 121 
193 166 104 181 156 92 175 152 87 178 155 89 184 162 94 190 168 100 196 175 105 204 182 113 
209 192 127 212 204 150 220 211 160 225 215 167 226 215 170 231 219 177 239 225 186 249 233 197 
231 215 178 212 194 155 190 172 131 188 168 124 186 165 115 182 159 104 166 142 83 156 131 70 
152 125 62 142 113 51 129 99 39 116 84 29 109 75 24 104 69 20 101 64 18 95 57 15 
90 57 15 86 60 16 81 55 14 78 51 12 75 46 11 71 41 9 71 39 9 73 40 9 
79 45 11 79 45 11 85 51 18 140 105 62 165 131 82 173 139 88 176 143 89 182 150 95 
190 158 103 200 169 114 208 177 124 213 181 132 208 176 130 196 165 123 182 152 112 169 139 100 
129 100 71 88 62 43 80 53 36 57 31 19 36 11 3 35 11 6 34 11 9 31 10 11 
25 7 9 22 6 10 20 7 10 20 10 12 15 7 6 13 7 3 19 15 8 46 44 35 
63 62 52 46 45 36 20 20 15 4 4 1 10 10 5 7 7 4 6 5 4 9 8 8 
9 10 10 8 10 9 7 8 7 6 5 5 6 4 5 8 4 5 13 7 8 19 9 10 
25 11 13 29 12 14 32 13 14 35 11 14 43 15 18 49 17 20 53 16 21 57 17 21 
62 17 22 65 18 24 69 19 24 74 20 25 78 21 27 81 22 29 83 23 29 84 24 30 
93 24 33 96 22 32 92 19 28 90 17 24 91 17 23 96 20 25 103 26 30 111 31 34 
119 37 39 122 38 38 124 39 37 124 38 34 121 34 29 120 33 27 122 35 27 124 36 28 
125 38 29 126 39 29 126 39 28 126 39 28 127 40 29 125 39 27 125 39 28 124 39 29 
111 39 31 102 36 29 97 32 26 92 31 25 84 26 20 74 20 13 65 16 6 56 12 3 
62 23 15 153 119 95 188 159 126 196 171 130 213 194 143 217 201 142 214 201 135 214 203 132 
214 205 129 215 207 128 217 209 128 216 208 126 212 203 122 203 194 114 201 191 111 198 187 107 
186 177 94 179 170 87 174 163 81 164 152 72 158 143 66 152 134 62 146 125 58 141 116 56 
137 109 55 133 101 56 91 57 29 54 18 4 50 14 3 51 15 7 52 17 13 52 18 20 
48 16 22 42 13 21 35 10 16 31 8 14 27 8 12 25 8 10 24 8 9 20 8 8 
11 7 6 7 3 3 14 11 11 42 39 38 56 52 52 49 45 45 12 9 8 15 12 11 
22 18 17 25 22 21 
27 25 24 28 25 24 56 44 45 68 53 54 64 51 52 23 15 14 9 3 2 9 5 2 
8 8 4 7 11 5 5 13 5 3 11 4 3 10 3 3 10 3 3 10 3 6 10 4 
11 10 6 16 9 7 21 8 8 27 8 10 35 9 14 43 12 18 51 15 22 55 14 23 
57 13 22 59 11 21 70 15 20 73 15 21 73 16 21 73 17 22 72 19 23 72 20 24 
72 21 25 72 22 26 73 23 26 74 23 25 75 23 25 75 21 24 70 15 16 70 14 15 
71 15 16 72 17 17 74 20 21 75 24 24 75 27 25 68 25 21 57 19 14 41 7 3 
100 68 62 157 137 129 190 197 189 215 225 218 231 241 235 237 246 240 236 244 240 223 230 228 
195 200 200 171 176 177 121 125 128 32 34 39 25 26 32 22 23 30 14 14 21 78 78 85 
133 134 140 170 172 178 206 209 213 228 230 235 232 236 239 230 234 235 227 232 233 225 232 232 
226 233 233 228 234 236 230 233 241 231 235 243 230 237 243 230 238 240 229 242 240 225 241 235 
218 238 226 211 234 219 169 193 176 98 123 102 90 114 91 78 98 75 60 77 55 38 48 29 
28 31 15 28 23 9 35 22 12 42 21 15 50 19 17 55 16 17 59 15 19 63 15 21 
67 15 22 63 17 24 56 20 24 55 19 24 52 18 22 47 15 19 40 11 14 35 8 11 
31 7 10 28 8 10 24 8 8 20 7 6 14 4 3 21 15 13 36 32 29 56 52 49 
50 47 44 33 29 27 14 11 8 9 5 3 10 5 3 12 6 6 13 7 8 15 8 8 
15 8 8 8 4 7 2 0 6 5 1 7 10 4 12 16 6 17 18 7 19 21 6 20 
25 7 21 31 10 25 38 13 30 45 16 36 55 20 43 72 34 59 89 48 75 103 59 87 
129 84 114 153 105 137 163 113 146 169 117 151 173 120 155 177 124 159 188 134 171 201 146 185 
214 159 198 216 167 202 216 171 203 215 170 202 215 170 201 217 172 202 220 175 204 223 178 206 
224 177 204 219 172 198 207 161 185 195 150 172 184 138 160 177 132 151 169 124 141 159 113 129 
142 96 109 125 79 91 110 62 73 103 55 64 96 47 56 89 39 48 82 34 41 79 31 37 
78 30 35 83 28 34 84 26 32 81 24 30 75 19 25 69 15 20 64 12 16 63 12 16 
64 14 18 65 18 20 65 19 21 64 19 21 63 18 20 63 17 18 63 17 18 65 17 19 
67 18 20 69 19 21 72 19 21 74 19 21 76 19 21 77 19 21 78 19 21 79 19 21 
79 18 21 77 18 24 76 17 24 76 17 24 75 17 24 75 16 23 75 16 23 75 17 23 
75 17 24 75 18 24 74 19 25 72 20 25 70 21 25 68 23 26 62 21 23 55 18 19 
49 17 16 45 17 15 41 17 14 34 15 11 26 11 6 18 6 1 14 5 1 14 7 1 
14 9 1 3 3 0 23 24 19 49 49 43 65 63 58 38 35 31 8 4 0 9 2 0 
11 3 2 12 4 3 10 4 4 11 6 6 12 9 7 11 11 7 10 10 6 9 9 4 
8 9 2 12 11 4 16 13 6 19 12 4 19 9 2 19 6 1 22 5 3 57 38 34 
108 87 72 178 154 112 199 175 128 211 187 139 221 196 148 223 197 148 223 197 146 221 195 142 
224 197 143 227 199 143 228 201 143 226 198 138 224 196 134 224 197 133 217 190 126 205 179 114 
187 162 96 176 152 86 172 149 82 175 153 85 184 162 92 191 170 100 198 177 107 205 184 113 
210 193 128 214 206 152 222 213 162 226 217 168 226 216 169 232 219 176 238 224 182 243 229 189 
227 211 170 208 191 149 188 170 126 184 165 118 182 161 110 180 157 102 166 142 84 156 130 70 
148 120 59 138 110 49 125 95 37 111 78 26 105 71 21 102 67 19 101 65 18 96 60 16 
92 59 16 87 61 17 83 57 15 80 52 13 77 48 11 73 42 9 72 40 9 74 40 9 
76 42 10 75 40 9 80 46 16 131 97 55 157 123 76 169 135 85 173 140 88 181 149 95 
191 159 105 201 170 116 208 178 126 212 181 133 206 175 131 192 162 121 175 146 107 159 129 92 
120 92 65 83 56 40 77 50 35 57 30 19 39 12 4 36 12 7 35 12 10 32 12 12 
28 9 11 24 9 11 22 9 11 21 11 12 16 8 7 13 7 4 20 16 9 47 45 35 
64 62 51 46 46 35 22 21 15 6 5 2 11 10 5 9 7 4 7 6 5 11 9 9 
11 11 10 10 11 10 8 8 8 7 6 6 7 4 5 9 4 6 15 7 8 21 9 11 
27 12 13 32 13 14 35 13 15 38 12 15 44 14 17 50 15 19 54 15 20 59 16 21 
63 17 22 66 16 22 70 17 23 74 19 24 78 20 27 81 21 28 84 22 29 84 23 29 
92 24 32 95 22 31 91 19 27 88 16 23 89 15 21 92 18 21 99 23 25 107 29 30 
115 35 35 120 37 36 122 39 35 123 39 33 119 34 27 119 34 25 121 36 26 123 38 27 
124 39 28 125 40 27 125 41 28 126 41 29 126 42 29 125 43 28 125 43 29 123 42 29 
109 40 30 101 38 30 96 35 27 89 32 23 81 27 18 73 23 13 68 20 10 60 17 9 
65 28 21 163 131 105 201 174 136 207 184 139 214 195 140 214 199 136 213 200 130 212 203 126 
213 205 125 216 208 124 217 209 124 215 207 122 211 203 118 204 195 111 200 190 107 195 185 102 
183 173 89 176 166 83 171 159 78 163 150 71 156 141 65 151 133 61 147 125 59 144 118 58 
140 112 58 137 105 61 88 54 31 46 9 2 48 11 3 51 14 8 53 17 15 54 18 22 
49 17 23 44 15 22 37 11 18 33 9 15 30 8 12 27 8 10 25 8 8 21 8 8 
12 8 7 9 4 4 17 12 12 43 40 39 56 51 51 48 43 43 10 7 6 13 9 8 
20 15 15 24 21 20 
10 8 7 18 14 13 50 37 38 62 47 48 59 45 45 28 17 16 16 8 6 15 9 6 
12 10 6 10 12 6 8 13 6 7 12 6 6 12 5 6 10 4 6 9 3 9 10 4 
13 10 6 18 9 7 24 9 9 30 10 12 37 11 14 45 12 18 52 14 21 56 14 22 
58 14 23 61 13 22 68 13 19 71 14 19 72 16 21 73 19 22 71 20 22 69 20 22 
69 22 23 71 25 26 72 26 27 68 22 21 68 22 21 68 21 20 64 15 15 65 16 15 
65 16 15 62 15 13 63 17 15 64 20 16 62 21 16 57 21 13 48 16 9 34 6 2 
103 76 69 164 149 138 190 200 190 222 233 226 237 247 242 224 236 228 229 240 233 211 220 216 
155 162 161 112 119 120 72 77 80 32 34 39 16 18 23 7 8 14 3 3 10 96 96 103 
164 165 172 193 194 201 216 217 222 229 230 235 231 233 238 232 236 239 232 235 238 228 233 235 
229 234 236 230 234 239 230 234 243 230 235 243 231 238 243 233 242 244 232 243 242 225 240 234 
213 232 220 214 235 221 173 195 178 97 120 100 104 126 105 94 114 91 69 85 63 44 55 35 
29 34 16 23 21 6 35 24 13 44 24 17 51 22 19 55 17 18 60 15 19 65 15 21 
68 15 23 64 17 24 56 19 24 56 20 25 53 19 24 49 17 20 41 12 14 34 7 10 
29 5 6 25 6 6 22 7 5 19 7 4 15 5 3 25 17 15 40 35 32 52 48 45 
47 44 41 34 30 27 15 10 9 11 4 4 13 6 6 16 8 10 16 7 10 15 6 9 
16 7 9 11 4 9 6 0 9 7 0 10 10 1 11 14 3 15 22 6 21 36 17 34 
54 31 50 74 49 69 90 61 83 105 74 97 125 90 116 140 101 130 152 110 140 161 116 148 
173 126 160 184 135 170 191 140 176 194 142 179 197 144 182 201 146 185 206 152 191 211 157 197 
218 163 203 215 169 206 213 173 209 214 174 209 217 175 210 219 177 212 220 179 212 221 179 212 
220 179 210 217 175 205 212 171 199 207 166 193 204 162 188 199 157 181 193 152 174 187 146 166 
180 139 158 174 132 150 170 127 144 170 127 143 167 124 139 161 117 131 139 96 108 123 80 91 
113 70 81 93 40 51 81 24 34 77 21 31 69 15 23 63 11 18 61 10 16 62 12 18 
63 14 19 64 16 20 61 14 18 59 13 16 58 12 15 62 16 18 65 18 21 68 19 22 
69 20 22 71 19 21 72 18 21 75 19 22 77 20 23 79 20 24 80 20 24 80 19 23 
80 19 23 78 18 25 77 18 25 76 17 24 75 16 23 74 15 22 73 15 21 73 15 21 
73 16 22 74 17 23 73 18 24 71 19 24 69 21 25 69 23 27 63 21 23 55 17 18 
49 15 15 45 16 15 41 17 14 34 14 10 25 9 5 16 3 1 13 4 1 16 8 2 
16 11 3 4 4 1 24 25 20 51 51 44 67 64 59 40 34 31 10 2 0 9 1 0 
12 3 2 15 4 4 12 4 3 12 5 4 13 8 6 14 11 8 13 10 7 12 9 6 
10 8 2 13 10 4 18 12 6 22 12 5 22 9 3 26 9 4 37 16 12 63 40 35 
104 80 65 169 145 101 189 166 117 200 176 126 205 181 130 213 187 135 217 191 137 215 190 134 
218 192 133 221 195 134 226 199 137 224 197 132 217 190 123 202 175 108 194 167 100 184 158 90 
172 147 78 172 148 79 175 153 82 182 160 89 187 167 96 193 173 102 199 179 108 208 188 116 
213 197 131 213 206 153 220 212 161 227 218 169 234 223 176 236 224 178 235 222 177 232 217 173 
224 208 164 215 198 153 205 187 141 191 171 122 179 158 105 168 145 90 156 132 75 145 119 61 
135 108 49 139 110 51 127 97 41 106 74 24 101 68 20 99 65 19 100 65 20 96 61 17 
91 60 16 86 59 17 82 55 14 79 51 12 76 46 11 73 42 9 72 39 9 72 39 9 
75 40 9 78 44 11 84 50 15 101 67 27 118 84 40 135 102 53 149 117 66 167 135 83 
183 152 100 193 164 112 198 169 119 199 170 124 193 163 121 179 150 111 159 131 95 130 101 67 
93 64 39 61 33 18 57 30 17 50 23 13 43 16 10 38 13 10 35 12 12 32 12 13 
29 11 13 26 10 12 23 9 10 20 8 9 13 5 4 12 6 4 26 20 14 49 45 36 
62 60 49 47 46 35 25 23 15 9 7 1 10 8 3 9 6 4 9 6 6 12 9 10 
11 10 10 10 10 8 9 8 7 9 6 5 9 4 5 12 5 6 18 7 8 24 10 11 
30 13 15 35 13 16 40 14 17 44 13 18 48 14 18 53 16 20 59 18 22 65 20 25 
70 20 25 71 18 24 73 18 23 75 19 24 79 21 27 82 22 28 84 23 28 84 22 28 
88 20 27 90 19 26 90 19 26 89 18 24 90 19 22 92 20 22 96 22 23 102 27 26 
111 33 31 117 38 35 121 40 35 121 40 32 116 36 27 116 35 25 119 37 26 121 40 28 
122 42 28 123 43 28 123 43 28 124 44 29 125 45 30 122 45 29 121 44 28 119 43 28 
105 42 29 96 39 27 91 34 24 83 29 19 76 25 14 71 24 11 83 39 24 90 50 32 
103 68 46 175 145 113 204 178 137 209 188 138 212 195 136 213 198 132 213 200 128 213 204 124 
214 206 123 216 208 121 217 208 121 214 205 118 210 201 114 204 194 109 199 189 104 192 183 98 
178 168 85 172 162 79 167 156 75 157 144 65 147 132 58 140 121 52 137 114 50 134 108 50 
131 102 51 129 96 54 83 48 27 44 6 2 51 13 3 54 16 10 56 18 17 56 19 23 
52 18 25 47 16 24 41 14 21 37 12 17 33 11 14 29 9 9 26 8 7 20 6 5 
11 5 5 10 5 5 20 14 14 45 41 40 58 52 52 50 44 44 12 7 7 12 6 6 
16 10 10 18 13 13 
8 5 5 16 11 11 50 36 37 62 46 47 58 42 43 29 15 14 18 6 5 17 9 6 
14 10 6 12 11 7 12 13 7 10 12 6 9 11 6 9 10 5 9 9 3 11 8 4 
15 9 6 21 10 8 28 11 11 34 12 14 41 12 16 47 13 19 53 14 21 56 14 22 
59 14 23 61 13 22 66 13 18 68 14 18 68 16 20 70 21 23 67 20 21 63 18 19 
62 20 20 62 22 21 61 22 20 56 17 14 57 19 15 59 20 17 56 16 13 57 16 14 
57 17 14 56 17 12 51 14 10 46 11 8 45 13 7 43 15 6 41 17 7 41 20 12 
97 78 67 152 142 129 189 202 190 223 236 227 240 251 244 228 242 232 234 246 238 208 218 213 
129 139 135 70 76 75 30 34 35 16 18 22 12 15 19 9 12 16 7 9 14 106 106 113 
177 177 185 206 206 213 222 222 228 230 231 236 231 232 237 232 234 238 231 233 237 226 229 233 
228 232 235 230 234 239 232 237 245 229 235 243 231 237 243 236 244 246 226 237 236 220 234 228 
216 233 223 219 238 225 183 203 187 115 137 117 111 133 112 97 118 95 75 93 69 48 61 39 
29 36 17 20 20 3 31 21 9 40 21 14 48 20 16 52 15 15 58 14 17 65 15 20 
69 16 22 65 17 24 56 20 24 56 20 25 53 19 23 48 17 20 41 11 14 34 8 10 
29 6 7 27 7 6 24 7 5 20 7 4 16 5 3 26 17 14 41 34 30 52 46 43 
48 42 39 35 28 27 16 9 9 13 4 5 15 5 8 19 7 12 17 6 10 14 3 8 
16 4 9 15 3 13 14 3 17 18 6 20 17 4 17 16 1 15 21 3 20 39 17 36 
62 36 58 91 62 85 118 87 111 143 109 135 163 125 154 175 134 165 184 141 173 190 145 180 
198 150 186 204 155 192 208 158 195 210 158 197 211 159 198 213 160 200 216 163 203 219 166 206 
223 169 209 218 172 213 214 175 215 215 176 215 218 178 217 220 179 218 222 181 218 221 181 217 
220 180 215 218 178 212 216 175 208 213 173 205 212 172 202 213 172 201 212 171 198 209 168 194 
205 166 189 203 163 186 203 161 184 204 163 184 202 161 181 196 154 174 172 131 149 150 109 126 
131 89 106 92 41 55 71 17 29 68 15 26 66 14 25 63 12 22 59 8 18 59 9 17 
59 10 17 59 12 17 59 12 17 58 12 16 57 11 14 62 16 19 66 18 21 68 19 22 
69 19 22 71 19 21 72 18 21 75 19 22 77 19 23 78 19 24 79 19 23 79 18 23 
79 18 23 78 18 25 77 18 25 76 17 25 75 16 23 74 16 23 74 15 23 73 15 22 
73 16 22 73 16 23 72 17 23 70 18 24 69 20 25 67 21 25 62 20 23 56 17 19 
50 16 17 46 16 16 41 16 15 34 14 10 26 9 5 19 5 1 16 6 1 18 9 3 
17 11 4 5 3 1 25 24 20 53 50 44 68 63 59 42 34 31 12 2 1 13 1 1 
16 3 3 17 4 5 15 4 4 15 6 5 16 7 6 16 9 8 15 9 7 13 8 5 
10 6 1 14 8 3 20 11 5 25 12 6 25 9 3 29 9 4 41 17 12 63 36 31 
98 71 56 154 130 86 176 152 102 188 164 113 194 169 118 207 183 128 216 191 135 217 191 133 
217 191 131 219 193 130 224 197 132 219 193 126 207 181 112 186 160 91 175 150 80 167 142 73 
162 138 69 167 145 74 174 153 82 182 163 91 188 169 98 194 175 105 200 181 111 209 190 120 
213 198 133 213 206 153 218 210 159 225 216 166 232 222 174 232 220 173 229 216 169 223 209 163 
219 203 156 214 197 150 209 191 142 194 174 124 185 164 111 180 157 102 163 140 83 145 120 63 
127 100 44 133 105 49 124 95 41 105 75 25 103 71 24 100 68 22 96 64 19 93 60 17 
90 59 17 86 59 18 82 55 16 81 53 15 80 51 16 77 46 14 73 41 11 71 38 8 
73 39 9 76 42 10 81 47 13 90 57 20 97 64 24 106 73 31 133 101 53 160 129 79 
183 153 103 186 156 107 190 161 114 192 164 120 185 157 116 169 142 104 146 119 85 110 83 51 
77 48 26 52 23 10 49 21 10 46 19 10 42 16 11 38 13 11 35 12 12 32 11 13 
29 11 13 26 10 11 23 8 9 20 7 7 13 3 3 12 5 3 26 20 13 49 44 34 
61 57 47 47 43 33 25 22 14 10 6 1 10 5 1 9 4 2 9 5 5 13 7 9 
12 9 9 11 9 8 11 7 6 11 5 5 12 4 5 15 5 6 20 7 8 26 10 11 
33 12 15 38 13 17 42 13 17 46 13 18 51 15 19 56 17 21 61 18 23 67 20 24 
71 20 25 72 19 25 73 18 23 74 18 23 77 18 24 80 20 25 83 21 26 84 23 27 
86 20 25 87 19 24 88 19 24 87 19 22 88 19 21 90 21 21 93 23 21 99 27 23 
107 33 28 113 39 32 116 41 32 115 39 30 110 34 23 109 33 21 111 35 22 112 37 23 
113 38 23 112 38 22 111 39 22 111 39 22 112 40 22 111 40 22 110 40 22 108 39 21 
93 36 20 84 32 19 79 29 16 73 24 12 67 22 8 66 24 9 89 50 31 108 73 50 
132 100 72 188 160 124 209 185 141 209 190 137 204 188 127 203 190 121 205 193 118 206 197 116 
209 201 116 212 204 116 213 205 116 211 202 113 206 197 109 199 189 103 192 183 97 185 175 91 
172 162 80 167 157 75 162 151 71 150 137 60 141 126 53 134 116 48 130 108 46 126 100 44 
123 93 44 120 86 46 82 46 24 50 12 3 53 14 3 55 16 10 56 17 18 56 19 24 
53 18 25 48 16 25 43 14 22 39 12 18 35 11 14 31 10 10 27 8 7 22 7 5 
14 7 6 12 6 6 21 14 15 46 40 40 57 51 51 49 43 43 13 7 7 12 5 6 
16 9 9 18 12 12 
12 8 7 17 12 11 52 38 39 65 47 48 60 42 43 28 12 12 18 4 3 18 7 6 
16 9 6 15 11 7 16 13 9 14 12 8 13 11 7 12 10 6 13 8 5 15 8 5 
19 9 7 25 11 10 32 12 13 38 13 16 44 14 18 49 14 20 53 14 22 56 14 22 
58 14 23 61 14 22 64 14 18 64 14 17 64 16 18 67 22 22 61 20 19 55 17 15 
54 19 16 51 19 15 48 18 13 44 14 8 47 17 11 52 22 16 56 25 19 57 26 20 
59 28 21 63 33 25 55 27 22 47 22 18 47 25 18 47 28 19 50 34 21 57 45 29 
95 84 68 137 134 118 179 196 181 213 229 217 232 246 237 229 245 234 236 249 241 205 216 210 
112 124 118 41 48 44 1 3 2 1 3 4 16 19 22 27 31 34 31 33 38 122 123 129 
188 189 195 216 216 223 227 228 235 232 233 239 231 232 236 231 232 237 229 231 235 224 227 231 
227 230 234 231 235 240 236 242 248 223 229 236 218 224 229 218 226 228 194 204 203 187 199 194 
194 210 200 201 218 205 180 199 183 135 156 137 119 140 119 101 122 98 81 100 75 51 66 42 
30 39 18 18 19 2 25 18 5 34 17 8 43 16 11 49 13 12 57 13 15 65 15 19 
70 16 22 66 17 24 56 20 25 55 20 24 52 18 22 47 16 19 41 11 13 35 9 10 
31 8 8 29 9 8 26 9 7 22 8 5 17 4 2 26 15 12 41 32 28 54 45 43 
49 41 39 36 27 26 19 9 10 15 3 6 17 4 9 21 7 13 18 4 10 14 1 7 
18 2 11 23 6 20 29 11 30 37 18 37 38 19 37 39 21 37 46 25 44 63 38 60 
86 56 81 114 82 108 145 111 138 173 135 164 187 146 177 196 153 186 202 158 192 208 161 198 
213 165 203 218 169 207 221 170 209 220 170 209 220 169 209 220 170 210 223 171 211 225 173 213 
227 175 216 222 176 218 217 177 221 218 178 222 221 179 222 222 180 223 223 182 223 223 181 222 
223 181 220 221 179 219 220 178 216 218 176 213 217 176 212 223 182 215 226 185 217 226 185 215 
224 183 212 222 181 209 221 179 208 221 180 208 220 178 205 215 174 199 197 155 180 176 134 158 
153 110 133 109 60 79 85 33 49 82 30 46 78 26 41 71 21 34 63 13 25 58 9 20 
55 7 17 54 7 15 57 11 17 58 12 17 58 12 16 63 16 20 66 18 22 68 18 22 
69 19 22 71 19 22 73 19 22 75 19 22 76 18 23 76 18 23 77 17 22 78 17 22 
78 17 23 77 18 25 76 18 25 75 17 25 75 17 24 75 17 24 75 16 25 74 16 23 
73 16 23 73 16 24 71 17 23 70 17 24 68 18 25 65 19 23 61 19 22 57 18 21 
52 18 19 47 17 17 41 15 15 34 13 10 28 11 6 22 8 4 20 8 2 20 10 4 
18 10 5 7 3 1 27 23 20 54 49 44 69 62 57 44 34 31 15 3 2 17 2 2 
20 4 4 21 5 7 19 5 6 20 7 7 20 8 8 18 8 7 16 7 6 14 6 4 
12 4 1 16 6 2 22 10 5 29 13 8 30 9 5 32 8 4 42 14 9 60 30 26 
88 58 44 130 106 63 155 131 83 173 148 98 182 158 106 202 177 122 215 190 133 218 191 132 
217 190 129 216 190 126 218 192 125 209 182 114 193 168 98 172 147 77 160 136 66 154 131 61 
156 134 65 165 144 73 173 154 83 181 164 93 188 170 101 194 177 108 200 184 115 208 191 123 
212 198 135 212 205 153 217 208 158 222 213 163 227 218 168 226 215 165 222 210 160 216 203 154 
212 196 147 209 191 141 205 188 136 193 174 122 188 167 114 187 165 110 170 147 91 148 123 69 
125 98 45 128 100 47 119 91 40 104 75 27 105 75 28 102 71 26 98 67 23 101 70 27 
102 73 30 101 74 32 97 69 30 96 68 30 96 68 32 89 59 26 81 49 19 73 40 12 
73 40 11 74 40 10 76 42 11 86 53 18 84 51 16 83 51 16 114 83 40 146 116 69 
171 142 94 168 139 93 172 144 100 175 149 107 166 140 101 149 123 88 126 100 68 92 65 37 
65 37 17 47 18 6 45 17 6 43 16 8 41 15 10 38 13 12 35 12 13 32 11 13 
29 10 12 26 9 11 23 8 9 21 7 7 14 4 3 12 5 3 27 20 12 48 42 33 
60 55 45 47 41 32 26 20 14 11 5 1 11 4 2 11 4 3 11 4 5 14 6 9 
14 8 9 14 8 8 14 7 7 15 5 6 16 4 6 19 5 8 24 8 10 30 10 12 
36 12 16 41 13 17 44 13 18 48 13 17 55 16 20 60 19 23 63 18 23 66 19 23 
70 19 24 72 19 25 73 18 23 74 17 22 74 16 21 77 18 22 80 20 25 84 23 28 
85 21 25 85 20 23 84 19 22 84 18 19 85 19 19 88 22 21 91 24 20 95 28 21 
101 32 25 108 38 29 111 40 29 109 39 27 104 34 20 102 32 18 103 34 18 104 35 18 
103 35 18 101 35 17 99 34 15 98 33 14 97 33 14 97 34 14 97 35 15 97 35 15 
81 30 13 72 27 10 68 23 7 61 19 5 60 20 5 64 27 11 93 59 38 124 94 67 
159 131 99 200 176 136 214 192 145 210 192 137 198 183 120 195 182 112 196 186 109 199 191 109 
203 196 110 207 200 112 209 202 112 207 199 109 201 193 104 192 183 96 184 174 89 175 165 82 
165 155 74 160 150 70 156 144 66 143 130 55 136 121 50 132 113 46 127 104 43 121 95 41 
115 85 38 110 76 38 82 45 21 57 18 4 53 14 3 54 15 11 55 16 18 55 17 24 
53 17 26 49 16 25 44 14 22 39 12 18 35 11 14 32 10 10 29 9 7 25 8 6 
18 10 9 15 7 8 22 14 15 45 39 39 56 49 49 49 41 41 13 6 6 13 6 6 
18 10 10 21 14 14 
17 12 12 17 12 12 56 40 41 69 50 52 64 45 46 30 13 13 19 4 3 22 8 7 
21 10 8 21 12 10 21 13 11 20 12 10 19 11 9 18 10 8 20 10 8 23 11 10 
27 12 12 32 13 15 37 14 16 41 14 17 46 14 19 49 14 20 53 14 21 55 14 22 
57 14 22 60 14 22 62 17 19 60 16 16 58 16 16 61 23 21 54 20 17 46 16 12 
47 20 14 43 20 12 39 19 10 39 20 11 43 24 15 54 34 25 79 59 48 85 65 54 
92 72 60 108 88 75 116 98 85 119 104 91 117 104 89 114 104 88 105 99 81 85 81 63 
113 112 92 139 144 124 146 167 147 175 197 178 197 217 200 201 221 205 214 232 218 189 206 194 
104 119 109 38 47 40 1 6 2 2 9 6 37 44 43 71 77 78 98 102 105 167 170 174 
214 216 221 231 233 238 235 237 242 235 237 242 230 232 237 229 231 235 228 230 234 227 230 233 
229 232 235 235 239 242 244 250 253 201 208 212 165 173 176 136 144 146 84 94 92 68 79 74 
85 98 89 110 125 112 128 146 129 140 160 140 135 155 133 117 138 113 89 109 83 57 72 49 
32 43 22 16 21 2 21 17 2 29 15 4 38 13 8 47 13 11 57 14 16 67 16 20 
72 16 22 66 17 23 55 20 25 54 20 24 51 18 21 47 15 17 41 12 13 37 11 10 
34 11 10 32 12 10 29 11 8 24 9 5 18 4 2 27 14 11 42 31 28 57 46 45 
53 41 41 39 27 27 26 12 14 20 5 9 20 3 9 23 6 13 20 4 10 17 2 7 
27 7 18 43 21 38 58 35 57 69 44 67 97 71 95 129 102 127 156 127 153 170 139 166 
180 147 175 187 152 182 193 155 187 198 158 191 206 164 197 211 166 201 214 169 205 219 172 209 
223 175 213 226 178 216 227 178 217 226 177 216 225 176 215 225 175 214 225 176 215 226 178 217 
228 179 218 225 178 222 223 177 225 224 178 225 225 179 225 226 180 225 227 181 226 227 182 226 
227 182 225 227 181 225 226 180 223 225 180 221 225 180 219 233 188 227 237 192 230 238 191 229 
234 188 224 229 184 220 226 180 216 227 181 216 227 182 215 227 181 215 219 174 206 213 167 198 
209 161 193 201 152 177 191 142 162 179 129 150 130 81 99 98 50 66 84 35 51 71 24 37 
60 14 24 50 5 13 53 7 15 56 11 17 60 14 19 64 17 21 67 18 23 68 19 23 
71 20 24 73 21 25 75 21 26 76 20 25 77 19 25 77 18 25 78 18 24 78 17 23 
77 16 23 74 17 24 74 17 25 74 16 26 73 17 25 74 17 25 75 17 26 73 17 25 
73 17 25 73 17 26 72 18 26 70 18 26 68 18 26 63 17 22 60 17 22 58 19 24 
55 19 22 48 17 19 41 14 16 35 12 11 30 12 10 27 11 9 24 12 7 23 11 7 
19 9 6 9 2 1 29 22 20 56 47 43 71 61 57 47 33 32 20 4 4 22 4 5 
25 6 7 26 7 9 24 7 9 25 9 10 25 10 11 21 8 8 19 7 6 17 5 4 
15 4 1 21 7 4 28 12 8 37 16 12 37 12 9 37 9 6 43 12 8 57 23 20 
70 37 26 78 53 21 115 90 48 148 123 75 166 142 91 190 165 111 207 181 124 211 185 125 
210 184 122 206 181 116 201 175 108 183 158 90 168 143 75 158 135 65 150 128 59 148 127 58 
155 134 65 166 147 78 176 158 89 181 166 98 189 173 106 195 180 113 200 185 119 205 190 125 
209 197 137 212 205 154 216 208 158 220 211 161 222 213 163 220 210 159 216 203 153 208 195 143 
202 187 136 198 181 130 194 177 125 186 166 114 172 151 99 155 131 80 153 129 78 145 120 70 
132 107 57 127 101 52 114 87 40 96 69 25 96 69 25 104 76 31 117 90 45 147 120 74 
159 132 88 159 132 92 157 129 90 152 124 87 145 116 82 126 96 63 106 75 44 86 54 26 
80 48 20 76 43 15 73 40 10 79 47 14 78 46 13 76 45 11 81 51 17 96 68 29 
113 86 42 117 90 48 122 96 55 123 98 60 107 82 47 92 68 37 79 55 28 69 44 19 
54 27 10 42 14 3 42 14 5 42 15 8 41 15 10 39 14 12 37 13 14 35 13 15 
31 10 13 28 10 12 26 10 10 25 10 9 19 6 4 18 7 3 31 21 14 52 44 35 
63 56 47 50 42 33 31 22 15 18 8 3 19 8 7 19 8 8 19 8 10 22 10 14 
21 11 13 20 11 12 20 9 11 21 8 10 23 7 9 27 8 10 31 10 12 36 12 15 
42 14 18 46 15 19 49 15 19 52 15 20 60 20 25 65 21 26 64 19 24 67 18 23 
70 19 23 73 21 25 76 22 25 77 21 24 75 18 21 76 19 22 79 21 25 83 23 28 
83 22 23 83 21 21 82 20 20 81 19 17 82 20 17 86 24 20 87 25 18 89 26 18 
92 28 18 100 35 24 105 40 27 107 42 28 103 40 23 102 39 21 102 40 21 103 43 22 
102 43 22 99 42 20 95 39 17 92 37 15 89 35 13 88 35 12 90 38 15 93 42 19 
78 37 16 69 31 12 63 25 6 53 18 4 58 25 9 74 42 21 106 78 52 146 120 89 
186 163 128 209 189 147 217 199 150 215 199 142 203 190 125 198 188 116 198 189 111 199 191 109 
201 194 109 204 197 110 205 198 110 201 194 106 195 187 101 184 175 91 174 164 82 164 154 74 
154 145 66 149 139 62 144 133 57 132 120 48 131 115 47 132 112 48 128 105 46 121 94 42 
111 80 36 97 64 28 75 39 16 56 18 4 53 14 4 53 14 11 54 15 17 55 16 23 
53 16 25 49 16 25 44 14 22 40 13 18 36 12 14 32 11 10 31 11 8 29 11 8 
22 13 13 18 9 10 24 14 16 45 37 38 56 47 48 48 39 41 14 6 7 16 7 8 
21 12 13 24 16 17 
18 13 13 18 12 12 58 42 43 73 52 54 67 47 49 35 16 17 24 7 7 26 10 11 
27 12 12 28 14 14 28 15 15 27 14 13 26 13 12 25 12 11 27 12 11 29 12 13 
33 13 15 37 14 16 40 14 18 43 14 19 47 14 20 50 14 20 53 14 21 56 15 23 
59 16 24 60 17 24 57 18 18 52 16 14 49 15 12 53 22 18 47 21 16 43 21 14 
51 33 24 52 38 27 54 43 30 63 54 41 74 66 52 87 78 65 105 95 80 109 99 84 
114 104 89 126 116 100 134 127 109 138 133 115 135 132 113 133 132 112 123 125 104 100 105 83 
117 124 102 134 147 123 138 163 139 161 187 163 178 203 180 180 203 183 191 214 195 175 196 180 
115 134 120 71 85 74 46 57 49 47 58 52 73 83 79 106 113 112 143 149 150 188 193 196 
222 225 229 238 241 245 238 241 245 235 238 242 230 233 237 227 230 234 228 231 234 231 234 237 
232 236 238 234 239 242 237 245 247 182 190 192 138 146 148 106 114 114 61 69 66 48 58 51 
65 77 67 88 102 88 116 133 115 149 168 147 147 166 143 128 148 122 94 115 88 61 78 53 
35 48 25 17 24 3 21 19 2 28 16 4 38 14 7 48 14 12 58 15 17 68 17 22 
73 17 23 66 18 24 55 20 25 53 19 24 50 17 20 46 14 16 41 12 12 38 12 11 
36 13 12 35 14 13 32 13 10 26 10 7 20 4 2 28 14 12 44 31 29 60 47 46 
55 41 41 41 25 27 30 12 17 25 5 12 24 3 11 28 6 17 28 6 16 32 11 21 
58 34 48 78 51 72 94 65 91 104 73 100 132 100 129 164 131 162 187 153 184 196 160 191 
200 163 195 204 164 198 206 165 199 209 166 201 213 168 203 215 170 206 218 171 208 221 174 211 
223 176 214 226 179 217 227 180 218 227 179 218 225 178 217 225 178 217 225 179 217 226 181 218 
228 182 220 228 181 225 229 180 228 229 180 229 229 180 228 230 181 227 230 181 228 231 182 228 
231 183 228 232 183 228 232 183 228 232 184 227 232 184 226 235 187 229 238 189 231 237 188 230 
234 186 226 231 183 223 229 181 221 231 183 221 232 184 221 233 185 222 229 181 218 226 178 214 
225 175 212 225 177 205 218 172 195 205 158 181 165 118 140 135 88 109 116 70 88 107 61 77 
87 42 56 58 14 24 56 11 20 55 10 18 57 11 17 62 15 21 66 18 22 67 18 22 
70 19 24 72 20 25 75 21 27 76 21 26 76 19 26 76 17 25 75 16 23 75 15 22 
75 15 23 72 16 25 71 16 25 71 15 25 71 16 25 71 16 26 71 15 26 72 16 26 
72 16 26 72 17 27 71 18 27 69 18 27 67 17 26 60 14 22 59 16 23 59 19 26 
56 20 25 49 17 21 41 13 16 35 12 13 32 13 13 30 15 14 28 15 13 25 13 11 
21 10 8 12 3 2 32 21 19 57 45 42 73 59 56 50 33 32 24 5 5 27 6 7 
30 8 10 32 9 12 30 9 11 31 11 13 31 12 14 26 10 11 24 9 9 23 7 7 
21 6 3 27 10 6 36 15 12 45 20 17 45 16 13 44 12 9 46 11 7 56 19 15 
63 28 18 63 36 9 99 73 35 133 107 62 156 130 82 177 152 100 192 166 111 196 169 112 
196 169 109 192 166 103 185 159 94 159 134 68 145 122 56 153 131 63 151 131 63 155 135 68 
166 147 79 175 158 91 183 167 101 188 173 109 195 181 118 201 187 125 204 191 131 205 192 133 
207 197 140 212 205 155 215 206 157 217 208 159 220 211 160 217 206 155 211 199 147 202 189 136 
197 181 129 191 174 122 185 167 115 178 159 107 170 149 98 162 139 90 152 128 80 140 116 69 
127 103 57 120 95 50 119 94 49 122 97 53 123 98 54 129 104 60 140 116 72 167 143 99 
176 152 110 173 147 110 169 142 106 161 133 99 150 122 90 141 111 81 121 91 63 98 67 40 
87 55 30 78 46 20 71 39 11 72 40 11 71 40 10 69 40 9 71 42 9 80 52 17 
92 65 26 101 75 35 106 81 43 106 81 46 90 66 35 75 52 24 62 40 16 55 32 10 
47 22 6 42 14 4 42 15 6 42 15 9 41 15 12 40 15 14 38 14 15 35 12 16 
32 10 14 30 11 14 29 12 13 29 14 12 24 9 6 22 9 4 35 23 16 55 44 36 
66 56 47 54 43 35 36 24 18 24 11 7 27 13 12 27 13 14 27 13 16 30 15 20 
28 14 17 26 12 15 26 11 14 27 9 12 29 9 12 32 10 13 36 12 15 41 14 18 
46 16 21 50 16 21 53 17 21 56 16 22 64 22 27 69 24 29 68 20 25 69 19 24 
71 20 24 74 22 26 76 22 26 77 21 25 74 19 22 75 19 22 77 20 24 80 23 26 
79 21 20 77 19 16 74 17 14 73 16 11 75 18 12 79 22 15 80 23 14 83 25 14 
86 28 16 97 39 24 105 47 30 110 52 34 110 54 33 111 56 34 113 59 36 119 67 42 
123 73 48 126 79 52 124 77 50 120 75 47 116 72 44 116 73 44 119 77 48 124 83 54 
112 79 53 104 73 49 98 68 45 102 73 53 103 76 55 107 82 56 140 117 88 174 152 119 
204 185 147 217 201 157 221 206 156 218 205 147 205 195 129 199 190 118 196 189 111 194 187 106 
194 187 103 195 188 103 195 187 102 190 183 98 183 175 92 172 162 82 161 151 72 151 141 64 
142 134 57 137 128 54 133 122 49 121 108 39 122 106 41 125 106 44 123 100 43 114 88 38 
103 73 31 88 54 21 69 33 11 54 16 4 53 14 5 53 14 11 53 14 17 54 15 22 
52 16 25 50 17 25 45 15 22 40 14 18 36 12 13 34 11 9 33 12 8 31 13 10 
25 13 14 20 9 11 25 14 16 46 36 37 57 47 48 51 40 42 19 8 10 20 10 11 
25 14 16 27 17 19 
18 13 13 18 12 12 59 42 44 75 54 56 71 50 52 40 20 22 31 11 12 32 13 14 
33 14 15 34 16 17 35 17 18 34 15 16 33 14 15 33 13 14 33 13 14 36 13 15 
39 14 16 41 14 17 43 14 18 46 14 19 49 15 20 51 15 21 54 16 22 57 18 25 
59 19 26 59 20 26 52 20 18 45 17 12 41 15 9 44 22 15 42 24 16 43 30 20 
61 53 40 69 64 50 77 76 60 95 96 79 111 112 95 123 124 107 128 128 110 129 130 111 
132 132 113 136 137 117 141 143 122 143 148 126 139 146 123 138 146 123 130 142 117 113 127 101 
120 135 109 128 148 121 133 162 134 148 178 150 158 187 160 155 182 157 164 190 167 159 184 163 
130 152 134 112 132 117 104 121 109 107 121 111 117 129 123 138 148 144 172 181 179 199 207 207 
222 228 230 240 245 247 238 243 245 234 238 241 229 233 235 226 230 232 228 232 234 233 238 240 
235 239 241 234 240 241 231 240 241 165 174 174 117 126 125 86 94 92 61 69 65 57 66 58 
72 82 70 87 100 85 114 130 112 151 170 148 153 172 148 133 153 126 96 117 88 63 82 54 
37 52 27 18 28 4 22 22 3 29 18 5 38 16 8 49 16 14 60 17 19 70 18 23 
73 17 23 67 18 24 55 21 25 53 19 23 49 17 19 45 13 15 41 12 12 39 13 12 
38 15 13 38 16 14 34 15 12 29 12 8 22 5 3 31 15 13 47 32 30 63 46 47 
57 39 40 42 23 26 33 12 18 29 6 15 29 5 15 35 9 22 38 11 25 50 22 37 
95 66 84 120 88 113 134 99 131 142 105 137 161 123 157 181 143 178 194 155 190 198 157 192 
199 157 193 203 160 196 209 165 201 214 169 206 216 170 207 217 171 208 218 172 209 220 173 211 
223 175 213 224 177 216 225 179 217 225 180 218 225 180 218 225 181 218 226 182 219 227 184 220 
228 185 222 231 184 227 233 182 230 233 182 230 233 182 229 233 182 229 233 182 229 233 183 229 
234 184 230 236 186 231 236 187 232 237 187 232 237 187 231 236 187 230 235 186 229 234 185 228 
233 183 226 232 183 224 232 183 224 234 185 225 235 186 226 236 187 226 234 185 224 231 182 222 
227 177 217 226 180 211 220 176 202 209 164 190 192 147 172 174 129 152 155 110 131 155 111 130 
123 80 96 65 22 35 60 17 27 56 12 21 54 9 16 60 14 20 63 16 21 65 16 21 
68 17 22 71 19 25 75 21 27 76 20 27 75 19 26 73 16 24 72 13 22 72 12 21 
73 13 22 70 14 25 68 14 25 68 14 25 68 15 26 68 14 25 68 14 25 69 15 26 
69 15 27 69 16 27 68 17 27 68 17 28 66 17 27 58 12 22 58 15 23 60 20 27 
57 20 27 49 17 23 41 13 17 35 12 14 33 14 16 33 17 18 32 18 18 28 15 15 
22 10 9 15 3 2 34 21 19 60 44 40 74 58 54 52 33 32 29 6 7 32 8 11 
35 10 13 37 11 15 35 10 14 37 13 17 37 15 18 32 13 15 31 11 13 29 10 11 
27 9 6 34 13 10 43 18 15 52 24 22 52 20 18 51 15 12 50 10 7 56 15 12 
61 22 14 60 32 7 90 62 29 121 93 52 145 117 73 163 136 88 174 147 96 175 148 93 
176 150 92 175 149 89 168 143 81 139 115 53 131 108 45 154 133 67 159 140 74 167 149 83 
181 164 99 187 172 108 191 178 115 196 183 123 203 191 132 208 196 140 210 199 145 207 197 143 
207 198 146 211 204 155 212 204 156 215 206 156 218 208 157 214 203 151 208 196 142 198 185 131 
192 177 123 185 169 115 177 160 107 171 152 101 171 151 101 175 154 105 150 127 81 131 108 64 
118 94 52 113 89 49 130 106 65 161 137 96 161 139 97 162 140 99 163 142 101 177 156 115 
179 157 118 173 148 114 169 142 109 158 130 100 145 117 89 151 121 95 134 104 79 107 77 53 
93 62 39 80 48 25 69 38 13 66 35 8 65 35 7 65 36 7 68 40 8 74 47 14 
82 56 21 93 68 32 98 74 39 97 74 42 86 63 35 71 49 24 56 35 13 47 26 7 
43 19 5 42 15 5 42 15 8 42 16 11 41 16 13 41 17 16 39 15 16 36 12 16 
33 11 16 32 12 15 32 14 15 33 17 16 28 12 8 26 11 5 38 24 16 57 44 35 
68 56 46 57 43 35 40 25 20 30 14 11 34 17 17 34 17 20 35 17 22 37 19 25 
34 15 20 31 12 16 30 11 15 31 10 14 34 10 14 37 11 15 41 13 17 46 15 20 
50 16 22 54 17 22 57 17 22 59 17 22 67 22 28 71 25 30 70 22 26 71 21 25 
72 21 25 74 22 26 75 22 25 75 21 24 73 19 22 73 19 21 74 20 22 76 21 24 
73 19 16 69 16 11 66 13 6 65 13 5 68 16 6 74 21 10 72 20 8 74 22 9 
78 26 13 95 43 26 107 56 36 116 65 44 125 76 52 131 84 58 135 91 63 147 104 76 
158 118 88 168 130 99 169 131 101 165 130 99 160 127 94 161 129 96 166 134 102 172 141 108 
164 139 110 157 134 106 152 129 102 166 145 117 163 143 115 155 136 107 182 163 132 202 186 150 
219 204 164 225 211 166 225 214 162 220 211 151 208 199 133 200 193 121 194 189 112 191 184 104 
189 182 100 188 181 98 187 179 97 182 174 93 174 165 86 162 152 75 151 140 66 140 129 57 
130 122 50 127 118 46 122 111 42 111 98 33 113 97 35 118 99 39 115 93 38 107 81 33 
96 65 26 80 46 16 64 28 8 53 15 4 54 14 7 53 13 12 53 13 18 52 14 22 
52 16 25 50 17 25 46 16 22 41 14 17 37 12 12 35 12 9 35 14 9 33 15 11 
27 14 16 22 9 12 26 13 16 47 35 37 60 48 50 55 43 45 24 12 14 26 13 16 
29 17 19 30 18 20 
17 12 12 21 15 15 59 42 43 75 54 54 73 52 53 46 25 25 38 16 16 39 17 18 
39 16 17 39 16 17 40 17 18 39 15 16 39 14 16 40 13 15 40 13 15 41 13 15 
42 14 16 44 14 17 46 14 17 48 14 18 51 16 21 53 17 22 56 19 24 57 19 25 
58 21 26 57 22 25 49 24 20 42 23 15 38 21 13 37 24 14 40 32 19 50 47 32 
77 80 62 92 98 80 105 114 94 120 131 110 127 139 117 132 144 121 139 151 127 145 156 132 
150 160 136 151 161 136 153 165 140 155 168 143 151 167 140 149 167 139 144 164 135 132 154 125 
131 154 125 127 153 122 113 146 113 118 152 119 120 153 122 115 146 116 126 155 128 134 162 137 
134 160 138 144 167 149 155 175 159 164 181 169 167 181 172 172 185 177 180 191 186 201 211 207 
220 229 226 235 243 241 234 241 240 230 237 237 224 230 230 223 228 228 226 231 231 233 239 239 
236 241 241 238 244 244 238 249 247 152 163 160 89 99 95 48 57 52 48 57 50 54 64 53 
65 76 63 80 93 77 104 119 100 134 153 130 146 166 139 129 150 122 90 112 83 60 80 52 
37 52 27 20 30 7 23 25 6 29 22 7 39 19 10 49 18 15 60 18 19 70 18 22 
71 15 21 65 17 22 55 21 25 53 19 23 49 17 19 45 14 15 41 13 13 39 13 12 
39 15 13 39 18 14 37 17 13 32 14 9 26 8 5 34 17 15 50 33 32 63 45 45 
56 36 38 41 19 23 35 10 18 34 8 18 38 10 22 44 15 28 48 17 32 65 31 50 
128 94 115 164 126 155 183 142 177 182 139 175 190 147 184 201 158 194 207 162 200 206 162 199 
206 160 198 210 163 201 217 170 209 223 176 215 224 177 216 223 175 213 221 174 211 222 175 213 
224 177 215 225 179 217 226 181 218 226 182 219 226 184 220 226 186 221 227 187 221 227 189 222 
228 189 224 232 187 227 235 185 229 234 184 229 234 184 228 234 184 228 234 184 228 235 185 229 
236 186 230 237 187 231 237 189 232 238 190 233 239 191 233 238 190 231 237 189 230 237 189 230 
236 189 230 236 188 229 235 187 228 236 188 229 237 189 230 237 190 230 236 188 229 234 186 227 
232 182 224 228 184 217 224 182 211 218 176 205 214 171 198 208 165 190 200 157 181 212 169 190 
163 121 139 61 19 34 64 22 34 63 20 31 59 15 24 61 15 23 62 15 21 63 15 20 
65 16 22 69 18 24 73 20 27 75 20 28 74 18 27 73 15 25 71 13 23 70 11 22 
69 11 21 66 12 23 65 13 25 66 14 25 65 14 25 65 14 25 65 13 25 66 13 24 
67 14 26 68 16 28 68 16 28 67 17 28 65 17 27 57 12 21 56 14 23 59 19 27 
56 20 27 49 17 23 40 12 17 36 11 15 35 14 17 35 18 20 34 19 20 30 16 17 
25 12 12 19 4 3 38 21 19 62 43 41 77 57 55 56 33 33 33 7 9 38 10 14 
41 12 16 42 13 18 41 12 17 44 15 20 44 17 21 38 14 17 37 13 16 36 12 14 
33 10 9 39 14 12 48 20 18 58 27 25 58 23 21 56 17 15 52 10 7 57 12 10 
59 17 11 56 26 6 79 50 22 105 75 40 128 99 59 145 117 73 152 124 78 144 117 68 
149 124 70 152 127 70 147 122 65 135 112 53 137 115 55 160 140 77 172 153 91 183 166 104 
194 178 117 198 185 125 202 190 132 204 194 139 211 201 150 215 206 157 215 206 159 212 204 158 
211 202 156 210 202 154 211 202 154 212 203 153 214 204 153 212 201 148 206 194 140 196 184 129 
190 175 120 182 166 112 175 157 104 167 148 97 165 145 96 165 144 99 129 108 65 111 90 49 
108 86 48 112 90 53 146 125 87 199 178 140 200 181 143 194 175 137 183 166 126 182 164 125 
179 159 123 175 151 119 177 151 122 168 141 114 156 128 103 169 140 116 147 118 96 110 81 60 
95 64 44 81 50 29 69 39 16 63 33 9 62 33 6 63 36 7 63 36 7 66 41 10 
71 47 15 80 57 24 84 62 30 84 63 34 76 56 30 65 45 23 55 34 15 49 29 12 
44 20 8 41 13 5 41 14 7 41 15 11 41 16 14 41 17 17 40 16 18 38 15 19 
34 12 17 33 13 16 34 15 16 35 18 17 29 13 9 26 11 4 37 23 14 56 42 32 
67 52 42 56 41 32 42 24 18 33 14 11 39 18 19 39 18 22 40 18 24 40 19 28 
37 15 21 35 12 15 34 10 15 35 9 14 36 9 14 40 10 16 44 13 18 48 14 20 
53 16 22 56 16 22 58 16 22 60 16 21 66 20 25 71 22 27 70 21 26 70 20 24 
71 20 24 71 20 24 72 20 23 72 19 22 72 20 22 72 20 21 71 20 21 70 19 19 
62 13 10 59 11 4 60 12 4 62 15 4 67 20 7 76 28 14 64 17 7 59 13 4 
60 15 5 87 43 25 108 65 41 124 82 56 154 114 86 171 133 103 178 142 110 193 160 127 
208 177 144 222 192 159 224 197 163 223 197 163 220 196 161 220 198 162 225 204 168 232 212 176 
231 214 181 226 210 179 219 203 173 218 203 173 218 204 173 219 205 175 222 209 175 227 215 178 
232 221 180 231 221 175 229 220 167 223 216 157 211 205 138 204 198 127 200 195 119 196 190 112 
194 188 108 194 187 107 193 185 106 186 178 100 177 167 91 163 152 79 151 139 69 138 127 58 
122 114 45 117 109 41 114 104 38 106 94 32 108 92 33 112 93 37 113 90 38 104 77 32 
92 61 24 77 42 14 64 27 7 56 17 5 55 15 10 53 13 14 52 12 18 51 13 22 
52 16 25 51 17 26 46 17 22 41 14 16 36 12 11 36 12 9 36 15 10 35 17 12 
28 15 16 22 9 12 27 14 16 48 36 38 63 50 53 60 47 50 31 18 20 31 19 21 
33 21 23 31 18 20 
18 13 13 25 19 18 59 42 42 73 52 52 71 50 51 48 25 26 41 17 18 44 19 20 
44 18 19 44 17 19 45 17 19 44 14 17 44 13 16 45 13 16 44 12 15 45 12 16 
47 14 17 49 15 18 49 15 19 50 15 19 50 15 20 52 16 21 53 17 22 54 19 23 
56 20 25 57 25 27 58 40 34 59 47 37 62 53 42 71 66 52 69 69 53 72 77 59 
101 111 91 114 128 107 123 140 117 133 152 127 138 158 132 142 163 136 148 169 141 154 174 146 
157 176 149 157 177 149 160 181 152 162 183 154 159 183 152 157 183 152 153 181 149 143 173 140 
140 171 138 135 167 133 122 159 122 118 155 118 113 149 113 104 137 105 109 141 110 114 144 116 
116 144 119 125 151 129 136 159 140 147 166 152 157 174 162 169 183 174 184 196 189 205 216 210 
222 232 227 234 244 239 234 242 239 230 238 236 223 231 229 223 230 228 226 232 231 233 240 239 
236 243 241 238 246 244 238 252 247 136 149 144 64 74 68 20 26 21 28 37 29 40 50 38 
54 65 50 73 85 68 88 104 83 102 121 96 115 136 109 106 128 99 79 101 72 53 73 45 
33 49 23 19 31 7 23 27 7 29 23 8 38 19 10 48 18 15 58 17 19 68 17 21 
69 13 19 63 15 21 55 21 25 53 20 24 49 18 20 45 15 16 41 13 13 39 13 12 
39 15 12 40 18 14 39 18 14 36 16 12 30 11 7 38 19 17 53 33 32 66 45 47 
60 38 41 47 23 28 45 18 26 52 22 33 64 33 46 87 54 69 97 62 80 111 74 94 
155 117 139 182 140 170 197 151 190 197 150 190 203 155 195 209 161 201 213 164 204 212 163 203 
211 163 202 215 166 205 221 172 211 227 178 217 229 180 219 227 180 218 226 179 216 226 180 217 
227 181 218 227 183 219 227 184 220 227 186 220 226 187 221 227 188 222 227 190 222 227 191 223 
227 191 224 232 189 226 235 188 228 234 187 227 234 187 227 235 187 227 235 188 228 236 189 229 
237 189 230 237 190 231 238 192 232 238 193 233 239 194 233 238 193 232 237 193 231 238 193 232 
235 191 229 234 189 228 233 188 228 234 189 229 235 190 230 236 191 231 236 191 231 236 190 230 
234 188 228 229 187 223 226 186 218 225 184 215 224 183 212 223 182 209 221 180 206 226 185 208 
191 150 170 121 81 97 116 75 89 102 59 72 80 36 48 69 23 33 63 16 24 62 14 20 
62 12 19 64 13 21 69 16 24 71 17 25 71 15 25 70 13 23 68 10 21 67 9 19 
66 8 19 62 9 21 60 10 22 60 10 22 61 11 23 61 11 23 62 11 23 63 11 24 
64 12 25 65 14 26 65 14 26 64 14 26 62 14 26 57 12 23 56 14 24 57 17 27 
54 18 26 47 15 22 40 12 18 36 11 16 34 13 17 34 17 20 34 18 20 32 17 19 
28 14 15 24 6 4 42 22 19 65 43 41 79 56 55 59 33 34 38 9 11 43 12 16 
46 14 19 47 15 20 46 14 19 48 17 22 49 19 24 42 14 18 41 14 17 40 13 16 
38 11 11 43 14 14 51 19 19 61 26 25 61 23 22 59 17 16 55 9 7 57 9 8 
58 13 8 54 22 5 69 38 14 87 55 25 104 74 39 127 97 58 137 109 66 128 102 56 
131 105 56 134 109 57 134 110 56 143 120 63 156 134 76 172 153 94 186 168 109 196 180 121 
202 188 131 205 193 138 207 196 145 209 200 151 216 208 162 219 212 170 219 212 172 220 213 174 
217 210 169 211 202 155 211 201 154 211 202 152 212 203 151 210 199 146 203 190 136 191 178 123 
185 170 115 178 161 107 170 152 100 163 144 93 160 140 92 158 137 94 133 113 71 127 106 68 
135 114 78 134 113 79 150 130 96 175 156 122 162 145 111 145 129 94 127 112 77 131 117 81 
141 123 90 157 133 105 189 163 137 194 168 144 186 159 136 190 162 141 148 119 99 88 59 40 
82 52 34 73 43 25 64 35 15 60 31 9 60 32 7 62 34 7 62 36 8 63 39 9 
66 43 12 72 50 19 75 54 25 76 57 30 74 55 32 69 50 30 63 44 27 60 40 25 
50 27 16 41 14 7 40 13 7 40 14 10 40 15 13 41 16 16 40 15 18 38 14 18 
34 11 16 33 12 15 34 14 15 36 17 17 32 14 11 31 14 7 41 24 16 59 42 32 
69 51 42 57 40 31 44 24 18 36 15 12 42 19 21 43 19 24 43 19 26 44 18 29 
41 16 23 40 13 18 40 12 17 40 11 17 42 11 17 45 13 19 49 15 21 53 17 23 
57 18 24 60 18 24 62 18 23 63 17 22 67 19 24 69 20 25 69 20 24 69 19 23 
69 18 22 67 16 20 67 17 19 67 17 19 68 17 19 68 18 19 67 18 18 66 17 16 
59 14 8 58 14 4 63 19 7 71 28 15 86 43 27 107 65 47 107 64 49 109 68 52 
115 75 57 145 106 82 167 130 102 182 148 117 195 163 131 204 174 140 210 182 147 220 194 159 
229 205 170 237 216 179 238 219 182 236 219 182 233 217 179 233 220 181 236 224 185 241 229 191 
241 231 195 239 229 195 235 225 192 234 225 192 235 227 193 236 228 194 236 228 192 236 229 190 
237 229 187 233 227 179 229 224 171 225 220 161 218 214 148 214 210 139 212 208 134 210 205 128 
209 203 125 209 202 124 205 197 121 196 187 112 184 174 101 167 156 87 153 141 74 137 126 61 
114 106 41 108 100 36 108 98 35 103 91 31 105 89 32 107 88 34 108 85 36 100 73 31 
89 58 23 75 40 14 65 28 9 58 19 8 56 16 12 54 13 15 51 12 18 51 13 22 
51 16 25 51 18 26 47 18 22 41 14 16 36 12 10 35 12 7 37 16 9 37 18 12 
30 16 17 24 10 13 28 14 17 51 36 39 67 52 55 65 51 54 37 23 25 37 23 26 
38 23 26 32 18 21 
21 16 16 29 23 23 60 43 43 72 51 51 70 48 48 48 24 25 42 17 19 46 19 21 
47 18 21 49 18 21 51 18 21 48 15 19 49 14 18 49 13 18 47 11 16 49 12 17 
52 14 19 54 16 21 53 16 21 52 15 20 50 14 19 50 15 19 51 16 21 52 19 23 
55 22 26 59 31 32 69 58 49 79 73 61 91 87 74 109 112 95 104 111 92 100 112 92 
123 141 118 132 153 129 136 161 135 140 167 139 145 173 145 151 179 150 156 184 153 159 187 157 
161 189 158 161 189 158 164 192 161 165 194 163 163 194 161 162 194 160 158 192 158 149 186 151 
147 183 148 144 181 145 138 178 137 127 166 127 115 154 115 105 142 105 104 139 104 102 135 103 
97 128 99 97 125 100 102 127 106 113 135 117 131 150 135 153 169 158 181 195 186 204 217 209 
221 233 226 233 243 237 234 243 238 231 240 236 224 233 229 224 232 229 228 235 232 234 241 238 
236 243 240 237 247 242 237 252 244 125 140 132 47 58 51 1 7 1 12 20 11 27 37 24 
46 57 40 70 83 64 78 93 71 72 91 65 83 104 77 80 103 74 67 90 60 45 66 37 
28 46 19 18 31 6 22 28 7 28 23 8 36 19 9 47 17 14 57 17 18 66 16 21 
67 12 18 62 15 20 55 21 25 53 21 24 50 19 21 45 16 17 41 13 13 39 13 12 
38 14 11 40 17 14 40 18 15 39 18 14 35 15 11 43 21 19 55 34 33 69 46 48 
67 42 46 58 32 37 59 29 38 73 41 53 96 61 76 132 96 113 148 109 129 158 118 140 
178 137 161 191 145 179 201 150 192 204 153 195 209 157 200 214 162 205 216 164 207 216 165 206 
217 165 206 220 168 209 224 172 213 228 177 217 231 181 221 231 183 221 231 184 221 230 184 221 
229 185 221 229 186 222 229 187 222 227 188 222 227 189 221 227 190 222 227 191 222 227 193 223 
226 194 223 231 192 225 234 191 226 234 191 226 234 191 226 234 192 227 235 192 228 235 193 229 
236 194 230 237 194 230 237 196 231 237 197 232 237 197 232 236 196 232 236 196 232 236 196 232 
233 193 228 231 191 227 232 191 229 232 191 229 233 192 230 233 193 231 234 194 232 234 194 232 
233 193 231 230 191 227 229 190 224 230 191 224 229 190 220 229 190 218 230 191 218 226 186 211 
211 172 194 187 148 166 172 131 147 143 101 115 103 59 72 80 35 46 66 20 29 61 13 21 
58 9 17 59 8 17 63 11 19 66 12 22 67 12 22 66 10 21 64 7 18 63 7 17 
63 7 18 59 8 20 57 8 21 57 7 21 58 9 22 59 10 23 61 10 24 62 12 25 
62 12 26 62 12 25 63 13 26 62 13 26 60 13 26 58 13 25 57 14 26 55 15 26 
51 15 25 45 13 22 40 11 19 36 10 17 33 12 17 32 14 19 33 17 20 33 18 21 
32 17 19 28 8 5 45 23 19 67 43 41 81 55 55 62 34 34 42 11 12 48 15 18 
51 16 21 51 16 22 49 15 21 52 19 25 53 21 26 46 15 20 45 15 19 44 15 17 
42 13 13 46 15 15 53 19 19 63 25 25 64 22 22 62 16 16 57 8 7 59 7 7 
58 10 7 52 18 4 58 26 6 68 36 12 81 50 21 107 76 42 122 93 54 118 91 48 
119 93 48 123 97 50 128 104 53 151 128 74 171 150 94 185 166 111 197 180 125 204 189 135 
204 192 139 204 193 143 204 195 149 205 198 155 213 206 167 217 211 175 215 209 178 222 217 186 
221 215 179 212 203 157 211 201 154 210 200 152 211 201 150 208 197 143 200 187 133 186 173 118 
180 165 109 173 156 102 165 148 95 159 140 90 154 135 88 150 130 87 140 120 80 145 126 89 
162 142 109 156 137 106 145 127 97 129 112 82 106 90 60 81 66 38 58 46 20 74 62 31 
100 83 53 136 113 88 200 175 152 221 195 174 215 190 169 209 182 164 144 116 100 60 32 17 
66 36 21 64 35 19 60 31 14 57 30 10 57 30 7 58 32 6 60 35 8 61 38 9 
62 40 11 67 46 17 71 51 23 75 57 31 80 62 40 79 61 43 77 58 43 75 56 42 
60 38 28 45 18 12 42 15 10 40 14 10 39 13 12 40 14 16 39 14 17 36 13 16 
34 10 14 33 10 13 33 12 14 36 16 16 36 16 13 37 18 12 46 26 19 62 43 34 
71 52 42 59 39 31 46 24 19 39 15 13 45 19 22 46 19 25 46 18 26 45 17 28 
45 16 24 45 15 20 44 14 20 46 13 20 48 13 20 51 15 22 55 17 24 58 19 26 
62 20 26 64 20 25 66 19 25 67 18 24 67 18 23 68 19 23 68 18 23 68 18 22 
66 16 20 64 14 17 64 15 17 63 15 16 61 13 14 62 14 14 62 15 14 63 16 15 
61 19 11 65 26 12 76 35 19 91 52 34 116 78 58 149 112 91 161 124 100 171 134 109 
180 145 117 207 173 144 226 194 163 237 208 174 230 203 169 229 205 169 232 211 174 235 216 179 
237 221 182 238 225 185 237 226 186 235 226 186 232 225 184 233 227 186 233 229 188 235 231 191 
235 230 193 235 230 194 236 231 195 237 234 198 237 234 198 237 234 197 238 235 197 238 235 194 
237 234 189 233 230 182 230 227 173 227 224 165 225 223 157 224 221 152 224 220 148 223 219 143 
223 218 142 222 216 140 217 209 135 206 197 125 192 182 112 174 162 97 159 146 83 142 129 67 
113 105 42 106 99 36 107 97 36 104 92 33 102 88 32 102 84 32 103 80 33 96 69 28 
85 54 22 72 37 14 64 27 10 59 20 11 57 17 15 54 14 17 51 12 18 50 13 22 
51 16 25 51 18 26 47 18 23 40 14 15 35 11 9 34 12 5 37 17 8 38 20 13 
33 17 19 27 10 14 31 14 18 53 37 40 70 53 57 70 53 57 42 26 30 43 26 30 
42 25 29 33 17 21 
25 20 20 32 26 26 61 44 44 73 51 51 70 47 48 46 22 23 42 16 17 47 18 21 
50 19 22 54 19 23 56 20 24 54 17 22 54 15 21 55 15 20 53 13 18 54 13 19 
56 15 21 58 18 24 57 18 24 54 17 22 50 15 19 50 16 20 52 19 23 55 22 26 
60 29 32 67 42 42 75 70 58 89 90 74 105 108 91 121 129 110 126 139 118 128 146 123 
135 158 133 140 167 141 143 174 146 144 177 146 149 183 151 155 189 158 162 196 163 165 199 166 
167 201 168 164 197 165 165 198 165 164 199 165 161 198 162 159 197 161 156 195 159 148 190 153 
147 189 152 146 188 149 143 187 143 131 173 130 121 162 120 116 156 116 114 151 114 109 144 110 
99 132 101 90 120 93 87 115 91 94 118 98 115 135 118 138 156 141 163 179 168 190 204 194 
211 224 216 225 238 229 231 242 235 231 241 235 224 234 228 227 236 231 230 238 234 232 241 236 
234 243 238 236 247 240 237 254 244 130 145 135 52 65 54 3 13 3 10 20 8 26 35 21 
49 60 42 80 92 72 82 98 75 63 82 55 67 88 60 65 88 58 56 81 49 38 60 30 
25 43 16 17 30 6 22 28 8 28 24 9 35 20 9 46 18 14 57 18 19 67 18 22 
68 14 20 62 16 21 53 21 25 53 21 25 50 20 22 46 17 17 42 13 13 39 12 11 
37 13 10 40 16 13 41 18 14 42 19 15 40 18 14 46 24 21 56 34 32 70 46 47 
74 48 51 73 45 51 72 40 50 94 59 73 125 87 105 154 113 134 169 127 149 180 136 161 
196 151 178 201 151 187 203 148 193 207 151 197 212 157 202 218 162 207 221 165 210 222 167 211 
223 168 211 224 169 212 225 172 214 228 175 216 231 180 220 233 183 222 233 185 223 232 186 223 
230 186 222 229 187 221 229 188 222 228 190 221 227 191 221 226 193 222 226 194 223 226 195 223 
225 196 223 229 196 224 232 196 224 232 196 224 232 197 225 232 197 226 233 198 228 233 199 229 
234 199 229 234 199 229 234 200 231 235 201 232 235 201 232 231 198 230 229 195 228 229 195 228 
230 197 230 233 199 232 235 202 236 234 202 236 232 201 234 230 198 232 228 197 230 227 196 229 
227 196 229 230 194 229 231 193 229 232 193 228 229 191 224 228 190 221 228 190 218 227 189 215 
222 182 206 211 172 191 194 153 170 161 119 134 115 72 85 91 47 58 73 28 38 62 15 24 
55 8 16 53 5 13 57 6 15 62 8 19 63 8 19 63 7 18 62 6 16 61 6 16 
62 7 17 60 10 23 60 12 26 61 13 28 62 15 29 64 15 30 65 16 31 66 16 31 
65 15 30 64 14 29 66 16 31 65 16 31 63 16 31 61 16 29 57 15 28 54 13 26 
49 13 24 44 12 22 40 11 20 36 10 18 32 10 17 31 10 17 32 14 20 34 18 23 
36 19 23 32 11 8 48 24 21 69 44 42 84 56 56 65 35 36 45 13 14 51 17 21 
53 18 22 54 17 23 52 16 22 55 20 26 56 22 28 50 16 21 49 17 21 49 18 21 
47 15 16 50 15 16 56 18 19 66 24 26 67 21 23 65 16 17 61 9 10 63 8 10 
61 10 9 48 12 3 50 16 3 55 22 5 65 33 9 85 54 25 101 71 37 106 78 41 
118 90 50 127 100 57 132 108 60 148 126 76 168 148 96 192 174 122 202 186 135 204 189 140 
195 182 135 189 178 134 184 175 135 181 174 137 193 188 155 198 193 164 192 187 162 208 204 180 
215 210 179 213 203 158 209 199 153 207 197 149 208 198 146 207 196 142 199 187 132 184 172 116 
177 163 107 170 154 99 162 144 92 155 137 88 146 128 82 136 117 75 135 116 78 142 124 89 
156 137 106 159 141 112 130 113 85 80 64 37 68 53 27 46 33 15 22 11 4 48 37 14 
81 66 39 125 102 80 207 182 162 234 209 190 228 203 184 221 194 179 143 116 103 44 16 6 
55 26 14 59 30 16 58 31 15 55 29 11 53 27 7 52 27 5 53 29 5 55 32 6 
58 37 9 65 45 18 75 56 30 85 68 44 97 80 60 97 80 63 94 76 62 95 77 65 
77 55 46 56 29 24 49 22 18 44 17 15 40 14 15 40 14 16 38 13 16 35 11 15 
32 9 12 32 9 12 33 12 13 37 16 15 39 19 15 44 24 16 51 30 22 66 45 35 
73 52 42 62 39 31 48 23 19 40 14 13 46 18 21 46 17 23 45 15 24 44 14 25 
46 14 23 48 14 21 48 13 20 49 13 20 52 14 21 55 16 23 58 17 24 61 19 25 
64 19 27 66 19 26 67 19 25 67 18 24 67 17 22 66 17 21 66 16 20 65 15 19 
65 15 19 65 16 19 65 17 19 62 14 15 53 6 6 54 8 7 57 12 11 63 17 16 
72 33 21 86 50 31 105 68 48 130 95 73 159 125 103 192 159 135 196 163 137 200 169 140 
206 176 146 220 191 159 229 202 168 234 210 174 234 213 176 234 216 178 236 220 181 237 223 184 
237 226 186 236 228 187 235 230 188 234 232 189 235 235 191 234 235 193 234 236 195 235 238 197 
234 234 195 234 234 196 235 235 197 235 235 197 234 234 196 232 232 195 233 233 194 234 234 192 
235 234 189 234 232 184 232 231 177 230 229 169 229 227 163 229 226 158 228 226 154 229 225 151 
228 223 149 226 221 147 221 213 142 212 202 133 199 188 122 184 171 109 171 158 98 157 144 84 
130 123 59 123 116 52 121 113 50 112 101 42 103 89 33 97 79 28 100 77 31 91 65 26 
78 48 18 64 31 8 58 22 6 56 17 9 58 18 17 54 15 19 51 13 20 50 13 22 
52 16 25 52 19 27 47 18 23 40 14 14 34 11 7 33 12 4 37 18 7 39 21 13 
36 19 21 30 12 16 33 15 19 54 37 41 71 54 58 71 54 58 45 28 32 46 28 32 
44 27 31 34 17 21 
29 24 24 34 28 28 62 46 46 74 52 53 72 48 49 46 21 22 41 14 16 47 18 20 
52 19 22 57 21 26 61 23 29 59 20 25 59 18 23 58 16 22 56 13 19 57 14 20 
59 17 23 61 19 25 59 19 25 56 18 23 53 17 22 55 21 25 60 28 32 73 42 45 
86 56 59 98 75 74 106 104 90 113 116 99 120 126 108 132 143 123 138 154 132 142 163 139 
144 170 144 146 177 149 146 181 151 143 180 148 147 186 153 157 196 162 174 212 178 181 219 184 
183 220 186 181 217 183 180 217 183 178 216 181 174 214 178 169 211 174 164 207 169 156 201 162 
154 199 160 153 198 158 151 196 152 140 184 140 131 174 130 128 170 128 123 162 123 115 152 116 
105 139 107 91 122 94 81 109 84 76 102 80 86 108 89 94 113 98 100 116 104 147 162 151 
185 199 189 208 221 212 221 233 225 226 237 230 224 235 228 228 238 232 230 239 234 230 239 234 
231 240 234 230 241 234 227 244 233 139 155 144 81 95 83 52 63 50 52 62 49 65 75 60 
91 101 83 117 130 109 109 125 101 72 91 64 63 85 56 56 80 49 50 75 43 34 57 27 
23 42 15 17 32 6 22 29 8 28 25 9 36 20 10 47 19 15 58 19 20 69 19 24 
70 16 23 63 17 23 53 21 25 54 22 25 51 21 23 47 18 18 42 14 14 38 12 10 
36 12 8 39 16 12 42 19 14 43 21 16 43 21 17 49 26 24 60 36 34 76 51 52 
88 61 65 98 68 75 107 74 85 129 93 107 154 115 133 176 134 155 187 143 167 195 150 176 
205 159 186 208 156 193 209 152 199 215 157 205 221 163 210 225 167 214 227 169 216 228 172 217 
229 173 217 229 173 217 229 175 217 231 177 218 234 181 222 235 184 223 235 186 224 233 187 224 
231 187 223 230 188 222 229 190 223 229 192 223 229 194 223 229 197 225 229 198 225 229 199 225 
228 200 225 230 200 224 231 200 224 232 200 224 231 201 225 231 202 226 232 202 228 233 203 229 
233 203 230 233 203 230 233 203 231 233 203 231 233 203 231 232 202 232 232 203 232 233 204 234 
234 205 236 236 206 238 237 207 239 234 206 238 231 204 236 229 202 233 228 201 232 228 201 232 
229 202 233 231 197 232 233 196 232 236 198 233 234 196 230 232 194 226 228 191 220 228 190 216 
225 187 210 221 181 202 208 168 186 192 151 166 172 129 143 145 101 114 124 79 90 108 61 72 
96 48 58 91 42 52 93 42 53 99 45 57 101 46 59 102 45 58 102 45 57 102 45 58 
103 46 59 103 53 68 104 57 73 105 58 74 105 57 74 105 56 73 104 54 71 100 49 67 
94 44 61 88 37 54 83 33 50 77 29 44 70 23 38 64 19 33 58 15 29 52 12 24 
46 10 22 43 11 21 40 11 21 36 11 19 32 9 16 29 8 15 30 12 18 35 18 24 
38 21 25 34 12 10 49 25 22 70 44 42 85 56 57 67 35 36 47 13 15 53 18 22 
55 19 23 55 18 23 54 16 23 57 20 27 59 23 29 53 19 23 53 20 24 54 20 24 
51 18 19 54 18 19 60 20 21 68 26 27 70 23 24 68 18 19 65 11 12 67 12 13 
64 12 11 48 11 3 46 12 2 49 15 3 55 23 4 68 37 14 81 50 21 89 61 28 
104 77 39 117 91 49 126 101 56 140 117 70 162 142 93 195 177 129 201 184 136 196 182 135 
182 170 126 166 156 116 142 133 97 106 99 68 104 98 75 105 100 80 106 102 81 166 163 143 
198 193 165 198 188 144 196 186 140 198 188 140 203 194 142 207 195 142 202 189 134 189 177 120 
179 165 109 170 154 100 161 144 92 155 137 88 147 129 83 138 120 78 146 127 90 153 135 102 
161 144 114 172 155 128 127 111 88 47 33 15 50 37 15 35 24 9 14 5 2 57 48 27 
98 83 57 139 116 96 201 177 158 226 202 183 228 203 186 215 189 175 137 111 99 41 13 3 
50 22 11 54 26 13 54 27 13 53 26 9 50 24 6 47 23 4 48 24 4 49 26 4 
52 31 7 63 43 17 77 58 33 96 79 57 134 117 98 143 127 111 140 123 110 130 114 102 
104 83 75 77 50 45 64 37 34 52 25 24 43 17 17 40 14 17 37 12 15 34 10 13 
32 8 12 32 10 13 34 13 14 38 17 16 42 21 16 46 25 18 52 31 22 66 44 35 
73 50 40 60 36 28 45 20 15 37 10 9 42 13 17 42 12 18 40 10 18 39 8 19 
43 9 18 46 9 17 46 8 16 47 9 16 49 10 17 52 11 19 55 14 20 58 15 22 
61 15 23 63 15 22 63 15 21 63 13 20 63 13 18 62 12 17 62 11 16 63 13 17 
66 17 21 73 23 27 81 33 35 84 38 39 82 36 36 92 46 46 105 60 59 121 77 76 
140 103 89 157 123 101 169 135 113 179 146 123 195 162 138 216 184 159 217 187 159 219 190 160 
221 194 162 227 202 168 231 208 172 233 212 175 234 216 178 235 220 181 237 224 184 237 227 186 
237 230 188 235 231 188 235 234 190 236 238 194 237 241 198 237 243 199 237 243 201 237 244 202 
234 238 198 234 237 197 235 238 199 235 238 200 234 236 198 231 234 195 233 235 194 236 237 194 
239 240 194 240 241 191 240 240 186 239 238 180 237 236 173 236 235 167 237 234 163 236 233 160 
236 232 159 235 229 157 232 225 154 227 217 150 220 209 145 211 199 138 204 191 132 193 180 122 
165 157 93 156 149 85 153 145 82 146 135 74 129 115 58 112 95 43 108 86 39 93 67 29 
76 47 17 61 28 7 55 18 4 53 15 7 58 18 18 55 16 20 51 13 20 50 13 22 
52 16 26 52 19 27 48 18 23 40 14 14 34 10 6 32 12 3 36 18 6 40 22 13 
39 21 24 32 14 18 34 17 21 55 37 41 71 54 58 72 54 58 46 29 33 47 29 33 
45 28 32 35 18 21 
32 25 24 35 27 26 64 46 45 76 54 53 75 50 50 49 21 22 45 14 15 52 17 21 
57 18 23 64 21 27 69 23 31 68 20 28 66 18 26 65 16 24 61 13 20 61 14 21 
61 18 23 60 20 24 57 20 24 53 21 22 51 22 22 59 34 32 73 51 48 91 72 68 
108 91 85 123 111 102 130 138 118 130 144 121 130 146 122 139 158 133 144 167 141 148 174 147 
149 179 151 149 181 153 145 179 150 133 168 137 141 177 146 160 196 165 189 224 192 199 233 201 
202 236 204 200 234 203 196 231 199 192 227 195 187 224 191 179 218 183 170 211 175 162 203 168 
158 200 164 156 199 160 155 200 154 146 191 145 139 182 138 136 179 134 128 170 127 119 159 119 
110 148 110 96 131 96 81 114 82 67 97 69 64 92 66 58 83 60 44 67 46 96 117 99 
140 159 143 166 184 170 188 205 192 206 221 210 218 230 222 223 235 227 227 237 231 227 237 232 
227 236 231 223 234 228 216 231 222 156 171 161 123 136 126 116 127 114 106 117 103 109 121 105 
125 137 119 136 151 128 117 135 109 73 95 66 57 81 51 47 73 42 42 68 36 29 54 23 
21 42 14 18 34 7 21 30 9 27 25 10 35 21 11 46 20 17 58 20 22 68 21 26 
70 18 25 64 18 25 55 20 25 55 20 26 53 20 24 49 18 20 44 14 15 39 12 11 
37 12 8 40 15 12 43 18 15 45 21 18 46 21 18 53 27 26 65 37 37 80 51 55 
104 73 80 129 96 106 147 111 125 164 125 144 180 138 161 194 151 177 201 157 185 205 160 190 
210 163 195 213 161 201 216 160 206 222 166 212 227 170 216 230 174 219 231 174 219 232 177 221 
233 179 222 232 178 221 232 180 220 233 182 221 235 184 224 236 187 225 235 189 225 234 189 225 
232 190 224 231 191 224 230 193 224 231 195 225 231 198 226 232 200 228 231 202 228 231 203 227 
231 203 228 231 203 226 231 202 225 232 203 225 232 204 227 233 205 228 233 206 228 233 207 230 
233 207 230 232 207 230 230 205 228 227 202 226 225 200 224 221 197 222 221 198 223 227 204 228 
230 206 232 232 209 235 235 211 237 233 210 237 231 208 236 229 207 234 229 207 235 230 207 235 
231 209 237 228 200 230 228 196 227 229 197 227 220 187 217 217 184 213 222 187 215 221 186 211 
223 186 210 225 186 209 218 178 199 219 177 197 224 181 200 199 155 172 179 133 150 164 115 133 
150 100 118 145 94 111 146 94 112 151 97 115 154 99 117 156 99 118 155 100 118 156 99 119 
156 100 120 158 109 129 159 112 133 160 112 133 159 110 132 157 107 129 153 102 125 146 94 117 
137 84 107 126 73 96 113 61 84 101 51 73 90 42 62 79 34 53 65 22 40 52 11 27 
45 9 23 41 9 21 39 10 20 36 10 18 32 8 15 29 7 14 31 12 17 36 18 22 
40 22 24 37 13 11 52 26 23 72 44 42 88 56 57 70 36 37 50 14 16 57 19 22 
60 20 24 61 19 24 61 18 24 63 20 26 65 21 28 62 19 25 63 20 25 63 20 25 
61 18 21 63 19 21 68 21 23 73 25 26 72 23 24 70 18 20 66 13 14 67 14 15 
63 14 14 47 12 8 47 14 9 51 18 11 57 25 13 66 34 15 75 44 18 85 55 23 
99 70 33 112 84 43 121 96 51 133 110 63 156 136 87 196 178 130 202 187 140 198 185 141 
181 171 131 158 149 114 111 103 73 35 29 7 26 20 7 23 19 9 26 23 9 133 130 119 
190 187 166 189 184 144 189 183 142 194 188 145 205 198 151 212 202 153 211 199 148 203 190 136 
191 176 122 180 163 110 169 151 99 162 142 93 154 133 88 147 126 85 151 129 93 162 142 110 
179 161 133 191 174 149 144 128 110 60 46 36 69 56 41 60 48 39 44 36 37 91 83 69 
130 116 98 163 141 125 192 171 155 205 183 168 205 183 168 181 158 146 116 92 81 41 17 5 
45 21 9 47 23 10 47 23 9 48 24 7 46 22 5 43 20 3 43 20 3 44 22 3 
47 27 6 59 40 16 74 56 33 99 84 63 162 147 128 178 164 147 171 158 143 153 140 128 
119 102 93 86 64 57 69 46 42 54 30 28 42 18 17 39 14 16 36 11 14 34 8 12 
33 7 11 35 9 13 38 13 16 43 18 19 46 21 19 49 24 19 54 29 23 66 43 35 
75 51 42 68 44 36 59 35 28 53 28 24 54 26 26 53 25 26 51 22 24 48 18 22 
52 20 23 55 20 23 55 19 22 54 19 21 55 19 21 57 18 21 58 20 22 61 21 22 
63 21 23 66 23 24 68 24 24 69 24 25 68 23 22 68 23 21 71 25 23 78 34 30 
88 44 40 101 57 52 115 73 66 125 85 77 130 90 82 146 107 96 164 126 115 187 148 137 
207 175 152 220 191 162 224 195 166 219 191 160 221 193 161 229 202 168 229 204 168 229 205 168 
229 207 168 231 211 169 232 214 171 232 216 174 233 219 177 235 223 182 237 228 186 237 230 188 
236 231 189 234 231 189 235 236 192 237 240 197 240 244 201 241 246 202 240 246 203 239 246 203 
236 241 199 235 241 199 237 242 200 237 242 202 236 241 201 233 238 198 235 238 198 239 241 199 
243 245 202 244 246 200 245 246 197 245 245 192 243 243 185 243 242 181 243 241 177 242 240 175 
242 239 173 242 237 171 241 235 170 240 232 169 238 228 169 235 225 166 232 221 165 224 214 158 
198 192 128 190 185 119 188 181 117 185 176 112 165 153 92 141 125 69 124 105 55 102 79 38 
81 53 22 64 31 11 54 18 6 50 12 6 56 17 17 55 16 19 52 14 20 51 14 20 
53 17 23 52 20 24 48 19 20 41 14 13 35 11 7 33 11 5 37 16 8 41 20 14 
43 22 24 37 16 20 39 18 22 57 37 41 71 52 55 71 52 55 47 29 32 45 27 30 
42 25 27 35 18 20 
31 17 14 34 20 16 66 46 39 81 57 49 82 53 49 62 26 24 61 17 19 69 18 23 
75 17 24 81 17 26 85 16 29 86 15 28 85 15 28 82 14 28 76 14 24 70 16 22 
64 17 21 54 18 17 47 22 16 41 27 15 37 33 16 64 68 46 96 107 80 101 118 87 
108 128 95 115 141 105 120 161 121 123 167 127 127 170 131 137 180 141 143 183 146 147 183 150 
149 181 151 149 178 151 137 163 139 99 122 98 126 145 124 167 184 165 204 219 200 217 231 213 
222 235 218 219 234 216 207 223 205 196 213 194 188 207 187 178 199 177 168 190 168 158 182 158 
152 177 152 148 178 147 146 187 141 142 184 136 137 181 132 133 178 127 127 173 121 119 166 114 
110 159 105 102 151 98 92 141 88 78 126 74 72 118 68 60 105 57 41 82 37 48 87 46 
58 95 58 70 105 72 107 138 111 147 174 152 191 212 195 205 222 210 215 229 222 223 234 231 
222 231 230 217 225 225 208 217 215 188 198 194 181 192 186 185 197 187 155 170 158 132 150 133 
114 135 115 84 109 84 59 87 59 40 70 39 36 68 35 30 63 29 24 56 21 20 49 17 
17 42 13 16 35 9 17 29 9 23 25 11 32 22 14 42 21 19 52 21 24 61 21 28 
64 18 28 63 16 27 61 14 25 61 15 27 58 15 25 54 15 22 49 12 18 46 11 15 
43 12 13 46 15 15 47 16 17 48 17 18 48 15 18 57 22 27 71 32 40 80 38 52 
121 78 96 169 124 146 181 135 162 190 144 176 198 152 189 203 158 199 206 161 205 208 164 210 
209 165 213 215 169 213 221 173 212 223 175 214 225 177 216 226 179 217 227 180 218 228 182 220 
228 184 221 230 186 223 230 187 223 230 188 223 232 190 224 233 193 225 234 196 227 234 196 227 
232 197 226 231 197 226 232 198 227 232 200 227 232 201 227 233 202 228 233 203 228 232 203 228 
233 204 229 234 202 229 235 201 229 234 202 229 235 204 230 237 207 232 237 209 233 235 210 232 
232 210 230 229 209 228 221 204 219 211 196 210 200 186 200 177 165 177 171 160 171 188 178 189 
201 189 202 212 200 214 225 211 226 228 215 230 230 216 233 231 216 232 231 214 233 230 214 233 
230 213 232 215 201 216 203 191 203 196 182 194 155 139 154 155 135 152 194 170 189 199 171 192 
210 178 202 228 191 218 222 182 211 224 181 211 232 186 218 223 173 207 216 164 199 211 157 193 
207 153 189 206 153 188 208 156 190 209 158 191 211 160 193 214 164 196 212 164 196 211 163 195 
210 162 195 210 161 197 210 159 197 210 157 196 209 154 196 207 150 192 205 144 188 199 137 182 
192 129 175 182 120 165 164 104 147 153 94 136 142 88 127 126 78 113 91 46 78 53 13 39 
46 11 32 39 8 25 34 6 19 32 6 14 32 8 13 34 11 14 38 15 16 42 19 18 
44 20 18 43 14 11 57 26 23 76 43 40 92 57 56 76 38 37 58 17 17 65 20 20 
73 23 24 78 24 26 80 21 25 81 18 22 82 16 21 86 17 22 87 16 22 86 15 21 
84 15 20 87 19 24 87 22 26 81 21 25 75 19 22 68 17 18 59 12 12 57 13 12 
53 14 15 44 15 22 54 25 30 69 39 38 86 56 46 96 64 47 106 73 46 116 84 47 
123 91 48 128 98 49 133 105 52 136 112 57 154 133 78 192 177 123 219 208 158 229 221 177 
217 211 177 190 187 160 125 122 105 13 10 5 26 23 24 27 25 29 6 5 11 143 140 151 
214 214 216 208 216 196 207 215 192 212 217 191 223 223 193 232 229 195 237 229 191 236 223 181 
224 206 162 211 189 142 197 170 123 184 154 107 172 142 96 161 130 88 131 99 62 156 126 94 
222 196 170 222 197 179 205 183 173 175 159 157 163 149 152 154 143 152 149 140 157 160 152 169 
175 164 173 191 173 171 186 168 166 167 150 147 137 121 115 87 74 66 56 45 32 38 28 12 
36 26 8 34 24 5 34 23 4 36 23 4 38 23 3 39 22 3 40 22 3 42 24 3 
45 27 5 52 35 14 60 46 24 81 71 50 154 146 126 162 157 138 145 142 123 132 131 113 
95 92 77 57 51 39 44 36 26 35 23 16 31 14 9 36 14 12 39 12 13 40 8 12 
38 4 8 41 4 10 46 8 15 54 16 23 55 19 24 55 21 24 58 27 27 70 42 38 
86 60 54 107 83 74 122 99 86 126 104 88 111 89 72 110 88 69 106 85 64 96 74 53 
98 75 57 100 77 60 98 74 58 93 69 53 88 65 48 84 60 43 80 56 39 80 55 38 
83 58 41 91 67 47 99 75 53 106 81 59 99 75 50 102 78 51 119 96 66 141 118 85 
161 139 103 179 157 119 188 167 126 195 175 131 200 180 134 208 188 140 216 196 148 225 205 157 
227 208 159 229 211 161 232 214 164 229 213 159 227 213 156 226 214 154 224 213 152 224 215 152 
226 218 155 227 221 157 227 222 160 227 222 163 228 225 170 233 229 179 239 235 189 235 232 188 
233 229 187 231 228 187 235 231 192 238 235 196 241 238 200 243 239 198 242 239 197 241 238 196 
239 242 198 238 244 200 239 245 202 240 245 202 240 245 204 241 245 206 242 244 207 242 244 207 
241 243 208 240 241 206 239 239 205 239 239 204 241 240 204 243 241 203 243 241 201 244 241 201 
244 241 199 244 241 197 243 239 193 241 237 189 239 235 185 236 232 182 234 230 179 230 227 173 
216 216 151 214 214 146 217 216 146 220 216 144 208 201 131 187 177 110 156 142 82 128 109 60 
101 77 40 77 48 26 58 25 14 48 11 7 51 13 13 54 15 17 56 17 17 55 19 14 
54 20 12 52 20 10 50 19 9 46 16 8 41 12 8 37 9 11 38 11 16 43 14 20 
51 18 22 50 18 20 53 22 24 64 37 38 71 46 46 67 46 45 48 30 28 35 19 16 
29 13 11 32 16 15 
26 10 7 27 11 9 64 44 36 83 58 49 85 56 50 67 29 27 66 19 21 74 19 25 
80 18 25 86 18 28 91 18 30 91 16 29 90 15 29 87 15 29 79 15 25 71 15 22 
62 16 19 52 18 16 46 24 16 42 33 18 40 43 22 68 80 52 100 120 86 104 130 93 
109 138 98 115 149 107 119 167 122 122 172 128 127 175 133 141 187 145 146 188 150 149 186 152 
151 184 153 152 181 153 140 164 140 98 117 95 126 141 123 170 183 166 208 219 203 220 231 215 
222 232 217 213 224 209 201 214 198 190 205 188 185 200 182 172 190 170 159 179 158 148 169 147 
145 167 144 143 171 142 142 183 136 139 182 133 135 179 130 132 178 126 127 174 121 120 169 115 
112 164 107 107 159 101 97 149 92 81 132 75 75 125 70 62 111 57 41 86 36 36 78 32 
35 74 32 38 73 37 61 95 64 103 132 107 164 188 168 190 209 195 207 223 214 216 229 225 
216 226 225 211 220 219 201 210 208 189 199 195 185 197 190 188 202 193 156 173 160 129 149 131 
106 130 107 69 96 70 42 72 43 27 58 26 24 56 22 22 54 20 20 52 18 19 48 16 
17 43 14 16 36 11 16 29 10 21 24 11 30 21 13 39 19 18 49 19 22 57 18 26 
61 17 27 63 15 27 63 14 27 63 15 28 61 15 26 57 15 23 52 13 19 48 12 16 
47 13 15 49 16 18 50 18 19 51 18 20 51 16 19 60 22 28 72 31 41 80 36 51 
125 79 99 178 130 155 189 141 171 197 149 184 203 155 195 206 160 204 208 163 211 210 165 215 
210 166 218 216 172 216 223 177 214 223 178 215 224 179 216 225 180 217 227 182 219 227 184 220 
228 186 222 229 188 223 230 189 223 231 191 223 231 192 224 232 195 226 234 198 227 233 198 227 
232 198 227 232 199 228 233 200 228 233 201 228 233 202 227 233 202 228 233 203 228 233 204 229 
233 204 229 235 203 230 236 202 231 235 202 230 236 205 231 237 208 232 238 211 234 236 211 232 
233 211 230 229 210 227 215 200 214 198 186 198 179 168 180 128 118 128 110 102 110 142 134 142 
180 170 180 207 197 207 221 211 222 228 218 230 232 220 233 232 219 233 230 216 231 229 214 230 
228 213 229 197 187 197 175 167 175 163 153 162 128 115 126 129 113 126 166 145 162 172 147 167 
197 166 190 237 201 228 226 187 217 224 181 214 228 182 217 226 176 214 224 172 211 222 168 208 
219 164 204 216 162 201 213 161 200 216 165 203 221 171 209 227 178 215 227 180 216 227 181 216 
225 180 216 224 175 215 224 172 215 224 170 214 223 166 212 220 160 208 216 154 203 211 147 197 
204 140 190 195 131 181 181 118 166 170 110 156 159 103 147 144 95 133 106 61 96 64 24 54 
53 19 42 42 12 30 34 6 20 32 6 15 33 8 14 36 11 14 40 15 15 43 18 17 
45 19 16 45 14 11 59 26 23 77 43 40 93 57 55 77 38 37 60 17 17 67 20 19 
75 23 23 82 24 26 85 22 25 85 18 22 87 15 20 91 17 22 92 15 21 91 14 19 
90 15 20 92 19 24 91 21 26 82 19 24 74 18 21 67 16 18 58 14 13 58 16 16 
52 16 17 32 9 13 53 28 31 79 51 50 103 74 64 111 80 61 116 85 56 122 91 52 
127 96 50 131 102 50 137 109 53 140 116 58 156 135 77 190 175 118 219 208 157 236 229 185 
237 232 198 219 215 189 146 144 129 9 7 6 14 11 14 18 16 22 15 12 23 160 156 168 
229 229 234 212 224 210 218 227 211 223 230 211 228 230 207 241 238 210 244 237 204 239 225 188 
234 216 174 223 200 155 207 178 132 194 163 116 176 143 97 153 119 76 113 79 41 136 104 70 
207 179 151 230 207 187 235 216 203 227 209 204 219 205 207 209 197 207 198 188 204 195 186 205 
198 186 198 202 184 185 188 171 171 155 139 136 110 95 89 63 51 42 41 31 19 35 27 10 
33 26 7 32 24 4 31 22 3 34 23 3 37 23 3 39 23 3 40 23 3 41 24 3 
44 27 5 50 34 14 57 44 23 78 69 48 150 144 124 156 153 133 136 136 116 124 126 107 
87 87 70 48 46 33 37 32 21 32 22 13 31 16 9 38 16 14 42 15 16 45 12 15 
43 7 12 46 7 14 53 11 20 62 20 29 57 18 25 52 16 20 55 22 23 68 38 36 
90 63 56 125 100 90 150 127 112 160 139 119 145 124 103 146 126 101 145 125 98 134 114 87 
128 107 82 123 103 79 121 101 77 117 96 72 112 91 67 105 85 61 101 81 56 100 79 54 
102 81 56 110 90 63 119 99 70 127 107 77 130 112 79 140 121 86 157 138 101 178 160 118 
196 179 134 211 194 147 217 201 150 221 205 152 223 207 153 227 212 155 231 216 159 236 221 163 
232 217 161 231 216 160 233 218 161 230 217 157 227 217 152 224 215 148 224 216 148 225 219 149 
227 223 153 228 225 155 227 225 158 225 223 160 228 226 168 233 231 178 240 238 190 238 235 190 
235 232 190 234 231 191 236 232 193 238 234 195 240 236 197 242 237 196 242 236 195 240 235 194 
237 241 195 236 243 197 237 243 198 238 243 200 239 243 202 239 244 204 240 242 205 240 241 206 
240 241 207 239 239 207 239 239 206 238 238 206 241 239 207 242 240 207 243 241 207 244 241 206 
244 241 204 244 241 202 243 240 198 241 238 194 239 237 190 236 234 185 234 232 183 232 231 178 
225 227 162 225 226 157 227 226 156 232 229 156 224 218 146 207 198 129 180 168 106 150 133 82 
116 95 57 77 50 28 55 24 13 44 10 7 47 12 13 50 13 16 53 16 16 54 19 13 
53 20 9 51 20 7 51 20 8 48 18 9 44 14 10 39 10 13 41 11 20 46 14 24 
54 18 22 52 16 19 52 19 21 61 31 32 68 42 42 68 45 44 55 36 33 41 24 21 
33 16 13 33 16 15 
22 7 4 21 6 4 63 43 35 83 58 50 86 56 51 68 29 28 68 20 22 76 20 26 
82 19 27 88 19 29 93 19 31 92 17 30 90 16 29 87 16 28 78 14 24 69 14 21 
61 16 18 51 19 16 48 28 19 48 41 25 51 55 33 74 88 59 99 121 87 105 133 95 
111 141 101 116 152 109 120 168 123 122 172 128 128 176 134 144 189 148 149 190 153 151 188 155 
155 188 157 158 186 158 147 171 146 107 127 105 132 148 129 173 186 169 207 220 203 216 228 212 
212 223 207 191 203 188 169 183 167 152 168 150 147 164 145 135 153 133 125 144 124 121 143 120 
127 150 126 133 161 132 138 180 134 136 180 131 133 177 128 131 177 125 127 174 121 121 170 116 
114 167 109 110 162 105 99 152 94 81 133 76 76 127 71 64 114 59 43 89 38 35 77 30 
29 67 25 26 60 24 34 66 34 70 101 73 142 168 146 176 198 182 199 217 206 210 225 218 
209 221 217 203 214 210 189 202 196 175 188 181 167 181 172 165 182 170 134 154 138 109 131 112 
89 115 91 57 86 59 34 64 34 19 49 16 16 45 12 16 47 13 20 52 17 19 48 16 
17 43 14 16 37 11 16 30 9 20 24 10 28 19 11 37 17 15 46 16 19 54 16 22 
59 15 24 62 15 27 65 16 29 64 17 30 62 17 28 58 16 24 53 14 20 50 14 18 
49 15 17 51 18 19 52 19 20 53 20 21 53 17 21 61 23 29 72 31 41 80 36 51 
126 80 100 179 131 156 190 142 172 198 150 185 204 157 197 208 161 206 210 165 212 211 167 216 
211 167 219 217 173 217 223 178 215 224 179 216 225 179 216 225 180 217 227 183 219 228 185 221 
228 186 222 230 188 223 231 190 224 231 191 224 231 193 225 232 195 226 234 198 227 233 198 227 
233 199 227 232 200 228 233 200 229 233 201 228 233 202 227 234 202 228 233 203 229 233 204 229 
233 204 229 236 204 231 237 203 232 236 203 231 236 205 231 237 208 232 238 211 233 236 213 233 
234 213 231 229 211 227 211 196 209 186 174 185 156 145 156 113 104 113 100 92 100 128 120 128 
170 161 170 202 192 202 219 210 221 230 220 231 236 224 236 235 222 236 232 218 233 230 215 230 
228 213 230 179 170 180 148 142 148 137 128 137 123 111 120 126 110 122 145 125 141 145 120 140 
179 150 173 243 209 235 230 191 220 224 181 214 226 179 214 225 176 213 224 172 212 223 170 210 
219 165 204 212 159 198 206 153 192 211 159 198 218 168 207 228 179 217 231 183 219 232 184 221 
231 184 222 228 179 220 228 176 219 228 174 219 226 168 215 222 162 210 218 155 205 213 149 199 
206 141 192 198 134 184 188 125 174 178 117 164 166 110 154 150 101 140 116 72 107 79 39 69 
64 29 54 49 18 37 36 8 22 33 6 16 34 8 14 36 11 14 41 16 16 44 18 17 
46 19 16 47 14 11 60 26 23 77 42 40 94 56 55 78 38 37 60 17 16 67 20 19 
75 23 23 82 24 26 85 22 24 86 18 22 88 16 20 92 17 22 92 16 21 91 15 20 
90 15 20 91 19 23 89 21 25 80 18 22 72 16 19 66 16 17 61 16 16 65 23 24 
65 30 30 55 35 34 83 61 59 113 87 82 137 109 95 128 99 76 120 90 59 121 91 50 
126 96 47 132 103 48 138 112 53 145 121 61 158 138 77 182 166 107 203 192 139 223 216 170 
243 238 201 238 234 206 179 176 158 55 53 49 51 49 48 57 54 57 68 63 72 172 166 175 
220 219 222 204 215 205 215 224 212 217 223 208 212 213 194 217 214 190 214 206 176 203 188 154 
212 193 153 210 187 143 200 171 125 194 162 115 176 143 96 149 115 70 109 75 35 121 89 52 
173 145 112 207 185 160 219 199 181 216 196 185 220 204 199 211 198 200 195 184 192 184 174 185 
179 165 172 178 158 156 164 146 142 132 115 110 89 74 66 55 42 31 39 28 14 34 25 7 
34 25 6 33 24 4 32 22 3 35 23 3 38 23 3 40 23 3 41 23 3 42 24 4 
44 27 6 49 34 14 57 45 24 77 68 47 145 139 119 150 147 127 131 131 111 118 120 100 
81 81 65 44 41 28 35 29 19 32 22 13 32 17 11 41 19 16 46 18 19 48 15 19 
47 9 16 51 10 18 57 15 23 67 24 33 58 18 24 49 13 16 53 19 19 67 37 33 
94 67 59 141 117 104 171 149 132 186 165 144 177 156 133 180 160 134 181 161 133 173 154 124 
163 143 114 155 135 106 154 134 105 151 131 102 147 127 98 142 122 93 137 118 89 135 115 86 
136 116 86 142 123 91 148 129 97 154 135 101 165 146 110 176 158 119 189 171 130 204 187 142 
217 200 153 227 211 161 231 215 162 232 216 161 231 216 159 233 218 159 235 220 160 237 223 163 
234 218 160 232 217 158 232 217 157 229 216 153 225 215 148 223 213 145 224 217 146 226 221 148 
229 226 153 230 227 156 228 226 158 226 224 160 228 227 167 233 232 177 241 238 189 239 237 191 
238 235 193 237 235 193 238 235 194 238 235 194 239 235 195 241 236 195 240 235 194 238 234 192 
235 239 192 234 240 193 234 240 195 235 241 197 236 241 198 236 241 200 237 239 202 237 239 203 
238 239 204 239 239 206 239 239 206 239 239 206 241 239 207 242 240 207 243 241 206 244 241 205 
244 241 203 243 241 201 242 239 197 241 238 194 239 237 190 236 234 186 235 232 183 233 232 180 
232 233 169 231 231 163 232 230 161 237 234 161 230 225 153 217 210 140 196 186 124 166 152 101 
129 110 72 80 56 34 55 26 16 42 11 9 46 12 16 47 12 16 49 14 15 51 18 13 
51 19 10 51 20 8 50 20 10 48 18 11 46 15 12 41 11 16 44 13 24 49 16 28 
56 19 23 51 16 18 50 16 18 57 27 28 67 40 40 70 46 45 61 41 39 49 30 28 
39 22 19 34 18 16 
26 10 7 25 8 4 63 42 35 81 55 48 84 53 47 65 26 24 66 18 20 77 20 25 
83 19 27 88 19 29 92 18 30 92 17 29 90 16 28 86 15 27 77 13 23 68 14 20 
61 17 18 53 22 17 54 36 24 60 55 36 69 75 51 86 102 72 103 127 92 109 138 99 
113 146 105 116 154 112 120 168 124 123 172 128 128 175 134 145 189 149 151 192 155 156 192 159 
162 195 164 165 193 165 156 180 155 121 142 119 143 160 140 176 191 173 204 217 200 204 217 201 
188 201 185 149 163 146 88 104 86 41 57 39 30 47 28 26 42 24 33 50 31 56 79 55 
81 106 81 106 137 106 132 175 129 133 177 128 130 175 125 128 175 123 125 173 119 120 170 115 
115 167 110 110 164 106 100 154 95 81 135 75 76 129 71 67 118 62 49 97 44 39 82 33 
30 69 25 23 59 19 23 56 21 55 87 57 131 160 135 166 191 171 191 211 196 205 223 212 
200 216 207 188 203 194 167 184 173 146 164 151 130 149 135 120 140 124 89 112 93 67 92 69 
53 80 54 34 63 33 21 49 18 12 38 7 12 38 6 15 43 10 20 52 16 18 48 15 
17 43 13 17 38 10 17 30 8 20 24 8 27 19 10 34 15 12 42 14 15 50 13 18 
56 14 22 61 16 26 65 17 30 65 19 31 64 19 30 60 18 27 55 16 22 52 15 19 
50 16 18 53 19 20 54 20 21 56 21 22 56 19 22 63 23 29 73 31 40 81 37 51 
127 81 100 180 132 158 192 144 174 200 152 187 206 159 199 209 163 207 211 166 213 212 168 218 
214 169 221 219 174 219 223 179 216 224 180 217 225 180 217 226 181 218 228 184 220 228 185 221 
229 187 223 230 188 224 231 190 224 232 192 225 231 193 225 233 196 226 234 198 227 234 198 228 
233 199 228 232 200 228 233 200 229 233 202 228 234 202 228 234 203 229 234 204 229 233 204 229 
234 205 230 236 205 231 238 205 232 237 204 231 236 206 231 236 208 231 236 210 232 236 214 234 
235 215 233 230 213 228 205 191 204 170 158 169 123 113 122 185 178 185 217 211 217 194 186 194 
183 175 183 189 181 190 216 207 217 232 221 232 241 229 242 244 231 245 241 227 242 239 225 239 
237 223 237 166 159 166 129 124 129 129 121 128 146 136 145 150 137 148 141 123 137 118 94 112 
153 125 146 240 208 232 229 191 220 226 184 216 231 185 220 226 176 214 224 172 211 224 170 211 
220 166 207 212 159 199 203 150 190 207 156 196 216 166 205 227 178 217 233 184 222 235 186 224 
235 186 225 232 182 224 231 179 224 231 177 223 229 171 219 225 164 214 220 157 208 216 151 203 
211 145 197 205 139 191 195 132 182 185 125 172 171 115 160 151 101 141 123 79 114 95 55 86 
79 43 68 59 27 46 40 12 26 34 7 17 34 7 14 37 11 15 42 16 18 45 19 19 
48 19 18 48 14 12 61 25 23 78 41 39 94 56 53 79 37 35 62 17 15 68 20 18 
75 23 22 82 24 24 85 22 23 87 19 22 90 17 21 94 18 22 94 18 22 94 17 21 
92 17 22 90 19 23 86 19 23 78 16 20 69 14 17 64 15 17 65 21 23 76 35 37 
106 70 71 166 145 142 195 174 168 213 190 179 219 195 175 161 135 107 120 92 56 119 91 45 
125 96 44 131 104 47 139 113 52 153 130 66 160 141 77 159 144 82 159 148 92 179 171 122 
224 219 178 238 234 202 234 232 209 212 209 195 217 216 209 218 216 215 212 207 210 168 163 168 
155 154 158 175 185 182 185 193 188 176 181 173 149 150 137 123 119 101 104 95 71 93 78 48 
127 107 71 149 125 85 163 134 89 173 142 95 176 142 94 171 135 88 138 103 59 126 93 52 
130 99 62 120 93 60 107 83 56 95 73 54 110 92 77 113 97 87 105 92 87 85 73 71 
77 60 58 75 53 47 69 47 40 63 43 34 56 39 27 42 27 14 36 24 8 36 25 6 
38 28 8 38 27 6 37 26 3 38 25 4 40 24 3 41 23 3 43 24 4 44 26 5 
45 28 7 49 34 14 55 43 22 73 65 43 133 127 105 138 135 114 122 122 101 107 110 88 
72 72 55 37 34 22 31 25 15 30 20 11 33 17 11 41 18 16 46 17 19 49 15 19 
49 9 16 52 10 18 58 15 23 67 24 31 59 18 24 51 14 16 57 23 21 72 42 35 
105 78 67 170 146 131 203 181 161 220 199 176 221 201 174 224 204 174 225 206 174 222 202 169 
222 203 168 223 204 169 223 205 169 222 204 168 221 202 166 217 199 163 213 194 159 210 191 155 
208 189 153 209 191 154 211 193 155 213 195 154 208 190 148 208 190 146 215 198 152 224 207 158 
232 215 164 237 221 168 238 222 165 237 222 163 235 220 159 234 219 157 233 219 156 234 219 156 
233 219 156 232 218 154 231 217 152 227 215 148 224 214 144 221 213 140 223 217 142 227 222 146 
231 228 152 231 229 155 230 228 158 227 226 160 228 227 166 232 231 174 238 236 184 237 235 188 
237 236 191 238 237 194 241 238 196 241 238 196 240 237 195 240 237 194 239 235 192 236 233 189 
234 237 190 234 239 192 234 240 194 235 241 196 235 240 196 235 239 197 235 238 199 236 238 200 
236 237 202 238 239 204 239 239 205 239 239 205 240 239 205 241 239 205 242 240 206 242 240 204 
243 240 202 243 240 200 242 239 197 241 238 194 239 237 191 237 234 187 235 233 185 235 233 182 
236 236 174 235 234 167 234 232 163 239 235 163 233 228 157 222 216 147 204 195 135 173 161 111 
138 122 85 101 80 60 69 43 35 47 18 19 47 16 22 45 13 20 45 13 17 48 17 15 
49 19 13 49 19 11 48 18 10 47 16 11 45 14 14 44 12 19 47 14 27 52 17 31 
60 22 27 55 18 21 53 18 21 60 28 29 68 40 40 70 46 46 63 41 40 51 31 29 
42 23 21 36 19 16 
28 11 7 27 9 6 64 41 35 80 53 46 81 49 44 63 23 21 65 16 18 76 19 24 
83 19 26 88 18 28 91 18 28 90 15 26 87 15 25 83 14 24 75 13 20 66 14 18 
59 17 17 52 23 17 60 45 32 75 72 52 84 93 68 94 113 82 103 130 94 110 143 102 
113 150 107 117 157 113 123 170 126 125 173 130 130 176 134 146 189 149 154 194 157 160 197 162 
168 201 169 170 199 170 164 188 162 138 159 136 154 172 151 180 195 176 202 217 198 199 213 195 
182 198 180 152 169 150 92 110 90 45 63 43 36 56 35 33 53 31 39 61 38 62 88 62 
84 112 85 107 139 107 131 175 129 131 175 127 127 173 123 125 173 120 121 170 117 117 168 113 
112 166 108 108 163 104 99 154 95 82 137 77 78 132 73 69 122 64 52 102 47 43 88 38 
34 76 29 26 64 22 26 61 23 49 84 50 106 138 109 137 165 141 164 189 169 189 211 194 
180 201 186 168 188 173 151 173 156 129 152 134 113 136 117 101 124 104 75 100 77 57 85 59 
48 77 47 39 70 38 32 63 30 27 57 23 29 60 25 27 59 23 23 56 19 23 53 19 
22 48 17 20 41 14 20 34 12 22 26 10 26 19 10 32 14 10 40 12 13 48 12 17 
54 14 21 60 16 26 64 18 30 65 19 31 64 19 30 61 19 27 56 16 22 54 15 20 
52 16 19 55 19 20 57 21 22 58 22 23 58 20 23 64 23 29 73 30 40 81 37 50 
127 81 101 182 134 159 193 146 176 202 154 189 208 161 201 211 164 208 213 167 214 215 169 219 
216 170 222 220 175 220 223 179 217 224 180 217 225 181 218 226 182 218 228 184 220 229 186 222 
230 188 223 231 190 225 231 191 225 232 193 225 232 194 226 233 196 227 233 198 227 233 198 227 
233 199 228 232 200 228 233 200 229 233 202 228 234 202 228 234 203 229 233 204 229 233 204 229 
233 205 230 236 205 231 238 205 232 238 206 232 237 207 231 236 208 231 235 209 230 236 214 233 
234 215 232 229 212 226 199 185 196 155 143 153 94 85 93 187 179 186 234 227 233 202 194 201 
175 167 175 176 167 175 209 200 210 228 218 229 241 230 241 246 233 246 244 231 244 242 229 242 
241 227 241 160 153 159 123 119 122 132 127 132 179 171 178 183 171 181 146 129 141 98 76 92 
132 105 125 239 206 230 227 190 219 227 185 217 235 189 224 226 176 215 222 171 211 223 170 212 
220 165 208 214 159 201 206 152 194 207 155 196 213 162 203 223 173 213 230 180 220 233 183 223 
233 183 224 231 180 224 230 177 224 230 175 223 229 171 219 226 165 216 223 159 212 219 154 207 
214 148 201 207 142 194 196 133 183 184 124 173 171 115 162 153 103 145 131 86 123 108 67 100 
90 54 80 63 30 50 37 7 23 34 6 17 36 7 15 39 11 16 44 16 19 47 19 21 
50 20 20 51 15 14 63 25 24 79 40 39 94 54 52 79 36 34 62 17 15 69 20 18 
76 22 21 82 23 24 86 22 24 89 20 23 92 19 23 97 20 24 97 20 24 96 19 23 
94 19 23 90 19 23 85 18 22 76 16 20 68 14 18 67 18 21 77 34 37 98 58 60 
136 103 103 204 185 177 226 207 195 237 217 199 241 219 194 160 135 102 107 81 41 116 90 41 
125 99 43 134 108 47 142 117 52 154 133 66 157 138 72 145 130 67 142 131 73 164 156 104 
217 212 167 226 222 186 231 228 201 237 234 214 229 227 214 222 218 212 215 209 207 154 147 148 
129 127 130 145 154 157 157 164 166 144 148 147 107 107 100 90 85 73 78 68 49 72 56 30 
105 84 52 131 105 67 150 120 76 161 129 82 168 133 84 170 133 83 158 122 73 147 112 65 
134 102 58 112 82 42 94 67 33 83 59 29 90 69 44 90 72 50 84 68 50 67 52 38 
58 39 27 54 28 18 49 25 14 47 25 13 47 27 13 43 26 10 41 26 8 40 27 7 
40 28 7 39 27 6 39 26 4 39 25 4 41 24 3 43 23 4 44 24 4 45 26 6 
47 29 9 51 36 16 57 44 24 71 63 41 122 117 95 126 125 102 112 114 91 99 102 79 
66 66 48 34 31 18 30 23 13 30 19 11 33 17 12 41 18 17 46 16 18 49 13 18 
48 8 14 51 9 16 56 13 20 65 21 27 59 18 22 54 16 17 59 24 20 73 42 34 
108 81 67 181 157 138 217 195 172 237 216 189 239 220 188 241 223 188 242 223 187 240 222 183 
240 222 181 239 222 179 239 222 179 239 222 179 238 221 178 236 218 176 233 215 173 230 213 170 
228 210 167 226 209 165 225 207 163 224 207 161 220 203 156 219 203 153 223 206 156 227 211 158 
231 215 159 234 219 161 234 219 159 234 219 156 232 218 153 230 216 151 229 216 149 229 215 148 
230 216 148 231 217 148 230 217 147 227 216 144 225 215 140 222 213 137 223 217 138 226 221 142 
230 226 148 231 228 154 231 229 158 229 227 160 228 227 165 229 228 171 233 231 179 234 233 184 
237 236 190 242 240 197 244 241 198 243 240 198 242 239 196 242 239 196 239 236 192 235 233 188 
233 237 189 233 239 190 234 240 192 235 241 194 236 241 196 237 240 197 237 240 198 237 239 200 
238 239 202 238 239 203 238 239 203 238 238 203 240 238 204 240 239 204 241 239 203 242 239 202 
242 239 200 242 239 199 242 239 197 240 237 194 239 236 191 237 235 189 236 234 187 235 233 184 
236 235 173 235 233 167 234 232 164 237 234 163 233 229 158 224 218 151 208 201 142 184 174 126 
158 145 110 135 118 100 84 63 58 44 20 24 52 25 35 47 18 29 41 12 19 43 15 16 
46 17 14 47 18 12 45 16 9 44 13 10 44 12 14 46 12 22 49 15 30 55 18 33 
62 22 28 59 20 24 58 22 25 65 32 34 70 41 41 68 43 42 56 34 32 44 23 21 
37 17 15 36 17 15 
26 9 6 28 10 7 65 41 35 81 52 46 81 47 43 63 21 20 64 16 16 77 20 23 
83 19 25 88 19 27 90 18 27 89 15 25 86 14 23 81 14 22 73 13 18 65 14 16 
56 17 15 48 22 14 64 51 36 87 87 66 95 107 80 99 121 89 103 133 96 110 146 104 
113 153 109 117 159 115 125 172 128 128 175 132 133 179 136 147 190 150 156 195 158 164 200 165 
172 205 172 175 204 174 171 196 169 156 178 153 167 186 163 184 201 180 200 216 196 194 211 192 
182 200 180 164 184 164 115 135 113 76 97 74 73 96 73 68 93 68 71 99 71 90 121 93 
106 136 108 119 154 121 132 177 130 129 175 127 125 172 122 122 171 118 117 168 114 113 165 110 
109 164 105 106 162 103 98 155 95 83 140 79 80 135 75 71 125 67 54 106 50 46 94 41 
38 82 33 30 70 26 29 67 26 42 79 42 76 111 78 98 130 101 125 155 129 158 185 163 
151 176 156 141 167 146 130 158 135 113 141 117 100 128 104 91 118 93 72 101 74 60 90 60 
54 85 52 53 87 52 49 84 48 43 79 41 46 83 43 41 78 38 32 67 28 31 64 27 
29 57 24 26 48 20 25 39 16 25 30 13 26 21 10 31 15 10 38 12 12 46 11 15 
53 14 20 59 16 25 63 18 29 64 19 30 63 19 29 60 18 27 57 16 22 55 15 20 
54 16 19 57 19 21 58 21 22 60 21 23 60 20 23 65 23 29 72 30 39 81 37 50 
128 82 101 182 135 160 194 148 177 203 156 191 210 162 202 212 165 209 215 168 215 216 170 220 
217 170 223 220 175 220 223 180 217 224 180 217 225 181 218 226 183 219 228 184 220 229 186 222 
230 189 224 231 190 225 231 192 226 232 194 226 232 194 227 233 196 227 233 197 227 233 198 227 
232 198 227 232 199 228 233 200 229 233 201 228 233 202 228 234 202 228 233 203 229 233 204 229 
233 204 229 235 204 230 237 205 231 238 207 232 238 208 232 236 208 230 234 208 229 235 213 231 
234 215 230 228 211 224 193 179 189 141 129 138 71 62 69 175 167 174 231 224 231 202 195 201 
171 164 170 170 162 169 205 196 204 226 216 225 240 229 239 246 234 245 244 232 243 243 229 242 
241 227 241 155 150 155 119 117 118 135 132 135 205 198 204 209 198 206 149 134 144 82 62 77 
116 90 109 239 207 231 228 191 219 227 186 218 235 189 224 225 176 214 221 169 210 222 169 212 
219 165 208 216 161 204 211 156 200 208 154 197 209 156 199 214 163 205 222 170 213 227 175 218 
229 178 220 229 177 222 229 175 223 229 173 222 227 169 219 225 164 216 223 159 213 220 154 209 
215 149 203 208 142 195 194 130 182 182 121 171 169 113 161 156 105 148 138 92 130 118 76 110 
98 62 89 65 32 53 34 2 20 35 4 17 37 7 16 40 11 16 46 16 20 49 19 21 
51 20 21 54 16 15 65 25 24 80 39 38 94 53 51 79 35 34 64 17 15 71 20 18 
77 22 21 83 23 23 87 22 24 91 21 24 95 21 24 99 22 26 100 21 25 98 21 25 
96 20 24 90 19 23 84 18 21 76 17 20 69 16 19 72 24 28 94 52 55 124 87 89 
165 135 132 222 206 192 236 220 202 242 225 202 247 230 199 154 133 95 96 72 29 114 89 37 
126 101 42 135 111 47 143 120 52 151 130 61 152 134 66 143 129 64 144 132 72 162 154 99 
204 198 150 205 200 161 206 203 171 211 207 183 192 187 170 175 169 157 161 153 147 127 119 114 
109 105 106 108 115 126 121 126 135 110 112 117 74 73 71 71 65 58 68 57 43 67 51 28 
97 76 46 122 96 59 142 112 68 149 116 68 156 121 69 163 126 73 167 129 76 160 124 71 
145 110 60 123 91 44 107 78 35 98 72 32 95 70 35 89 66 34 80 61 31 69 50 25 
60 38 18 53 26 11 48 21 7 46 21 6 46 23 5 48 28 9 47 29 9 43 28 7 
41 26 5 40 26 4 41 26 4 40 24 4 42 23 3 44 23 4 45 24 5 46 27 7 
49 31 12 54 38 19 58 46 26 70 62 40 112 107 84 116 115 91 105 107 82 93 97 71 
62 63 44 32 29 17 30 23 13 31 19 12 35 17 13 42 18 17 46 16 18 49 13 17 
49 8 14 51 8 15 56 12 18 64 19 24 60 18 20 57 18 16 60 24 18 73 41 30 
107 80 64 184 159 138 223 201 174 243 223 191 245 227 189 246 228 188 247 229 187 245 228 184 
243 226 179 242 225 175 241 225 175 241 225 175 241 224 175 239 222 174 238 221 172 236 219 169 
233 217 167 229 213 162 226 210 159 225 208 157 224 208 154 224 208 153 225 209 153 226 210 152 
226 212 151 228 213 150 229 215 150 229 215 148 229 215 146 227 214 145 226 213 143 225 212 142 
227 213 141 228 215 141 230 217 142 228 217 140 226 216 137 222 214 134 222 216 134 224 220 138 
228 224 144 231 227 151 232 229 157 231 229 161 229 228 165 228 227 170 228 226 174 231 229 180 
236 235 189 243 242 199 243 241 198 241 239 196 239 236 194 241 238 195 239 237 192 236 234 188 
234 237 188 233 239 189 234 239 191 235 240 192 236 240 194 238 241 196 238 240 197 239 241 199 
239 240 202 239 239 201 238 239 201 238 238 201 239 238 202 240 238 202 240 239 201 241 239 200 
241 239 199 241 238 198 241 238 196 240 237 194 239 236 192 238 235 190 237 234 189 236 234 186 
235 233 172 235 232 167 235 232 165 236 233 163 232 229 160 224 220 155 211 205 148 194 187 140 
181 170 138 176 162 147 110 94 91 53 33 41 63 40 53 48 24 37 33 9 19 36 11 15 
41 15 14 44 17 13 42 14 10 42 11 10 43 10 14 47 12 24 51 15 32 56 19 34 
63 21 27 61 21 25 62 25 28 69 35 37 71 41 42 66 39 39 50 26 25 38 16 14 
33 11 10 37 16 14 
22 4 1 26 6 5 68 42 37 86 55 49 86 49 46 66 23 22 67 17 18 79 21 25 
86 21 27 90 20 28 92 19 28 90 17 26 87 16 24 82 16 21 74 15 17 65 16 15 
54 17 12 38 15 5 59 49 34 90 93 71 96 112 83 100 126 92 104 137 99 107 147 104 
111 154 109 116 162 116 128 175 129 133 179 135 139 183 141 150 191 152 157 196 158 164 200 165 
175 208 175 179 209 178 179 205 178 175 197 172 181 202 179 189 209 187 196 215 193 192 211 189 
184 204 182 173 194 172 135 158 134 107 132 106 110 137 111 103 132 104 106 137 107 132 166 135 
143 178 146 145 183 147 134 180 134 129 177 128 125 174 124 121 172 118 115 167 112 110 163 107 
106 161 103 104 161 101 97 156 95 84 142 80 80 137 76 72 128 67 56 109 51 47 97 42 
40 86 35 33 76 29 27 65 22 29 66 25 43 81 43 47 82 47 66 99 68 102 134 106 
106 137 111 104 135 109 97 130 102 91 123 94 88 120 90 88 120 90 80 113 81 73 107 73 
69 104 67 70 107 68 64 102 62 53 92 51 54 93 51 54 93 51 54 92 50 48 83 44 
43 73 38 36 60 30 32 48 24 30 36 18 29 25 13 32 18 11 37 13 11 44 11 13 
51 14 18 56 15 23 61 17 27 62 18 28 61 18 27 59 17 25 56 15 21 55 15 19 
55 15 19 58 19 21 60 20 22 60 20 22 60 19 22 65 23 29 73 30 39 81 37 50 
127 82 101 181 136 160 193 148 177 203 156 191 210 162 202 212 165 209 215 168 215 217 170 220 
218 170 222 220 175 219 222 180 217 223 181 217 224 182 218 225 183 220 227 184 221 228 187 223 
229 189 224 231 191 225 231 192 226 231 193 227 232 194 228 232 195 228 232 197 228 233 197 228 
232 198 228 232 199 227 232 199 228 233 201 229 233 202 229 233 202 230 233 202 230 234 202 230 
234 202 230 235 203 229 236 205 229 238 208 231 237 208 230 235 208 229 231 206 226 233 211 228 
232 214 227 227 211 222 188 175 184 131 121 129 57 48 54 175 168 174 242 237 242 219 214 218 
188 182 186 182 175 180 208 199 207 226 217 225 238 228 237 243 231 242 241 228 240 239 226 238 
238 223 236 152 148 151 116 116 115 130 129 130 208 204 207 211 203 209 143 129 138 71 52 65 
110 84 102 244 214 236 231 195 222 226 185 216 227 182 217 223 174 212 221 169 210 221 168 211 
220 165 210 218 163 208 215 160 205 208 153 198 202 148 192 197 144 188 205 151 195 215 161 205 
225 172 216 228 175 222 229 174 223 227 170 221 225 165 217 223 160 214 220 155 211 217 151 207 
212 146 202 205 139 195 190 126 180 177 116 168 166 109 158 156 104 149 141 94 134 123 81 116 
102 66 94 68 34 57 35 2 22 35 3 17 37 6 16 41 11 18 47 15 21 50 19 22 
53 20 22 55 17 16 66 25 24 80 38 38 95 52 50 81 35 34 65 16 15 72 20 19 
78 21 21 84 22 22 89 21 23 94 22 24 98 22 25 99 22 24 100 21 25 99 21 26 
97 21 25 90 19 23 83 18 21 77 18 22 73 20 24 82 36 39 118 79 81 156 122 123 
196 168 163 236 222 202 245 232 207 249 236 207 252 244 207 158 143 99 98 77 29 112 90 34 
125 102 40 134 111 45 139 117 48 140 120 50 148 130 61 166 152 84 174 162 98 175 166 108 
170 163 112 172 166 123 164 158 123 142 137 109 127 121 100 99 92 76 57 48 34 77 68 57 
78 74 72 56 62 79 64 67 82 62 63 73 49 48 51 50 43 40 51 39 28 53 35 16 
86 64 37 114 87 52 135 105 62 131 97 49 139 102 50 158 118 62 155 115 59 150 111 55 
144 106 51 133 98 44 124 92 40 116 86 37 106 78 33 93 66 25 78 53 16 68 44 12 
62 35 9 57 27 6 49 20 4 47 20 4 50 25 5 53 31 9 50 30 8 45 26 4 
42 24 4 42 25 4 43 26 5 43 24 4 44 23 4 45 23 5 46 24 7 48 27 10 
51 32 14 54 38 19 59 47 27 72 63 41 103 99 74 108 108 81 100 104 76 90 95 67 
62 63 43 35 30 19 32 24 15 33 20 13 36 18 14 43 19 18 48 17 19 52 14 19 
52 10 16 55 11 18 59 14 20 65 19 24 61 18 19 57 18 14 61 24 17 71 39 26 
102 75 56 178 154 128 216 195 163 237 217 180 237 219 176 237 220 174 237 221 172 238 221 171 
239 223 168 240 225 166 241 225 168 241 226 168 241 226 169 240 225 168 239 224 166 237 222 165 
235 219 162 231 216 158 228 212 154 226 210 152 224 209 150 223 208 148 222 208 145 221 207 143 
221 207 142 222 208 141 224 211 142 226 213 142 228 215 142 227 215 141 227 214 140 226 213 139 
225 212 135 226 213 133 228 216 136 229 218 136 227 218 134 223 215 131 221 215 131 222 218 134 
226 222 140 230 226 148 232 229 155 232 230 160 231 230 167 229 228 171 225 223 173 228 226 179 
233 232 187 240 238 195 235 233 190 230 228 185 226 224 181 233 230 187 237 234 190 238 236 190 
236 239 188 235 239 188 234 239 189 233 238 188 234 237 189 235 237 191 237 239 194 237 239 196 
238 239 198 239 240 199 239 240 199 239 239 200 239 238 199 239 238 199 239 238 199 239 237 197 
240 237 197 240 237 197 240 238 195 239 237 194 238 236 193 238 235 192 237 234 191 237 234 188 
238 235 175 236 233 169 235 232 166 236 234 164 232 230 162 224 222 158 210 206 152 201 196 153 
201 194 165 222 213 201 159 148 148 93 79 89 81 64 80 46 30 42 18 2 10 27 5 11 
35 11 12 41 15 13 42 14 12 43 12 13 44 10 16 47 11 26 52 14 33 56 17 34 
61 18 25 61 19 24 63 24 28 70 35 37 71 40 41 65 37 38 50 24 24 39 15 14 
35 13 11 41 18 15 
31 12 10 36 15 13 73 46 41 89 56 51 88 51 47 68 23 22 68 17 18 80 22 24 
88 22 27 92 22 28 93 20 27 92 19 26 90 19 24 85 19 22 76 18 18 66 19 16 
55 20 13 41 20 9 61 55 37 91 99 73 96 115 84 99 128 92 101 139 98 104 147 103 
108 155 109 115 164 117 130 176 131 136 180 137 141 184 142 151 192 151 157 196 157 164 199 163 
174 206 173 179 209 177 182 208 180 180 204 177 184 207 182 190 212 188 193 214 191 190 211 188 
184 206 182 176 200 176 153 180 153 135 164 136 134 165 136 127 160 129 127 162 129 141 178 144 
146 184 150 144 185 147 132 180 132 127 176 127 122 172 122 118 171 116 110 164 109 104 159 102 
100 157 98 99 158 97 94 153 92 83 142 79 80 139 76 72 130 69 58 113 54 50 103 46 
43 92 38 37 82 32 29 70 23 26 65 21 31 69 28 36 73 35 52 89 54 81 117 84 
91 126 94 94 130 98 93 130 97 92 129 95 94 130 96 97 134 98 94 131 94 90 127 89 
84 122 82 88 128 86 83 123 81 69 110 67 70 111 68 68 109 65 63 102 60 58 94 54 
51 82 47 44 68 38 39 56 31 36 43 24 34 31 18 34 21 13 37 15 12 42 12 13 
49 14 18 54 15 22 59 16 25 60 17 26 60 17 26 58 17 24 56 14 20 55 14 18 
56 15 17 59 18 20 61 19 21 61 20 22 60 18 22 65 23 29 74 30 40 81 37 50 
126 82 101 180 134 159 192 146 175 201 154 189 208 160 200 211 164 208 214 166 213 217 168 218 
218 169 221 220 174 219 222 180 217 223 181 217 223 182 218 225 183 219 226 185 221 228 187 222 
229 189 223 230 190 225 231 191 226 231 192 227 232 193 228 232 194 227 232 196 227 232 196 227 
231 197 227 231 198 226 231 198 227 232 199 227 232 200 228 232 201 229 233 202 229 233 202 229 
233 202 229 234 202 228 236 204 228 239 207 231 237 208 230 235 207 228 231 205 224 233 211 227 
232 214 227 226 210 221 185 172 181 126 116 122 48 39 45 128 121 126 178 172 177 171 165 169 
154 148 152 166 159 164 214 206 212 230 221 229 241 230 239 246 233 243 243 230 241 241 227 239 
241 226 239 152 149 151 113 115 112 126 127 125 202 200 201 205 199 203 138 126 135 66 49 61 
104 81 98 240 211 232 232 197 223 228 188 218 228 183 218 224 175 213 222 170 211 221 167 211 
220 165 211 218 163 209 216 160 207 210 155 201 203 148 195 197 142 189 205 150 197 214 159 206 
224 169 216 228 173 222 230 173 224 228 169 223 225 164 218 221 158 214 217 152 209 215 147 205 
210 143 201 204 137 195 190 126 181 177 117 169 165 108 157 155 103 148 141 94 134 125 82 117 
105 67 97 70 35 59 37 3 23 38 5 20 40 7 18 42 11 18 47 14 20 51 17 22 
54 19 22 58 17 17 68 25 25 82 37 37 96 50 49 82 33 33 67 16 15 74 20 18 
80 21 20 86 22 21 91 22 22 97 23 24 101 24 25 100 22 24 100 21 24 100 21 24 
97 21 24 91 20 23 84 19 22 78 21 23 70 19 21 85 41 44 151 114 115 183 151 151 
212 187 180 243 232 208 248 238 208 248 237 203 248 238 197 152 137 90 93 73 25 110 88 32 
121 100 37 131 109 43 138 117 47 146 127 56 154 137 66 160 146 77 176 164 100 182 172 113 
171 163 112 174 167 123 168 162 124 152 145 114 125 117 92 83 75 57 24 14 7 48 38 26 
52 46 42 31 35 54 36 38 55 36 36 48 31 28 33 31 23 21 32 19 12 35 18 7 
76 53 28 115 88 52 153 121 76 145 111 60 147 110 54 157 116 57 156 115 55 153 112 52 
148 109 48 142 104 45 136 100 43 131 97 41 121 89 36 109 78 29 96 66 21 86 57 16 
78 48 13 71 37 12 61 29 7 57 27 5 56 29 5 58 33 8 55 32 7 49 28 5 
46 26 4 46 27 5 48 28 7 48 27 7 48 26 7 47 25 7 47 25 8 49 27 11 
51 32 14 54 38 18 59 46 25 67 58 35 87 83 57 91 91 63 86 91 61 77 83 53 
56 57 36 36 31 20 33 24 16 33 19 13 35 16 12 41 16 15 47 15 17 52 13 19 
54 11 18 58 13 19 62 15 21 66 19 23 63 18 18 60 18 14 62 24 15 72 39 23 
103 75 52 177 152 123 214 193 156 234 215 172 234 217 169 236 219 167 237 221 166 237 221 165 
236 222 160 236 222 157 236 222 158 237 223 159 238 223 160 238 223 160 237 223 159 236 221 158 
234 220 157 232 217 154 229 214 152 227 213 150 225 211 147 224 209 145 222 208 142 220 206 139 
220 206 137 220 207 136 223 210 137 225 213 138 227 215 139 227 215 139 227 214 138 226 213 137 
224 211 130 224 212 128 227 215 131 228 217 132 227 217 131 223 215 128 221 215 128 222 217 132 
225 222 138 229 225 147 230 227 153 229 227 159 232 231 169 228 227 171 218 217 167 218 217 171 
222 220 177 227 225 185 221 219 179 215 213 173 212 210 170 224 222 179 231 229 185 236 233 189 
236 238 189 236 240 189 236 239 189 235 238 187 234 237 187 234 237 189 234 237 190 235 237 191 
237 237 193 237 238 194 238 238 195 238 237 196 238 237 196 238 237 196 238 237 196 239 237 195 
239 237 195 239 237 195 239 237 194 239 237 194 238 237 193 239 236 193 238 235 192 238 235 189 
239 235 177 239 235 172 238 234 170 235 233 166 228 227 161 216 215 153 195 194 140 177 175 133 
168 165 137 180 175 164 152 145 147 121 111 123 108 96 112 61 48 63 21 7 18 22 4 11 
30 8 12 37 12 13 41 13 13 44 12 15 46 12 19 50 12 27 55 15 34 59 17 35 
63 19 25 62 19 24 64 23 28 71 34 37 74 41 43 71 41 42 60 32 33 51 26 25 
47 22 21 48 25 22 
42 22 20 47 25 23 78 49 45 91 56 52 89 50 48 67 22 21 68 16 16 81 21 24 
89 23 27 93 23 27 94 22 26 93 20 25 92 21 25 89 23 24 79 23 20 68 23 18 
58 25 16 47 30 15 66 63 42 92 102 74 95 117 84 97 130 91 99 140 97 101 148 102 
106 156 109 114 166 118 131 176 131 138 181 137 143 184 141 151 192 151 157 195 156 163 198 161 
171 203 169 176 206 174 180 207 177 179 205 177 183 208 181 187 211 185 189 213 187 187 211 185 
182 207 181 176 203 176 165 195 166 155 188 156 149 184 152 144 180 147 141 180 144 143 183 146 
142 182 145 138 181 140 129 178 130 123 173 124 118 169 118 114 168 113 105 160 104 98 154 97 
96 154 94 95 154 93 90 150 89 81 141 78 79 139 76 72 132 69 61 117 57 53 107 49 
46 98 41 40 87 34 32 76 26 28 69 22 27 67 23 37 77 35 52 92 53 74 114 76 
85 124 87 92 131 94 94 135 97 95 136 98 98 139 100 102 143 103 103 143 102 99 140 98 
93 134 90 101 143 98 97 139 94 82 125 80 84 126 81 80 121 77 71 110 67 65 101 61 
58 89 53 50 74 44 46 63 37 42 50 31 39 38 24 36 25 17 37 18 14 42 14 14 
47 15 18 53 15 21 57 16 25 59 17 25 59 17 24 58 16 22 56 14 19 56 13 17 
57 14 16 60 17 19 62 19 21 63 20 22 61 18 22 66 23 29 74 30 40 81 37 50 
126 81 99 178 133 157 190 144 173 199 153 187 206 159 198 210 162 206 213 165 212 216 167 216 
217 168 219 219 174 219 222 180 217 222 180 217 223 181 218 224 182 219 226 184 221 227 186 222 
228 188 223 229 189 224 230 191 225 230 192 226 231 192 227 231 193 227 231 194 227 231 195 227 
230 196 226 230 197 226 230 197 226 231 197 226 231 198 227 231 200 227 232 200 228 232 201 229 
232 201 229 234 202 227 236 203 227 239 207 231 238 208 230 235 207 227 231 205 223 233 211 227 
233 214 227 225 209 220 183 170 178 122 112 117 41 32 37 83 75 79 115 108 112 119 112 116 
116 109 113 146 138 143 217 209 214 233 223 230 243 231 240 248 235 245 245 231 241 243 229 240 
243 229 241 151 150 150 109 113 108 119 121 118 188 186 186 191 186 189 130 120 128 62 46 58 
101 78 95 233 205 226 232 197 224 231 191 222 230 185 220 225 177 215 223 171 213 222 167 212 
220 164 211 219 162 210 217 160 208 214 157 205 208 151 200 202 146 195 208 152 202 215 159 209 
223 166 216 227 171 222 229 171 224 228 168 223 224 162 218 220 156 213 215 150 208 212 144 203 
207 139 198 201 134 192 189 125 181 177 116 169 165 107 157 153 101 146 139 91 132 124 80 116 
104 65 96 70 34 59 38 3 22 40 6 22 42 8 20 44 11 19 48 13 20 52 16 22 
56 18 23 61 18 19 71 25 26 83 36 37 96 48 48 83 32 32 69 16 14 76 19 17 
81 21 19 87 22 20 92 22 22 99 24 24 103 25 26 102 23 25 102 23 24 102 23 24 
98 22 24 93 22 24 87 22 24 81 23 25 66 18 18 87 46 47 182 148 148 207 177 176 
224 201 192 248 239 211 248 240 207 244 235 198 242 230 187 151 136 87 94 76 26 109 89 31 
119 98 36 128 108 41 138 117 48 151 132 61 159 142 71 158 144 76 173 161 97 181 171 112 
178 169 117 180 172 127 180 173 133 178 169 136 132 123 95 80 70 51 23 11 6 32 19 9 
30 22 18 13 16 35 17 18 35 18 17 29 17 13 17 16 8 6 20 6 1 27 9 2 
70 46 23 116 88 51 163 131 84 156 121 67 154 116 58 156 115 54 160 117 54 159 116 52 
154 112 47 149 108 45 146 106 44 143 105 43 135 98 39 126 91 35 117 82 30 109 76 25 
99 64 22 88 51 20 77 41 13 68 35 8 62 31 6 61 33 7 59 32 6 54 30 5 
50 28 5 51 29 7 53 31 9 52 28 9 51 27 9 50 26 8 49 25 9 50 28 11 
52 32 14 55 38 18 57 44 22 61 53 29 71 67 41 73 74 45 70 76 45 63 70 38 
51 52 30 39 33 23 34 25 17 33 18 12 34 13 9 39 12 11 46 12 15 52 12 17 
57 12 18 61 13 19 64 15 20 67 18 21 64 18 17 62 19 13 63 24 13 72 39 21 
103 75 48 174 149 115 210 189 147 229 211 163 230 214 160 233 218 159 235 220 159 235 220 158 
232 218 151 230 217 146 231 217 147 232 218 149 233 219 150 234 220 151 234 219 151 233 219 151 
233 218 152 231 217 151 230 216 150 229 215 148 227 212 145 224 211 142 223 209 140 221 207 137 
220 206 135 220 207 134 223 210 134 225 212 135 226 213 136 226 214 136 226 213 136 224 212 134 
223 211 127 223 211 124 226 214 126 226 215 127 225 215 126 222 215 125 222 215 127 224 218 132 
226 223 139 228 225 146 227 224 151 224 223 156 229 227 167 222 221 167 207 205 157 205 204 161 
210 208 168 216 214 177 207 204 168 199 197 161 196 193 156 212 210 170 223 221 179 230 228 186 
234 236 187 237 240 188 238 240 189 236 239 187 236 238 187 235 237 188 234 236 187 234 235 187 
235 235 188 235 236 189 236 236 191 237 236 192 237 237 192 238 237 193 238 237 193 238 237 193 
238 237 193 238 237 193 238 237 193 238 237 194 239 237 194 239 237 193 239 237 193 240 236 191 
241 236 179 241 236 175 240 235 173 235 233 167 224 224 159 208 208 147 177 179 127 150 151 110 
130 130 103 128 127 117 138 135 138 143 138 150 125 117 134 71 60 78 25 12 27 19 3 12 
25 5 10 33 9 12 39 12 13 44 13 16 48 13 21 53 13 29 58 15 36 62 18 36 
64 20 26 64 20 24 66 24 28 73 35 38 77 42 45 76 45 46 68 39 39 60 33 33 
56 30 29 54 29 27 
49 27 26 56 32 30 82 51 49 91 56 53 87 47 46 64 18 17 66 13 14 81 20 23 
88 21 24 93 22 25 96 23 25 94 21 24 93 23 25 92 27 26 83 29 24 72 29 21 
61 32 19 56 41 23 71 70 46 90 104 73 94 119 83 96 132 91 99 142 98 99 148 102 
104 157 109 113 167 118 130 175 130 138 180 136 144 184 142 152 192 151 156 194 155 160 195 159 
167 200 166 171 201 169 173 201 170 174 201 171 177 203 174 180 205 178 183 210 182 181 208 180 
177 205 176 172 202 173 165 198 167 159 194 160 153 191 155 148 188 152 145 187 149 142 186 146 
137 181 141 131 177 135 125 175 126 118 170 120 113 166 114 108 163 108 100 156 99 94 151 94 
93 152 92 91 151 90 86 148 85 78 140 76 76 137 74 71 132 68 62 120 58 54 110 49 
47 100 42 41 91 36 36 83 30 33 77 28 33 75 28 43 86 40 58 101 57 77 122 78 
86 130 88 91 134 92 91 135 92 91 136 92 93 137 93 95 138 94 96 139 95 94 137 92 
88 130 86 101 144 98 99 143 96 85 128 81 87 129 84 84 126 82 78 117 75 69 105 65 
60 91 55 53 78 46 51 69 42 48 58 36 45 46 30 40 33 22 39 23 18 42 18 15 
46 17 17 51 16 21 57 16 25 58 17 25 59 17 24 59 16 22 57 14 19 58 13 17 
59 14 17 64 17 20 66 19 21 67 20 22 64 18 22 68 23 28 75 30 39 81 36 48 
125 80 97 177 132 154 188 143 170 197 151 184 204 157 196 209 161 205 213 163 211 216 165 214 
216 166 217 219 172 217 221 179 217 222 179 218 222 180 218 223 182 218 225 184 220 226 185 222 
227 187 223 229 188 224 229 190 225 230 191 226 230 192 226 230 192 227 230 193 227 230 193 227 
230 194 226 230 195 226 231 196 226 231 196 226 231 196 225 230 197 226 231 198 227 231 199 227 
231 199 227 234 200 226 237 203 227 240 208 231 238 208 229 235 208 227 232 206 225 235 212 228 
234 214 228 227 209 221 182 168 176 119 108 114 36 27 32 66 58 62 90 82 85 92 85 88 
94 87 90 131 123 128 212 203 209 230 221 228 241 230 239 246 234 243 244 230 241 242 228 239 
240 226 237 148 148 146 102 109 102 107 111 106 160 160 159 162 158 161 117 108 113 59 43 54 
99 77 93 226 198 220 233 198 225 234 193 226 231 185 222 227 178 218 224 172 215 222 167 212 
220 163 211 219 161 210 219 160 210 218 159 209 214 156 206 208 151 202 211 153 205 215 158 209 
221 163 215 222 165 217 223 165 219 225 163 220 223 159 217 219 154 212 214 147 207 208 139 199 
202 133 192 195 126 185 184 118 176 174 111 166 163 104 156 147 94 141 133 84 126 118 74 110 
99 59 90 66 30 55 37 3 21 41 6 22 44 9 22 47 11 21 50 12 20 54 15 22 
59 18 23 63 18 21 72 25 27 83 35 36 96 47 48 83 32 31 69 16 14 77 19 17 
83 20 18 88 21 19 94 23 21 101 26 24 107 28 27 108 27 27 109 28 28 108 28 28 
103 26 27 98 26 27 92 26 27 83 26 26 66 18 17 91 51 49 205 173 170 226 197 194 
233 212 202 248 242 212 243 238 203 238 231 191 238 229 183 163 151 100 112 96 42 113 94 35 
119 99 37 127 107 40 135 115 46 143 125 55 157 140 70 179 165 97 171 159 96 170 159 101 
178 169 117 177 169 123 184 176 135 200 191 156 129 118 89 77 65 41 52 38 19 32 17 7 
15 5 7 2 2 17 3 3 16 5 3 11 5 2 3 11 2 1 22 8 1 40 21 3 
75 51 23 111 83 44 148 115 67 144 108 54 147 107 49 156 113 51 163 118 53 163 118 52 
159 114 48 154 109 44 150 107 42 147 106 42 145 104 41 140 100 39 135 96 37 134 95 37 
122 83 34 105 65 29 93 54 20 78 40 12 62 28 6 59 27 5 59 30 6 61 34 6 
56 30 5 55 30 6 55 29 8 52 27 6 52 26 8 53 27 10 52 27 10 53 29 12 
53 32 14 55 37 17 55 43 20 56 48 24 60 56 29 60 61 31 58 63 31 53 61 27 
49 50 28 44 37 28 39 28 20 34 18 13 33 11 8 38 8 8 45 8 12 52 10 16 
58 11 17 62 13 18 65 15 19 66 16 18 65 18 15 64 20 13 65 26 13 71 37 17 
97 68 39 163 138 101 199 177 132 219 200 147 221 204 146 224 209 146 227 213 146 226 213 145 
224 210 138 223 208 134 224 210 135 225 211 137 227 212 140 229 214 141 229 215 143 229 215 144 
229 214 145 230 215 146 231 216 146 230 216 146 228 213 143 226 212 140 224 211 139 223 208 136 
222 207 134 222 207 133 223 209 133 223 210 133 224 211 133 224 211 133 224 210 132 222 209 131 
224 210 125 224 212 122 224 213 122 222 212 121 221 212 121 221 213 122 224 217 128 226 221 135 
229 225 143 227 223 147 223 220 149 218 216 151 215 214 157 204 203 153 187 186 142 190 188 150 
199 197 163 212 210 177 195 193 161 181 178 146 171 168 136 195 192 158 211 208 172 221 219 180 
229 231 182 235 237 185 239 240 188 238 239 187 238 239 187 237 238 188 236 237 187 235 236 185 
233 234 184 234 235 185 236 236 187 237 237 189 238 237 189 238 236 190 237 236 191 238 236 191 
238 236 191 238 236 192 238 236 192 238 236 193 239 237 193 239 237 194 240 238 195 240 237 192 
242 236 181 242 236 176 240 235 173 235 233 168 222 222 159 201 203 144 164 167 116 131 135 95 
107 111 83 99 101 91 137 138 140 160 159 171 115 111 128 63 56 74 24 13 29 16 3 12 
20 2 8 28 5 8 38 10 12 44 12 16 50 13 22 55 14 30 59 16 36 62 17 36 
64 19 24 66 20 24 69 26 29 78 38 40 80 44 45 77 44 45 66 36 36 59 30 29 
55 28 26 54 29 25 
37 15 14 46 21 20 80 47 45 91 53 52 86 45 44 64 17 16 66 12 12 82 20 21 
90 22 24 96 24 26 99 25 27 97 24 24 96 27 26 95 31 28 85 32 25 74 33 22 
64 36 21 61 49 27 72 74 47 87 102 69 91 118 80 93 131 89 96 141 96 97 149 101 
101 157 108 111 166 117 129 174 129 138 179 136 143 184 141 151 190 149 155 192 153 158 194 156 
162 196 161 165 197 163 167 197 165 168 197 166 170 199 168 173 202 171 177 207 176 174 204 174 
170 201 170 165 199 166 159 195 161 152 191 155 147 188 150 142 185 146 138 183 141 134 180 137 
129 176 132 124 173 128 120 172 122 115 168 116 110 165 111 107 163 107 99 156 100 94 152 95 
93 153 93 90 151 90 85 148 85 79 141 77 76 138 74 71 132 68 63 122 59 56 113 51 
50 105 45 45 96 39 41 90 35 40 87 35 41 88 37 51 99 49 65 112 65 82 129 82 
89 136 90 93 139 93 92 140 93 95 143 96 99 146 99 103 149 101 110 155 108 111 155 109 
106 150 103 121 164 117 117 160 113 99 142 95 98 139 94 92 133 89 83 122 80 76 112 72 
69 100 64 63 88 57 61 80 52 57 69 47 53 57 39 45 40 29 41 29 21 41 21 17 
43 19 18 49 18 21 56 17 25 58 18 26 59 18 25 60 16 23 59 14 18 60 13 17 
62 14 17 66 17 20 68 19 22 69 19 23 67 18 22 70 23 28 76 30 38 81 36 48 
124 80 97 176 131 154 187 142 169 196 150 183 203 156 194 208 159 202 212 161 209 215 163 213 
217 164 215 219 170 216 220 178 217 221 178 218 222 180 218 223 181 218 225 183 219 226 184 221 
227 186 222 228 188 224 229 189 225 230 190 225 230 191 226 229 191 226 229 192 226 229 192 226 
229 193 225 230 194 225 230 194 225 230 195 225 231 195 225 231 196 225 231 197 226 232 197 226 
232 197 226 235 201 227 238 204 228 240 207 230 239 208 229 236 207 227 233 207 225 237 213 230 
235 214 229 225 207 219 181 166 175 117 105 112 32 22 28 62 54 58 87 79 82 90 82 85 
89 81 85 126 117 123 212 202 208 229 219 226 239 227 236 243 229 240 241 227 238 241 226 236 
240 225 236 145 145 144 92 98 91 83 87 81 116 117 115 118 115 116 90 81 86 53 37 48 
103 81 97 231 203 224 237 202 230 233 192 225 220 174 212 224 175 215 224 172 216 223 168 214 
220 163 212 219 160 210 219 159 210 217 157 208 213 153 205 207 148 201 200 142 195 195 137 190 
193 136 189 208 150 204 216 155 212 219 155 214 219 154 213 217 150 210 212 144 204 204 134 195 
196 126 186 188 119 178 177 111 169 168 105 161 158 99 152 141 87 135 126 76 118 110 65 102 
92 51 83 66 28 54 43 7 27 43 6 23 45 8 22 48 10 22 51 12 20 55 14 21 
60 17 23 64 18 21 73 25 28 84 34 37 97 46 48 84 31 32 71 15 14 78 19 17 
84 20 18 89 21 18 96 23 20 103 26 24 110 29 28 115 32 31 116 33 32 115 33 32 
109 31 30 103 31 30 95 30 29 84 28 26 64 17 14 90 51 48 216 185 180 233 205 200 
234 214 202 242 238 206 234 231 195 224 219 179 213 205 160 152 140 90 111 96 43 113 96 38 
119 100 38 126 106 41 133 113 47 139 120 53 148 131 64 161 147 81 169 156 95 180 169 113 
197 187 137 199 190 145 210 201 161 230 221 187 191 179 150 162 149 123 151 135 112 64 48 39 
14 3 5 7 6 14 5 3 10 6 3 5 10 5 1 24 13 5 44 29 14 70 51 26 
97 73 40 123 95 53 149 115 64 152 114 59 160 119 59 172 129 63 169 123 56 166 119 52 
165 117 50 160 113 46 157 110 44 154 109 43 151 106 43 148 104 41 145 101 40 144 101 40 
135 92 39 121 78 37 117 75 35 111 71 35 105 67 34 101 66 35 94 62 31 85 55 25 
70 42 15 62 34 9 58 30 7 54 26 5 53 25 6 55 27 9 54 27 9 54 29 11 
55 32 14 57 38 18 57 43 20 56 47 22 58 54 25 57 58 27 55 61 27 51 58 24 
53 53 31 55 47 37 48 36 28 41 24 18 37 14 11 40 10 10 47 9 13 55 11 16 
61 13 19 65 14 19 67 15 19 67 15 16 68 19 16 69 23 15 69 28 14 74 39 17 
97 67 36 156 130 90 187 166 117 205 186 130 206 190 128 209 194 126 210 197 126 212 198 126 
214 200 125 216 202 124 217 203 126 219 205 129 222 208 131 224 210 134 224 211 136 225 211 137 
226 211 139 227 213 141 228 213 142 229 214 142 228 214 141 227 213 140 226 212 139 225 211 136 
224 210 135 224 210 134 224 210 133 224 211 133 224 211 132 224 210 131 223 210 130 222 208 129 
225 212 124 225 213 120 223 211 118 219 208 116 218 208 117 219 211 120 225 218 129 229 224 138 
233 229 148 228 223 149 220 217 149 211 208 148 198 196 143 184 182 137 170 167 130 182 180 147 
197 194 165 210 208 181 183 180 153 138 135 110 87 84 61 105 102 74 129 126 96 159 156 123 
194 195 148 215 216 164 225 225 174 233 234 182 237 238 186 239 239 188 237 238 186 236 236 184 
234 235 183 234 235 183 236 236 184 237 237 186 238 237 186 238 237 187 238 236 188 237 236 188 
237 236 189 237 236 190 237 236 191 238 236 192 239 237 193 239 238 194 240 238 195 241 238 193 
243 236 182 243 236 179 241 236 176 235 232 169 224 224 161 199 201 143 137 142 91 105 111 70 
83 89 62 66 72 60 71 74 74 74 74 83 54 52 68 32 27 44 16 7 21 13 2 8 
19 2 6 28 6 7 38 11 12 45 13 16 51 14 22 57 15 31 61 16 36 63 16 34 
61 14 19 64 18 22 71 26 29 80 39 41 78 40 42 70 35 36 52 21 20 43 16 15 
40 15 13 45 19 16 
28 4 4 39 13 12 78 43 42 92 52 52 88 45 45 66 17 17 68 13 12 82 19 20 
92 23 24 99 27 28 104 29 31 102 29 27 101 32 28 99 36 30 88 36 26 77 37 23 
67 41 22 63 53 29 71 76 46 83 100 65 88 118 79 92 131 88 94 142 96 97 151 102 
101 160 109 110 167 117 129 173 128 138 179 135 143 184 141 149 189 147 153 191 151 156 192 154 
158 193 156 161 194 159 163 195 161 164 195 162 165 197 164 168 199 167 172 204 172 169 202 169 
164 198 164 159 196 160 153 191 154 146 187 149 141 185 144 136 182 139 131 179 134 128 176 130 
124 173 126 120 171 123 116 171 119 112 168 114 108 165 110 105 163 106 99 158 100 95 154 96 
93 153 94 89 152 91 85 148 85 79 142 78 75 138 74 71 132 68 64 124 60 58 116 53 
53 109 47 48 101 42 45 97 40 46 96 41 49 99 46 58 109 57 70 120 69 85 134 84 
91 140 91 94 144 95 94 145 96 99 149 101 105 153 106 111 158 110 121 166 119 125 169 122 
122 166 119 133 176 130 128 171 125 111 152 107 107 148 104 99 138 96 88 126 84 82 117 78 
76 107 72 70 96 65 67 87 60 63 77 53 58 64 46 48 46 33 42 33 25 40 24 19 
41 21 18 46 19 20 54 17 25 57 18 26 59 18 25 60 17 23 61 15 19 62 14 18 
65 15 18 68 17 21 70 18 22 71 19 24 69 19 23 72 23 29 77 30 39 82 37 49 
124 80 96 174 130 152 186 142 168 195 150 182 203 156 193 208 159 201 212 160 207 215 161 212 
217 162 214 218 169 215 219 176 215 220 176 216 221 178 216 222 180 217 224 181 219 225 183 220 
226 185 222 228 187 224 229 188 224 230 189 224 229 190 225 228 189 224 228 189 224 230 192 227 
230 193 226 230 193 226 230 193 225 230 193 224 231 194 224 232 196 226 232 196 226 233 197 227 
232 197 227 236 200 227 239 204 228 240 206 230 239 207 229 237 207 228 235 208 227 238 213 230 
236 214 229 224 206 218 181 165 174 117 104 111 31 20 26 62 52 57 87 78 82 91 82 86 
89 79 84 125 116 122 213 202 208 229 217 225 237 224 233 241 226 237 240 225 236 239 224 235 
240 224 235 143 143 141 85 92 85 69 73 68 86 86 84 86 82 83 70 61 67 47 31 42 
105 83 100 235 207 228 239 204 232 231 191 223 215 168 206 222 172 213 224 172 216 224 169 216 
220 162 211 218 158 209 217 156 209 214 154 207 211 150 204 205 145 199 193 135 189 181 123 177 
173 114 169 196 136 192 209 146 204 214 149 209 216 151 211 215 147 208 210 141 202 200 130 191 
191 121 182 182 113 173 171 105 163 162 99 155 153 94 147 136 82 129 121 71 113 106 60 97 
88 46 78 66 27 53 47 9 30 46 6 24 48 8 22 51 10 22 54 12 20 57 14 21 
61 17 23 65 18 21 73 24 28 84 34 38 99 46 49 86 31 32 73 16 14 79 19 17 
85 20 17 91 22 18 98 24 20 106 28 24 115 32 29 123 38 35 124 39 37 122 39 37 
116 37 34 109 36 33 99 34 30 85 30 25 63 17 13 90 52 47 219 189 181 235 209 200 
234 216 200 236 235 202 226 225 188 212 208 168 194 187 142 140 129 80 105 92 40 111 95 39 
118 99 40 125 104 42 131 111 47 136 117 53 142 124 61 147 132 71 169 156 98 191 179 126 
211 200 154 217 207 165 229 218 182 248 238 205 239 227 198 231 216 190 226 209 185 91 73 64 
17 4 4 12 9 11 9 5 6 10 4 2 15 7 1 34 22 8 61 45 22 94 74 43 
115 91 52 133 104 58 148 114 61 158 120 63 170 129 67 183 139 71 173 127 59 169 121 53 
170 121 52 166 116 49 162 113 46 160 110 45 156 107 44 153 105 43 150 103 42 148 101 41 
143 96 41 135 90 44 137 93 48 138 95 52 139 97 54 133 95 54 121 86 48 103 71 37 
82 51 21 69 39 12 61 31 6 56 27 5 56 26 6 56 26 7 56 27 8 55 28 9 
55 30 12 57 37 16 57 42 19 57 47 21 58 53 24 56 56 24 52 57 23 48 54 20 
57 56 33 64 55 46 55 42 34 46 27 22 40 15 13 42 10 11 48 10 13 57 12 17 
64 14 20 68 15 21 69 16 20 69 16 17 71 20 17 72 25 16 73 30 15 79 42 18 
100 69 35 152 126 83 179 158 106 194 176 116 196 180 113 196 182 110 196 184 108 199 187 109 
204 191 112 209 195 115 211 197 118 214 200 121 217 203 125 220 206 129 221 207 131 222 207 132 
223 209 135 224 210 136 225 211 137 226 211 138 227 212 139 227 213 139 226 212 138 226 211 137 
225 211 135 225 211 134 224 211 133 224 210 132 224 210 131 224 210 130 223 210 129 223 210 129 
226 213 124 226 213 120 223 210 116 218 207 114 217 206 115 218 209 119 224 217 129 230 224 139 
234 229 150 228 223 152 219 215 151 206 203 147 182 179 132 167 164 125 159 156 125 177 174 148 
196 193 171 213 209 189 176 172 152 106 103 85 23 20 3 36 33 13 66 63 39 109 105 78 
166 165 121 199 199 148 215 215 164 230 230 179 237 237 186 239 238 186 237 237 184 236 237 182 
236 236 181 236 236 182 237 237 182 238 238 183 238 238 183 238 238 184 238 237 186 237 236 185 
236 236 186 236 235 186 237 235 188 238 236 190 238 237 192 239 237 193 240 238 194 240 238 193 
242 235 183 244 236 181 243 238 180 236 233 171 226 226 165 199 202 143 121 127 76 88 95 54 
67 75 46 42 50 36 18 23 20 2 3 9 6 6 18 7 5 18 9 3 14 12 2 6 
20 4 4 29 7 6 39 12 10 46 13 14 52 13 20 56 14 29 61 15 34 63 15 32 
59 10 16 62 15 19 69 24 27 79 37 40 77 38 41 66 31 31 41 10 9 33 5 4 
32 7 5 42 14 11 
33 7 7 46 19 19 80 44 43 94 53 52 93 48 49 71 21 21 71 15 14 83 20 19 
93 23 24 104 30 30 113 37 36 112 38 34 108 39 33 102 40 31 92 42 28 80 42 24 
69 44 22 63 54 28 68 74 42 78 97 60 87 119 78 93 135 91 98 148 100 102 158 108 
106 166 115 112 172 121 128 173 127 137 178 134 143 184 141 149 189 147 152 191 150 154 191 151 
156 192 153 158 193 156 161 195 159 164 198 162 164 198 163 165 199 165 168 202 168 165 201 166 
161 197 162 155 194 156 149 191 151 144 188 146 140 186 141 135 183 138 131 181 134 127 178 130 
124 176 127 120 174 123 114 170 117 110 168 113 107 165 109 103 162 104 99 158 101 95 156 97 
93 154 94 89 151 91 84 147 85 78 141 78 74 136 73 69 131 68 65 126 62 58 117 54 
52 109 48 49 104 44 48 101 44 50 102 46 56 109 53 61 112 58 70 121 67 84 136 82 
90 141 89 95 146 95 98 149 100 101 151 103 106 154 107 112 159 112 119 164 118 123 166 121 
123 166 121 123 165 120 120 160 116 114 153 110 111 150 108 103 141 100 91 128 88 83 117 80 
75 106 72 69 95 65 65 86 59 61 76 52 55 63 45 48 48 35 42 36 27 38 27 20 
38 23 17 43 19 19 52 16 23 55 17 24 58 18 25 61 18 24 64 17 22 67 17 21 
70 17 21 72 17 21 73 18 22 74 19 24 73 19 25 75 24 31 80 31 40 85 40 52 
124 80 96 170 128 148 185 142 167 195 151 182 203 157 193 208 159 201 212 160 207 215 161 211 
216 160 212 216 165 212 216 171 211 217 172 212 218 173 213 220 175 215 222 177 217 223 180 219 
224 182 221 226 184 223 228 186 223 229 188 224 230 189 225 225 185 220 224 184 219 234 195 230 
234 196 231 233 195 229 231 192 227 230 192 225 231 193 225 234 196 228 235 197 229 235 197 229 
234 197 228 235 198 226 236 200 226 239 204 229 239 206 230 239 208 230 238 210 229 238 213 230 
235 212 227 226 207 219 183 166 176 120 105 112 34 22 28 63 52 58 86 76 82 88 78 84 
91 81 87 129 119 125 212 201 207 228 216 223 237 223 232 241 225 236 240 224 235 240 223 235 
240 223 236 142 140 140 89 94 88 83 87 83 87 86 85 83 77 80 70 60 68 43 26 38 
101 79 95 235 207 228 235 200 228 231 190 223 223 177 215 223 172 215 224 170 215 225 169 217 
216 157 206 212 152 203 213 152 204 214 153 205 211 150 203 205 144 199 200 140 194 189 129 184 
176 116 172 190 128 186 202 139 198 214 148 210 218 151 213 215 146 209 207 136 199 198 128 190 
190 119 181 180 110 171 167 101 159 158 95 151 148 89 142 135 79 127 122 71 114 109 62 100 
92 49 81 67 26 52 44 5 25 48 6 25 51 9 23 54 12 22 57 13 21 61 16 22 
63 17 22 63 15 19 72 22 27 86 34 38 101 47 52 89 32 34 74 16 15 81 20 17 
88 22 18 95 24 19 104 27 23 113 32 27 122 37 33 130 44 39 132 46 41 130 46 42 
125 45 39 116 43 37 104 40 32 88 34 25 68 23 14 94 56 46 212 182 172 233 208 196 
235 218 201 236 235 202 223 222 186 207 204 166 193 187 144 136 126 80 100 87 38 107 92 38 
115 97 40 122 102 43 127 106 46 135 115 56 146 127 69 158 141 85 177 162 109 196 181 133 
212 199 156 219 206 168 226 214 180 236 223 193 234 220 192 230 213 189 223 205 182 93 73 64 
20 4 1 12 8 2 11 5 1 11 3 1 10 1 0 31 18 3 61 44 18 99 78 41 
118 92 49 131 100 51 139 105 50 155 116 57 166 124 61 174 129 63 174 126 60 174 124 57 
172 122 55 170 118 52 167 114 50 163 110 47 159 106 45 154 102 43 150 98 41 148 96 40 
147 97 43 147 99 51 145 98 51 142 96 50 137 93 48 128 87 44 115 77 37 100 65 29 
87 53 20 75 42 13 66 33 7 63 31 6 60 28 5 57 25 5 60 29 8 56 28 7 
52 26 6 53 32 10 56 40 15 59 48 20 58 52 22 52 52 20 45 49 16 40 45 11 
55 53 30 69 59 49 56 42 35 46 26 21 39 12 10 41 6 8 48 6 11 57 9 15 
65 14 20 70 16 22 74 18 23 75 19 21 73 20 18 71 23 15 73 30 14 82 44 20 
105 73 38 155 129 83 177 156 101 190 172 109 193 178 107 192 179 103 191 180 100 193 183 100 
197 184 103 201 187 106 205 190 111 209 194 115 214 199 120 218 203 125 220 204 128 221 205 130 
223 207 132 223 207 132 223 207 132 222 206 133 224 207 134 225 208 136 225 209 136 226 210 135 
225 209 134 224 208 132 223 207 130 223 207 130 223 208 130 225 210 130 226 211 131 228 213 133 
228 213 124 226 213 118 224 211 116 221 209 115 219 208 116 219 208 119 223 214 128 227 220 138 
232 226 151 229 223 155 220 215 156 206 202 152 172 168 127 158 154 121 160 156 132 175 170 152 
197 193 179 221 217 205 180 176 164 107 104 91 21 18 4 42 39 23 70 67 48 106 102 81 
162 160 118 198 197 148 222 220 170 234 233 182 238 237 185 237 235 183 236 235 181 235 235 179 
235 235 179 238 238 182 239 239 183 239 239 183 238 238 182 238 238 182 239 239 184 237 237 184 
235 235 183 233 233 182 235 234 184 236 235 187 238 237 189 238 237 191 239 237 192 239 236 191 
241 232 183 243 235 183 245 240 183 241 238 178 230 230 169 201 205 146 132 139 86 95 103 59 
67 76 43 38 46 28 16 23 16 2 7 9 3 6 12 5 5 12 9 5 10 15 6 6 
22 8 4 31 10 5 40 13 8 46 13 12 51 12 16 54 11 23 59 11 29 62 12 29 
61 12 18 61 12 16 63 17 20 72 30 33 80 41 43 73 37 38 42 10 8 40 10 8 
44 16 13 52 23 19 
35 10 9 37 12 11 78 42 41 95 53 53 95 49 49 73 21 21 73 15 15 85 20 20 
94 24 23 105 31 30 116 39 36 114 39 34 110 41 33 104 42 30 93 43 27 81 44 24 
70 47 22 65 57 28 69 76 42 78 98 60 87 120 78 92 135 90 96 147 99 100 157 107 
104 165 113 111 171 120 126 172 126 135 177 132 142 183 139 148 188 145 150 190 147 152 190 149 
153 190 150 156 192 153 158 194 156 160 196 158 161 197 159 161 197 161 162 200 163 159 198 160 
155 196 157 151 193 152 146 190 148 141 187 143 137 185 139 133 183 135 129 180 131 124 177 126 
121 175 123 117 172 120 111 169 113 107 166 109 103 162 106 99 159 101 96 156 98 92 154 95 
90 152 92 86 148 88 81 144 83 75 138 75 71 133 71 67 129 66 64 125 62 57 116 54 
53 110 49 51 106 46 48 101 44 51 104 48 62 116 59 67 120 64 76 128 73 88 140 85 
93 145 91 97 149 97 102 152 105 104 154 107 109 156 110 115 161 115 121 164 119 125 166 123 
128 168 125 126 164 122 123 160 119 118 155 114 115 152 112 109 145 107 101 136 99 89 123 88 
79 109 77 70 96 67 65 87 61 60 76 54 54 64 46 47 50 36 40 39 28 36 29 20 
35 25 17 41 20 18 50 16 22 53 17 22 57 17 22 61 17 23 65 17 22 69 17 21 
72 17 21 74 17 21 75 18 22 76 19 24 75 19 25 76 23 31 79 30 39 85 40 52 
123 80 96 169 127 147 184 141 166 194 150 181 202 156 191 206 157 198 210 158 203 214 158 208 
215 157 210 215 163 211 216 170 210 217 171 211 218 172 213 219 174 214 221 176 216 223 179 218 
225 181 221 227 183 223 229 185 223 230 187 224 230 188 225 227 185 221 225 185 220 233 192 228 
234 194 229 234 193 229 232 191 227 232 192 226 234 194 227 237 197 230 238 198 231 238 198 231 
237 197 229 233 194 223 232 194 220 235 199 224 235 201 225 236 203 226 236 206 228 237 210 228 
236 211 227 230 209 222 182 164 174 120 104 113 44 31 39 64 52 59 81 70 76 82 71 78 
81 69 76 117 106 112 203 190 198 225 211 220 237 222 232 242 225 237 240 223 235 239 221 235 
239 221 236 144 140 142 91 95 91 85 87 85 84 82 83 79 72 77 68 56 65 38 21 32 
97 75 90 235 206 228 230 194 222 223 181 214 215 169 206 223 171 214 228 173 219 231 173 222 
221 161 211 217 157 208 217 157 209 215 154 207 209 147 202 201 139 194 199 138 193 191 131 186 
181 121 178 190 127 186 201 137 197 213 147 209 217 149 212 213 143 206 205 133 196 197 125 189 
189 117 180 178 108 169 163 97 155 154 91 146 146 86 138 133 78 126 122 70 113 109 62 100 
95 51 83 71 29 55 48 6 28 51 8 26 53 9 23 55 10 20 60 13 21 63 16 22 
65 17 22 64 15 20 73 23 27 86 34 39 102 48 52 89 32 34 74 16 14 82 20 16 
90 23 18 98 26 20 108 30 23 117 35 28 126 40 34 132 45 38 134 47 40 133 48 40 
128 47 39 119 46 37 108 43 33 92 37 25 73 27 15 97 59 45 207 177 162 227 202 186 
230 214 193 230 230 197 217 216 181 202 199 162 190 184 142 132 123 79 96 84 38 104 88 38 
113 95 42 120 99 45 123 102 47 134 113 59 149 130 77 169 151 100 192 175 127 211 195 152 
225 211 172 230 217 182 235 223 191 243 229 200 240 225 200 239 222 199 239 222 200 141 121 105 
90 74 59 93 86 69 89 81 63 84 75 56 79 67 48 92 76 49 111 92 56 137 114 70 
148 121 73 155 124 70 158 123 65 166 127 66 173 131 66 178 134 67 180 132 65 180 129 63 
179 126 60 176 123 58 172 118 56 168 114 53 164 109 51 159 104 48 154 100 45 153 98 44 
153 99 47 154 102 53 152 101 53 149 100 53 144 98 52 137 93 49 127 86 44 115 78 38 
102 66 30 91 56 23 83 49 19 81 47 19 85 52 25 90 56 31 79 47 23 66 36 14 
54 27 5 53 29 6 54 36 10 56 44 15 57 50 20 52 50 18 45 47 14 38 42 8 
55 52 29 72 60 50 60 45 36 50 29 24 44 15 14 45 10 11 52 9 13 59 11 17 
67 14 21 72 16 22 75 18 22 76 20 22 74 21 18 73 23 14 74 29 13 83 44 19 
105 73 37 153 127 79 175 154 97 187 169 104 188 174 101 187 175 96 186 175 92 187 178 92 
191 179 95 195 180 99 198 183 103 202 187 107 207 192 112 211 196 117 214 198 120 215 199 123 
216 200 124 217 201 126 218 202 127 218 202 128 221 205 131 223 207 133 224 208 134 225 209 133 
224 209 132 223 208 131 223 207 129 223 207 128 223 208 129 225 210 130 227 212 131 229 213 132 
228 213 122 226 213 116 224 211 115 221 208 114 220 208 116 221 211 121 223 215 129 226 218 139 
228 222 149 222 216 152 207 202 147 183 179 133 139 134 98 136 132 104 168 163 143 174 169 156 
197 191 183 225 220 214 165 161 154 94 90 83 23 20 12 34 31 20 59 56 43 94 91 75 
137 135 96 179 177 129 217 215 166 231 229 180 237 235 184 237 235 183 236 235 180 235 235 178 
236 235 177 238 238 179 239 239 180 239 239 179 237 237 177 237 237 178 238 238 180 238 238 181 
236 236 181 234 234 181 236 235 183 237 236 186 238 237 188 239 237 190 238 237 190 239 237 190 
242 234 186 244 236 186 244 238 184 240 237 177 226 226 165 198 202 142 143 150 95 105 114 67 
73 82 46 41 49 27 17 24 13 2 7 4 2 4 5 4 4 5 8 5 4 15 7 3 
22 7 2 30 9 3 40 12 5 46 13 8 50 12 12 52 8 18 58 10 26 64 14 29 
67 17 23 66 17 21 67 20 24 75 32 35 82 43 45 74 38 39 40 8 7 37 7 5 
41 12 9 48 19 15 
36 11 11 31 6 5 76 39 39 95 52 53 95 48 49 74 21 21 74 15 15 86 21 20 
95 25 23 107 32 29 116 39 35 115 40 33 111 42 31 105 43 30 94 44 26 83 46 24 
72 50 23 68 61 29 72 79 44 80 101 61 87 121 77 91 135 88 94 145 97 97 154 104 
101 163 111 108 169 117 123 171 124 133 175 130 140 181 137 145 187 142 148 188 145 149 189 146 
150 189 147 152 190 149 154 192 152 156 194 154 156 194 155 156 194 156 156 196 157 153 195 154 
150 193 151 146 191 148 142 188 143 138 186 139 134 184 136 130 181 131 126 179 127 121 176 122 
118 173 119 114 170 115 108 167 109 104 163 105 100 160 102 96 156 97 92 153 94 89 151 91 
86 149 88 82 145 84 78 140 79 73 135 73 69 130 68 65 126 64 61 121 60 56 114 53 
53 109 49 52 107 47 48 101 44 52 105 49 67 122 65 73 127 70 81 134 78 92 144 89 
95 147 93 100 151 99 105 154 109 107 154 110 111 156 112 116 160 117 123 164 122 128 167 126 
133 169 129 131 166 128 128 162 125 123 157 120 121 154 118 116 149 114 108 142 108 95 126 94 
82 111 81 71 97 69 65 87 62 59 76 54 52 64 46 44 51 35 37 39 27 32 30 20 
31 26 17 37 21 18 48 16 20 51 16 20 55 16 20 60 16 21 65 16 21 70 16 21 
74 16 21 77 16 21 77 17 22 77 18 24 76 19 25 76 23 30 78 29 38 85 39 51 
123 80 96 169 127 147 183 141 165 192 149 179 199 153 189 202 153 193 208 154 200 212 156 205 
214 155 208 215 162 209 215 169 210 216 170 211 217 171 212 218 173 213 220 175 215 223 177 218 
225 180 220 227 182 222 229 184 223 230 185 223 231 186 224 229 185 222 228 185 222 232 189 225 
233 190 226 233 191 227 233 190 226 234 191 227 237 194 228 240 197 231 241 198 233 240 198 232 
238 195 230 231 190 220 228 189 216 233 195 222 233 197 223 233 199 224 233 201 224 234 205 225 
234 208 225 233 210 224 181 161 173 119 102 112 51 36 46 64 51 58 77 64 71 79 65 74 
76 63 70 112 99 107 200 186 195 225 209 220 238 221 233 242 224 238 240 221 235 239 219 234 
239 218 236 148 142 147 97 98 96 88 87 87 82 79 81 76 67 74 69 53 65 39 20 32 
98 74 91 237 205 229 226 188 217 214 171 205 203 155 193 218 165 208 226 169 217 229 169 219 
220 159 210 217 156 207 219 158 210 216 154 208 208 146 200 198 136 191 199 138 192 194 134 189 
188 127 183 192 128 188 201 135 196 211 145 206 214 145 208 210 138 202 202 129 193 196 122 186 
186 114 177 175 104 165 159 92 150 150 86 141 143 83 134 130 75 122 118 66 109 105 57 95 
93 48 79 72 28 54 52 9 30 53 10 26 54 9 21 55 8 18 62 14 21 66 16 23 
68 17 23 66 16 21 74 24 29 87 35 40 102 48 52 88 32 33 74 16 13 83 20 15 
91 24 18 101 28 20 111 32 24 121 38 29 130 42 34 134 46 36 135 48 37 134 49 38 
130 49 37 122 49 36 112 46 32 96 41 25 78 31 15 98 61 43 198 169 149 217 193 172 
220 204 180 220 220 188 208 208 174 195 193 157 184 179 139 128 120 77 93 81 37 101 85 38 
112 92 44 119 98 48 122 101 51 136 115 65 157 136 87 183 164 117 208 190 147 227 211 172 
239 224 189 241 227 196 244 231 202 249 234 207 245 228 205 243 225 203 244 227 205 185 166 144 
158 140 117 165 155 127 160 148 118 153 140 107 146 131 94 149 131 91 157 136 92 169 145 95 
175 147 94 177 146 89 177 141 81 178 138 75 181 138 73 184 139 73 186 137 71 186 135 69 
184 131 67 182 127 65 178 123 63 173 118 60 169 113 57 164 108 54 160 103 51 158 101 50 
158 102 52 159 105 56 158 104 56 155 104 56 151 103 56 147 100 55 140 96 52 130 91 48 
117 80 40 108 72 34 102 66 30 100 65 32 108 73 41 115 80 49 95 61 33 75 43 18 
58 29 5 52 27 5 51 32 6 52 39 10 54 46 15 50 47 15 44 44 12 36 39 7 
54 49 28 72 59 49 61 45 37 54 31 26 49 19 17 50 14 14 56 12 16 62 12 18 
69 14 21 73 15 21 76 17 22 78 19 22 77 21 18 75 23 14 75 29 12 83 43 18 
105 71 34 150 123 75 172 150 92 183 165 98 182 168 93 181 169 88 180 170 85 181 172 84 
185 173 88 189 174 93 191 176 96 196 181 100 200 185 104 204 189 109 207 191 112 208 193 115 
209 193 117 211 195 119 212 196 120 213 197 122 218 202 127 221 205 129 222 206 130 223 207 130 
223 207 129 223 207 128 222 207 127 222 207 126 223 208 127 225 210 128 226 212 129 228 213 130 
227 213 119 226 212 113 224 211 113 222 209 112 221 209 116 224 213 123 225 216 131 226 218 139 
225 218 147 215 209 147 193 187 136 159 154 113 99 94 66 107 102 82 170 164 150 174 168 160 
193 187 183 218 212 211 145 141 140 79 75 74 24 20 17 25 22 16 45 42 34 78 75 64 
114 111 74 162 160 113 215 213 164 228 225 177 235 233 182 238 236 183 237 236 180 236 235 177 
236 235 176 236 237 176 237 238 176 237 238 175 236 236 173 236 237 174 237 238 177 238 239 178 
237 237 179 235 236 179 236 236 181 237 237 184 238 237 186 237 237 188 237 236 187 238 236 187 
243 236 189 244 236 188 242 236 184 236 233 175 222 222 161 198 201 140 154 161 104 117 125 75 
82 91 50 49 57 28 23 30 12 5 10 1 3 4 0 4 3 0 9 4 0 16 7 1 
24 8 1 32 11 2 43 15 3 48 15 6 52 13 10 53 8 14 58 10 23 65 15 28 
70 20 26 69 20 25 71 23 28 78 35 38 85 45 47 75 39 40 40 8 7 36 6 4 
40 11 8 47 18 14 
38 12 12 32 5 5 76 38 40 95 51 53 96 47 49 75 21 21 76 16 15 88 22 21 
98 26 24 108 33 29 116 40 34 115 41 32 112 43 31 108 45 30 97 46 26 86 49 24 
77 53 25 72 65 32 75 84 46 82 104 63 88 122 77 90 133 86 91 143 94 94 151 101 
98 160 108 105 167 116 121 169 121 130 174 128 137 180 135 142 185 140 145 187 143 146 187 143 
146 187 143 148 188 146 149 189 149 151 191 150 150 190 150 150 190 150 149 192 150 147 191 147 
144 189 144 141 188 142 137 186 138 134 184 134 131 182 131 127 180 127 122 177 123 117 173 117 
115 170 114 110 167 111 103 164 105 100 160 101 96 157 97 92 152 93 88 149 90 85 147 87 
82 145 84 79 141 80 75 136 76 70 131 71 66 127 66 62 121 61 57 115 56 54 110 51 
51 107 48 50 104 47 49 101 45 54 107 52 71 124 69 76 129 74 83 136 81 94 146 91 
97 149 94 102 151 101 108 154 112 109 153 112 112 154 114 116 156 117 126 163 125 133 168 131 
138 169 136 138 169 135 135 165 132 130 159 126 128 157 125 121 151 120 110 141 111 95 125 95 
83 111 82 73 99 72 63 86 62 55 73 52 47 61 42 38 49 32 31 38 23 26 28 16 
26 26 15 33 20 15 45 15 17 48 14 18 54 15 19 60 15 19 65 15 20 71 15 21 
77 16 22 79 17 21 79 17 22 79 18 23 76 19 24 76 22 28 78 28 36 84 39 49 
123 80 95 169 128 147 181 140 164 189 146 176 195 149 184 199 149 189 205 151 196 210 153 203 
213 153 205 213 159 207 213 166 209 215 167 210 216 169 211 217 170 213 219 172 215 221 175 216 
223 177 217 225 179 219 227 181 221 228 183 223 229 184 223 230 184 223 231 185 223 231 186 224 
231 185 223 231 186 223 234 188 225 235 189 226 236 191 228 240 195 232 240 195 232 240 194 231 
238 193 230 228 185 218 225 184 213 236 195 224 237 198 226 234 197 224 228 194 219 227 197 218 
228 201 220 233 209 224 180 158 172 116 97 109 48 30 41 60 44 54 74 58 68 80 64 75 
86 70 80 127 111 121 213 196 207 231 213 226 241 221 236 243 222 239 240 218 235 239 216 234 
240 217 236 155 147 154 106 104 106 94 91 94 82 76 81 76 64 73 75 57 70 50 27 44 
109 80 101 240 206 232 224 184 215 206 160 196 189 138 177 205 150 194 212 154 202 211 150 201 
203 140 191 204 141 193 212 149 202 214 151 204 209 146 200 202 138 192 203 141 194 200 139 193 
196 134 190 195 131 189 200 134 193 206 139 199 207 137 199 204 132 195 198 125 189 191 118 181 
182 108 171 170 98 159 153 85 144 144 80 136 138 78 129 123 68 114 108 57 98 93 46 81 
80 34 64 65 21 46 54 10 30 54 9 24 55 8 20 57 9 18 64 14 21 69 18 24 
72 19 25 68 18 24 75 25 31 87 35 41 101 47 52 88 31 33 74 16 13 84 21 16 
94 25 18 103 29 21 114 35 26 126 42 31 134 46 35 135 46 34 136 48 35 137 51 37 
133 52 36 126 52 35 116 50 32 100 44 24 83 36 16 99 61 39 183 154 130 201 177 151 
204 189 160 202 202 171 193 194 162 184 183 149 176 171 133 123 114 74 90 77 36 97 81 37 
110 91 45 121 99 53 127 105 59 145 124 78 170 149 104 202 182 140 224 206 168 240 224 189 
249 234 203 248 235 206 248 234 208 248 232 208 241 224 201 232 214 192 222 203 181 206 186 165 
197 178 152 194 179 142 190 175 136 186 169 129 180 163 119 179 160 112 180 157 106 181 157 101 
186 157 100 188 155 95 187 151 88 185 145 81 186 143 79 189 143 79 190 141 77 189 139 75 
188 136 74 186 131 72 183 126 70 178 121 67 174 116 65 170 111 62 166 108 59 163 104 57 
163 105 58 164 107 60 162 106 59 159 106 59 156 106 59 155 106 59 149 104 57 141 100 54 
131 93 48 124 87 44 119 83 42 118 82 43 118 82 45 116 81 45 98 64 30 79 46 18 
61 31 6 53 26 4 50 28 5 49 34 6 48 38 7 45 39 7 40 38 7 34 34 5 
50 44 24 67 54 43 60 42 34 54 31 26 52 21 19 54 16 17 59 14 18 64 13 19 
69 13 20 73 14 21 77 16 21 80 19 22 79 21 19 77 23 15 77 29 13 84 43 18 
104 70 33 147 118 70 166 144 85 176 158 90 174 159 84 172 161 80 172 162 76 173 164 76 
179 167 81 184 169 87 186 171 90 190 175 94 194 179 98 197 182 102 200 184 105 202 187 108 
205 189 112 205 189 112 205 189 112 206 190 114 212 196 120 216 200 124 217 201 124 218 202 124 
219 203 123 219 204 123 219 204 122 219 204 122 220 205 123 222 207 124 224 210 125 226 212 127 
226 212 116 226 212 110 225 212 112 224 211 113 224 213 117 227 216 125 228 218 133 227 218 140 
223 214 145 209 202 142 181 175 125 139 134 95 54 48 34 67 61 56 160 154 144 174 168 164 
186 180 180 190 185 188 123 119 122 66 62 64 19 16 16 19 16 14 32 30 26 57 54 46 
97 93 59 157 153 108 222 218 172 228 223 175 234 231 181 241 238 186 240 237 182 239 236 178 
237 235 175 236 235 173 235 236 171 236 236 171 235 235 170 236 236 171 238 238 173 238 239 176 
237 238 177 237 237 178 235 235 178 234 234 179 234 234 181 234 234 183 233 234 183 234 233 184 
241 234 191 242 234 189 240 233 183 232 229 171 222 222 160 204 208 143 165 170 110 128 135 81 
95 102 56 63 70 35 37 42 16 17 20 2 7 7 1 6 3 0 9 3 0 19 8 1 
30 13 2 41 19 3 51 23 5 56 21 8 57 17 11 55 9 12 59 11 19 65 14 25 
68 18 23 68 18 23 70 23 27 79 36 38 87 48 49 79 43 43 44 13 11 43 13 11 
49 20 17 59 29 25 
39 12 12 42 14 14 80 40 42 96 50 52 96 46 48 75 21 21 77 17 16 90 24 22 
99 28 25 109 34 29 118 41 33 116 42 31 114 44 31 110 48 30 99 49 27 89 52 26 
81 57 27 77 70 35 80 88 49 86 107 65 88 122 77 89 132 85 89 140 92 91 149 98 
96 157 106 103 164 114 119 167 119 129 173 126 135 179 133 140 185 138 142 186 140 143 185 141 
142 185 140 143 186 142 145 187 144 146 188 145 145 187 145 144 187 144 143 187 143 141 187 141 
138 185 139 135 184 136 133 183 133 130 182 130 127 181 127 123 178 123 119 175 119 114 171 114 
111 167 110 107 164 106 101 162 102 97 159 99 93 154 95 89 150 90 86 146 87 83 144 84 
80 142 81 76 138 78 72 134 73 68 128 68 64 124 64 60 118 59 55 111 53 51 107 50 
50 103 47 49 102 47 47 98 44 53 105 51 70 122 69 76 128 74 84 135 82 95 146 92 
98 149 96 103 151 103 109 151 113 109 149 112 111 149 113 116 152 116 127 160 127 137 167 136 
146 173 143 145 171 143 143 168 140 137 163 134 136 161 133 131 157 130 123 150 124 110 137 111 
95 122 96 80 105 81 68 91 69 58 78 57 47 63 44 36 50 33 29 39 24 24 31 17 
24 28 16 30 21 15 42 14 16 46 13 17 51 13 17 58 13 17 65 14 18 72 15 20 
79 17 22 81 17 22 82 18 23 81 18 23 78 18 24 78 22 29 80 30 37 87 40 51 
126 82 97 171 130 149 181 141 165 188 145 175 192 146 181 195 145 186 202 147 193 209 150 200 
213 151 203 212 157 205 210 163 206 212 164 207 213 165 208 214 167 210 217 169 212 219 171 213 
221 173 214 223 175 216 225 177 218 227 179 220 227 179 220 231 183 223 233 185 224 231 183 222 
230 182 220 231 183 221 233 186 223 233 186 223 233 185 223 232 184 222 232 184 222 233 185 223 
234 186 224 215 170 204 207 164 195 224 181 212 228 187 218 223 185 214 207 170 197 203 170 194 
211 182 202 236 209 227 175 151 167 110 88 102 51 31 44 57 39 51 69 52 64 81 64 76 
94 76 88 134 116 128 210 191 204 229 209 224 238 217 233 240 217 236 239 215 234 239 214 234 
241 216 237 175 164 174 128 123 127 100 94 99 80 70 78 74 59 70 80 60 75 75 49 68 
132 101 125 244 209 238 222 179 212 201 153 189 182 130 170 198 142 186 202 142 190 194 132 182 
183 120 171 187 123 175 201 137 191 211 148 201 213 149 202 207 144 197 207 145 197 203 141 194 
196 134 188 196 131 189 198 131 191 202 133 193 201 129 191 198 125 188 193 120 184 186 112 176 
177 103 166 165 92 153 149 81 139 140 76 130 133 73 123 118 62 107 97 46 85 77 29 64 
67 21 49 58 14 36 52 7 26 54 7 21 56 8 18 59 10 17 66 15 20 71 18 23 
74 20 25 70 19 26 77 26 33 88 36 43 101 47 53 88 31 33 74 16 13 85 21 16 
96 26 19 107 32 23 119 38 27 130 45 32 138 49 36 139 49 35 141 51 35 141 53 36 
138 56 36 130 56 35 120 54 31 105 49 25 89 42 18 101 64 37 170 141 111 185 161 129 
187 171 139 182 183 152 180 182 150 176 175 142 167 162 126 124 115 77 96 83 43 97 80 37 
112 92 49 126 103 60 133 110 66 163 140 97 192 170 129 216 197 158 234 215 181 245 228 196 
248 232 204 245 230 204 241 227 202 237 222 199 226 209 187 215 197 175 203 184 161 202 182 159 
200 180 151 198 180 136 193 174 129 190 170 123 187 166 118 184 162 110 182 158 102 181 154 96 
185 154 95 187 154 92 187 151 87 183 143 79 184 141 77 190 145 81 191 143 80 191 141 79 
191 138 78 189 134 77 186 130 76 183 126 75 180 122 73 177 118 71 174 115 69 172 112 68 
171 111 67 170 111 66 169 112 66 168 112 66 165 113 66 164 114 67 160 114 66 155 112 63 
147 107 59 141 102 55 135 98 51 132 95 51 129 92 50 125 89 48 118 82 44 109 75 40 
100 69 37 93 65 36 86 64 34 79 63 31 69 57 26 58 50 19 48 43 13 40 37 7 
47 40 19 57 42 31 52 34 25 50 26 20 51 19 16 54 15 16 60 13 17 65 12 18 
70 12 20 75 14 21 79 17 22 83 20 23 81 21 20 79 24 15 79 29 14 85 42 17 
103 66 31 142 113 65 161 137 78 169 151 83 166 152 76 165 153 72 165 155 69 166 157 69 
169 157 72 171 157 74 173 159 77 177 162 80 180 165 83 182 168 86 185 170 89 187 172 92 
189 173 95 191 175 97 193 178 99 195 180 102 203 187 109 208 192 113 210 194 115 211 196 115 
212 198 116 214 199 116 214 200 116 215 201 116 216 202 116 219 205 118 221 207 119 223 209 121 
226 211 112 226 212 107 225 211 108 223 210 109 223 211 113 225 214 120 228 218 130 226 216 137 
218 210 140 199 192 133 169 163 114 128 122 85 44 38 27 33 27 24 80 74 67 80 75 73 
81 77 79 82 79 83 60 56 61 35 31 35 9 7 9 9 7 6 19 16 14 35 32 28 
49 44 27 105 99 69 182 177 133 206 201 155 224 220 171 236 233 181 238 235 179 238 235 177 
237 235 174 235 235 170 235 235 169 235 235 168 234 235 167 236 236 168 237 238 171 238 239 173 
237 238 174 235 236 174 234 234 175 234 234 177 233 234 178 231 232 178 230 231 178 231 230 180 
237 230 188 237 229 186 235 229 180 232 229 172 229 229 166 220 223 157 193 198 133 165 171 111 
136 142 89 107 112 69 70 73 39 36 37 12 19 17 3 16 11 1 21 12 1 36 24 3 
52 35 10 67 44 18 78 49 24 75 41 22 69 29 19 60 15 14 61 13 18 62 12 20 
63 12 17 63 14 18 66 19 23 77 34 36 87 47 48 80 44 44 47 15 13 48 18 15 
56 27 23 69 38 33 
41 12 12 52 21 22 83 42 44 96 49 52 96 45 48 76 21 21 79 18 17 93 26 24 
102 30 26 111 35 29 119 41 32 118 42 31 116 46 30 112 50 30 103 52 28 93 55 28 
85 61 30 81 74 38 84 91 52 88 109 66 89 123 77 88 132 84 88 139 90 89 146 96 
94 155 104 102 162 112 117 166 117 127 172 124 133 179 131 139 184 136 140 185 138 140 184 139 
139 183 138 140 184 139 140 185 140 141 185 141 140 185 140 139 183 139 137 183 138 135 182 136 
133 182 134 130 181 131 129 180 128 127 180 126 124 178 123 120 176 119 116 173 115 111 169 110 
107 165 105 103 162 102 99 161 100 95 157 96 91 153 92 87 148 88 83 144 84 80 141 81 
78 139 79 74 135 75 70 131 71 66 126 66 62 121 62 59 115 58 54 109 52 51 104 49 
49 101 47 48 100 47 46 96 44 52 101 49 68 119 67 74 124 73 83 132 81 94 144 93 
99 149 97 104 149 104 109 147 114 109 145 112 112 146 114 118 150 119 131 160 131 144 169 143 
156 178 153 156 177 153 154 175 152 150 171 148 149 170 148 145 167 145 138 162 139 127 151 128 
111 135 113 92 116 95 77 100 79 63 84 64 49 67 48 36 53 35 28 42 25 23 34 19 
22 30 16 27 22 15 39 13 14 43 12 15 49 12 15 57 12 14 65 13 17 73 15 20 
81 17 22 84 18 23 84 19 23 83 18 23 80 18 24 79 22 29 82 31 38 90 42 53 
128 84 99 171 132 150 181 141 164 186 144 173 189 143 178 192 142 182 199 144 190 207 147 197 
213 149 202 211 154 203 208 160 203 211 160 205 212 162 206 213 164 207 215 165 209 218 167 210 
220 169 212 222 171 214 224 173 215 225 175 217 226 176 218 231 181 221 233 184 223 230 180 219 
229 180 218 230 181 219 232 183 222 231 181 220 228 178 217 224 174 212 224 174 213 226 177 215 
231 181 219 205 157 193 193 148 181 214 170 203 221 179 211 215 175 206 190 152 181 184 149 175 
197 165 188 234 205 225 179 153 171 117 93 110 62 39 55 56 36 51 64 46 60 85 66 80 
109 90 105 149 129 144 209 188 204 227 206 223 237 214 232 237 213 233 238 212 233 239 212 234 
242 215 237 188 174 187 144 136 143 110 99 108 76 63 73 71 53 67 93 70 88 103 74 96 
154 120 147 241 203 235 220 176 210 200 150 188 183 128 170 199 141 186 199 138 186 187 124 174 
173 110 160 178 113 165 196 131 184 211 147 200 215 151 204 211 147 200 208 147 198 202 141 192 
193 132 185 196 130 188 197 129 189 197 127 188 195 122 184 192 118 181 188 115 178 182 107 171 
172 98 161 160 87 148 145 77 134 136 72 125 128 68 117 114 59 102 90 38 77 66 17 50 
58 12 39 53 7 29 50 5 22 54 7 19 58 8 17 62 11 17 69 16 20 74 18 22 
75 20 24 71 21 28 77 28 36 89 37 45 101 48 54 88 31 33 74 16 13 86 22 17 
98 28 20 111 34 24 123 41 28 134 48 33 142 52 37 144 53 36 146 55 36 146 57 36 
143 60 37 135 60 35 124 58 31 110 54 26 98 51 23 107 69 38 157 129 93 169 144 108 
169 153 118 163 164 131 167 169 136 168 166 132 157 151 116 124 114 77 100 87 48 97 79 39 
115 95 53 133 110 68 145 120 79 185 161 121 215 193 155 229 209 174 241 222 190 246 229 199 
244 228 201 238 224 199 231 217 194 224 209 186 211 195 172 199 182 159 189 171 146 195 175 151 
199 178 146 199 177 129 194 172 122 191 167 117 190 165 113 187 161 106 184 156 99 181 151 91 
184 152 91 186 151 89 186 149 85 181 140 76 182 139 76 190 144 81 191 143 81 191 141 81 
191 139 81 190 136 81 188 133 81 186 129 81 185 127 81 183 125 80 181 123 79 181 121 79 
178 119 76 176 116 72 176 117 73 175 118 73 175 120 74 173 122 74 170 122 73 166 122 71 
160 118 67 153 113 62 146 108 57 142 104 55 137 99 53 133 96 51 133 97 54 132 97 56 
130 97 58 124 96 58 115 92 55 104 85 50 88 74 41 73 62 31 58 51 21 49 44 14 
47 38 16 47 32 19 46 26 16 47 21 14 49 16 14 54 15 16 61 13 17 66 12 18 
71 11 20 76 14 21 81 17 23 85 21 25 83 22 20 80 24 16 80 29 14 85 41 17 
101 64 29 137 108 60 155 131 72 163 144 75 159 144 69 158 146 65 158 148 63 160 151 63 
161 149 64 162 148 65 164 149 66 166 151 69 168 153 71 170 155 73 172 157 76 174 159 78 
176 161 80 179 163 83 182 166 86 185 170 89 193 178 97 200 185 103 202 187 105 204 189 106 
206 191 107 208 194 108 210 195 109 211 197 109 213 199 110 216 202 112 218 205 113 221 207 115 
225 211 108 226 213 104 225 211 104 222 209 104 221 209 108 222 211 115 225 216 126 223 214 133 
215 206 135 188 181 120 156 149 101 117 111 75 41 35 24 11 4 3 18 11 8 8 4 4 
3 0 3 4 1 6 13 9 15 11 8 13 3 0 4 3 0 2 8 6 5 17 13 12 
14 8 4 69 62 42 154 148 106 191 185 140 217 211 164 233 229 178 236 233 177 238 235 175 
237 235 173 235 235 169 234 235 166 234 235 165 234 235 164 235 236 165 236 237 167 236 239 169 
235 237 169 234 235 170 233 235 172 234 234 175 233 234 176 231 232 176 229 231 175 229 228 176 
230 223 182 229 222 181 229 224 176 233 230 172 236 235 172 234 236 169 218 222 153 197 202 136 
173 178 118 149 151 101 108 109 66 70 69 34 53 49 23 49 42 20 54 44 20 73 59 24 
90 71 33 104 81 43 113 84 51 101 67 42 85 45 30 68 23 18 62 14 16 60 10 15 
59 9 14 59 10 15 64 17 20 75 31 34 85 45 47 79 43 43 46 15 13 48 18 15 
57 28 23 70 40 34 
44 13 14 57 24 26 84 42 45 96 48 51 96 45 47 77 21 21 82 20 18 98 29 27 
105 32 27 112 35 28 118 40 30 119 43 30 118 47 30 115 52 30 107 55 30 98 59 30 
89 64 31 85 77 40 86 93 52 89 109 66 91 124 77 89 131 83 87 137 88 89 145 95 
93 153 102 100 160 110 115 164 114 124 171 122 131 178 129 136 183 135 138 184 137 138 183 137 
137 183 137 137 182 137 137 183 137 137 183 137 135 182 136 134 181 135 132 180 133 130 179 131 
128 179 129 127 178 126 125 178 124 123 177 121 121 176 119 117 173 115 113 170 110 108 166 105 
104 162 101 101 160 98 97 160 98 93 157 94 89 152 90 84 147 86 81 143 82 78 139 79 
76 136 77 73 132 74 69 128 69 64 123 64 61 118 61 58 113 58 55 110 54 51 104 51 
49 99 48 47 97 46 45 93 43 50 98 48 64 113 63 70 118 69 79 127 77 92 140 90 
98 146 97 104 147 105 109 142 115 111 143 116 117 147 120 126 153 128 140 164 142 155 175 155 
168 186 167 172 188 169 173 188 171 172 188 170 173 190 172 167 185 167 155 175 156 143 165 145 
128 152 131 111 136 115 90 113 93 71 92 73 52 73 54 38 57 39 28 45 27 21 35 19 
19 31 15 24 22 13 37 12 13 41 11 14 48 10 14 56 10 13 65 13 17 75 15 20 
83 18 23 87 19 24 87 19 23 86 19 23 81 18 23 81 23 28 84 31 38 91 43 53 
128 85 98 171 132 149 180 141 163 185 143 170 187 141 175 189 139 179 197 142 188 206 145 196 
212 147 201 211 153 202 208 158 203 210 159 205 211 160 205 212 162 206 215 163 208 217 165 210 
219 167 212 221 169 214 223 172 215 225 174 216 225 175 216 229 178 219 231 180 220 228 177 217 
228 177 217 229 178 218 231 181 220 228 176 215 223 171 210 219 167 206 220 168 206 223 171 210 
229 177 216 200 151 188 188 141 176 214 168 203 222 178 212 215 173 206 188 147 178 181 144 172 
191 157 183 223 193 216 198 169 191 152 126 146 87 61 79 60 37 54 61 40 56 94 73 89 
139 118 135 181 159 176 216 194 213 232 208 228 239 214 234 237 211 233 238 210 232 239 211 234 
242 213 238 186 170 184 147 135 145 125 111 123 69 52 66 69 48 65 122 97 117 134 102 127 
168 131 160 222 181 214 221 174 211 210 158 198 192 136 180 210 151 197 211 150 198 198 134 185 
183 119 170 186 121 173 201 137 188 213 150 201 214 151 203 208 145 196 204 143 193 197 136 186 
189 127 179 195 128 186 195 126 186 191 121 182 189 117 178 187 113 175 184 110 171 178 104 166 
169 95 157 157 85 144 143 75 130 133 69 121 125 64 112 116 59 103 91 38 76 63 15 45 
54 8 34 52 5 27 52 5 22 57 8 20 61 10 18 66 13 17 73 17 21 76 19 21 
75 20 22 71 22 30 78 29 38 89 38 46 101 48 54 88 32 34 75 16 14 87 23 18 
100 30 22 113 37 26 126 43 29 137 50 33 146 55 37 150 57 38 152 60 38 151 62 38 
147 64 38 140 63 36 130 62 32 115 58 27 110 62 30 118 79 44 145 117 77 153 129 88 
154 137 98 146 145 112 155 154 121 157 155 120 145 139 103 119 108 71 100 85 47 97 79 39 
120 98 58 144 121 80 167 143 103 211 187 149 238 216 181 241 220 188 245 226 196 245 227 199 
238 222 197 230 215 191 220 206 183 209 195 171 198 183 159 189 172 147 181 164 138 191 173 146 
199 178 143 204 176 127 200 172 121 197 169 117 195 167 113 192 162 106 188 157 99 184 152 92 
186 152 91 186 150 88 185 147 84 180 139 76 181 137 76 188 142 80 188 140 81 187 139 81 
187 137 80 187 135 81 187 133 82 186 132 83 187 131 85 187 130 86 187 130 87 188 130 88 
185 126 84 181 119 77 181 120 78 181 123 79 182 126 80 180 129 80 177 129 78 172 127 74 
166 124 69 158 118 63 150 111 56 144 105 51 141 102 51 139 102 52 136 99 51 133 98 52 
130 96 54 126 95 55 118 92 54 108 87 52 95 78 45 82 69 38 71 61 31 63 55 27 
51 40 19 41 25 12 41 20 10 44 17 10 48 15 12 55 14 16 62 14 18 68 13 19 
72 12 20 77 14 22 82 18 24 87 22 26 84 23 21 81 24 16 81 29 14 84 40 16 
99 62 27 133 103 56 150 125 67 157 137 69 153 139 64 152 140 60 152 142 57 154 146 58 
157 145 59 160 145 61 161 146 62 163 148 64 164 149 66 165 150 67 166 151 68 168 153 71 
171 155 73 171 156 74 173 157 75 175 159 76 185 169 85 192 176 92 194 179 94 198 183 96 
201 186 98 204 189 100 206 191 101 208 194 102 211 197 104 214 200 106 217 203 108 220 206 111 
224 210 102 226 213 99 225 212 101 221 209 101 219 208 103 220 208 109 222 212 119 219 211 126 
212 204 131 173 165 104 138 131 82 107 100 65 38 32 20 7 1 0 7 2 1 4 1 2 
4 0 4 5 0 9 4 1 8 4 1 7 4 0 6 3 0 3 3 1 2 5 2 2 
13 6 1 75 66 47 164 156 116 193 185 143 217 210 164 235 230 180 238 234 178 239 235 175 
238 235 172 237 235 168 236 235 165 235 235 163 234 235 161 234 235 162 234 236 163 234 237 163 
233 236 164 233 235 166 233 236 170 234 236 173 234 236 176 233 235 177 231 233 176 227 228 175 
219 214 174 219 213 174 223 218 173 232 229 172 239 238 174 241 242 172 230 233 160 213 216 145 
195 197 130 177 177 118 150 148 96 128 124 77 124 116 72 121 111 68 125 111 67 138 122 73 
150 129 80 158 133 86 157 128 87 135 101 70 107 67 47 77 32 23 64 16 14 58 8 11 
60 10 14 59 11 15 63 16 19 73 30 32 82 42 43 74 39 38 41 9 6 40 11 7 
47 18 13 57 28 22 
47 17 18 53 20 21 83 41 44 96 48 51 96 45 47 78 22 21 83 22 19 100 32 29 
107 34 28 114 37 29 119 41 30 120 44 29 119 48 30 117 54 31 109 58 31 99 61 30 
89 65 31 84 76 37 85 91 49 88 108 64 90 122 75 89 130 82 87 136 87 88 143 94 
92 151 100 98 157 107 112 163 112 121 169 119 128 176 126 133 181 132 135 182 134 135 182 135 
134 181 134 134 181 134 134 181 134 133 180 134 131 180 133 129 179 131 128 177 129 126 177 127 
125 176 124 123 175 121 121 174 119 118 173 116 116 172 114 113 170 110 109 167 105 105 163 100 
101 160 97 98 158 95 94 157 94 90 154 91 86 149 87 81 143 82 77 139 78 74 135 75 
72 132 73 69 129 70 66 124 66 62 119 62 58 114 59 56 110 56 53 106 53 50 100 50 
47 96 47 45 93 44 42 88 41 45 91 43 56 102 55 61 107 60 73 118 72 92 137 90 
98 143 97 106 145 107 115 145 121 120 148 125 128 154 132 141 164 144 156 175 157 169 186 169 
181 195 181 187 199 186 191 203 189 193 205 191 193 206 192 185 200 186 171 189 173 160 180 164 
146 167 150 128 152 134 105 128 110 82 105 86 60 82 64 44 65 47 31 50 32 20 37 19 
16 31 14 21 21 12 36 11 12 40 10 12 47 9 12 55 10 13 66 13 17 77 16 21 
86 19 24 90 20 25 90 20 25 87 20 24 83 19 23 82 23 29 84 32 38 91 44 53 
128 85 98 170 131 148 178 140 161 182 141 168 185 139 172 188 137 177 196 140 185 206 143 194 
210 145 199 210 151 201 209 157 203 211 158 205 212 159 205 213 161 206 216 163 208 218 165 210 
220 167 212 222 169 214 224 171 215 225 173 215 226 173 216 227 174 216 228 175 216 228 175 216 
229 177 217 231 178 218 232 179 220 227 174 214 223 169 209 219 165 205 220 166 206 224 170 210 
233 179 219 207 156 194 194 146 182 215 166 203 220 174 210 214 170 205 192 150 183 184 146 176 
192 157 184 220 187 212 205 175 198 175 148 169 131 105 125 67 45 60 48 28 42 92 68 87 
146 123 141 190 166 186 222 197 218 232 206 227 236 210 232 235 207 231 237 207 232 239 209 233 
241 210 236 193 174 190 155 140 153 128 112 126 65 45 62 64 40 60 123 95 117 151 118 144 
185 146 176 222 178 212 226 177 215 221 167 208 209 150 196 219 158 205 220 157 206 214 149 199 
202 137 188 202 137 189 212 147 198 215 150 202 210 146 197 200 137 188 199 137 187 194 133 183 
190 128 179 194 126 184 193 122 182 188 116 177 186 113 174 183 109 171 179 105 167 172 98 159 
163 89 150 152 80 138 138 71 125 127 63 114 117 57 104 109 53 95 85 32 69 58 9 39 
54 6 31 53 5 26 54 7 23 59 10 20 63 12 19 68 15 19 75 19 21 78 20 22 
77 20 23 71 22 31 77 29 39 88 38 47 100 48 55 87 32 34 75 17 14 88 24 19 
102 31 23 115 38 26 127 44 29 138 51 33 148 56 36 153 60 38 154 62 37 153 63 37 
150 66 37 143 66 35 133 64 32 118 61 27 113 64 28 115 76 37 128 99 56 133 109 65 
135 118 77 133 132 97 140 139 105 143 139 104 136 129 92 117 106 68 104 89 51 103 84 44 
128 107 66 157 134 93 186 161 121 219 195 158 240 218 183 243 223 190 243 224 194 240 222 195 
231 215 190 221 206 182 208 195 170 194 180 156 189 174 148 187 171 143 187 171 142 196 178 149 
206 183 147 216 186 135 212 182 130 208 177 124 203 171 117 197 165 109 192 159 102 188 153 94 
187 151 91 186 148 87 183 144 82 179 137 76 177 134 73 179 134 74 179 133 74 178 131 74 
177 128 73 176 126 73 176 124 74 177 124 76 179 124 79 180 124 81 182 126 83 183 127 86 
182 123 83 180 116 77 181 118 78 181 122 79 182 125 80 180 127 78 177 128 76 173 127 73 
167 124 68 159 117 60 150 110 53 143 104 48 141 103 47 141 103 49 138 100 48 134 98 49 
130 96 51 127 96 54 122 95 56 116 93 57 105 86 54 94 79 49 83 72 43 72 62 35 
55 43 22 40 24 10 40 20 9 44 17 10 49 15 13 57 16 17 65 16 19 72 15 21 
76 15 23 80 16 25 84 19 26 88 22 27 85 23 21 82 23 16 81 28 14 87 41 18 
101 63 28 130 100 52 146 122 64 154 134 67 147 133 59 146 134 55 146 137 53 148 140 53 
153 141 55 157 143 57 158 144 58 160 145 60 161 146 62 161 146 62 162 147 63 164 148 65 
165 150 66 167 151 67 168 153 69 169 154 69 177 162 77 183 168 82 187 172 84 191 176 87 
195 181 90 199 185 93 203 189 95 206 192 98 210 196 100 213 200 103 217 203 105 219 206 107 
224 211 99 226 213 96 226 213 98 223 210 98 221 209 100 219 207 105 221 212 116 219 211 124 
211 203 128 163 156 93 127 120 70 101 94 56 38 32 18 8 2 0 5 0 0 8 4 6 
11 6 11 12 7 16 9 5 13 8 5 11 8 5 10 5 2 4 5 2 2 7 4 3 
12 4 1 70 60 43 156 147 109 191 183 142 217 209 164 234 228 178 237 232 177 238 234 174 
238 235 170 236 235 167 235 234 163 233 233 160 233 235 159 233 235 159 233 235 159 231 234 159 
231 233 161 231 233 163 232 235 167 232 235 170 232 235 172 230 232 172 226 228 169 219 220 165 
206 201 163 203 197 159 207 202 158 223 219 163 234 233 168 241 241 170 236 237 162 226 227 153 
215 215 144 205 203 138 191 186 127 178 171 116 174 165 110 173 161 107 175 159 105 181 163 105 
185 162 106 184 158 105 176 145 100 151 116 80 119 79 53 78 32 20 64 17 11 59 11 10 
62 13 16 60 13 16 62 16 20 71 29 31 80 41 42 72 37 37 39 7 5 37 7 4 
42 14 8 50 22 15 
52 21 22 51 18 19 82 40 43 96 48 51 96 45 47 79 22 22 85 23 20 102 33 30 
109 36 29 116 38 29 121 42 30 121 44 29 121 50 30 119 55 32 111 59 31 100 61 29 
88 64 29 82 73 34 82 89 45 86 106 60 88 120 73 88 129 81 87 135 86 87 142 92 
90 148 98 96 154 104 108 161 109 117 167 116 125 174 123 130 179 129 132 180 131 132 180 132 
130 179 131 130 179 132 130 179 132 129 178 131 127 177 129 126 176 128 125 175 126 123 174 123 
121 173 120 119 172 117 116 170 114 113 169 111 111 168 108 108 165 105 105 163 101 101 159 96 
98 156 92 95 154 90 90 153 90 87 150 87 82 145 82 77 139 77 73 134 73 70 131 71 
68 127 69 65 124 66 62 120 62 58 114 59 55 110 56 53 106 54 50 101 51 47 96 47 
44 91 44 42 88 41 39 82 37 40 83 38 47 90 45 52 95 51 65 109 65 89 132 88 
96 139 95 107 145 109 124 149 130 132 156 138 145 166 149 161 179 164 173 188 174 184 196 184 
193 203 193 200 208 199 205 213 204 209 217 207 207 217 207 199 211 200 186 201 189 177 194 181 
163 183 168 145 168 152 122 146 129 98 123 105 75 99 81 56 79 61 39 60 42 23 42 23 
15 33 15 20 21 11 36 11 11 39 9 10 46 9 11 55 9 12 67 13 17 79 17 22 
89 20 26 93 21 27 93 22 27 90 21 25 84 19 24 83 23 29 85 32 39 91 44 53 
127 85 97 168 130 146 176 137 159 180 139 166 182 137 170 187 136 175 196 138 183 204 141 191 
209 143 196 209 150 200 208 156 202 211 157 204 212 158 204 213 160 205 216 162 207 218 164 209 
220 166 211 222 168 213 224 170 214 226 172 215 227 172 215 226 172 214 226 172 213 228 173 215 
230 175 217 231 177 218 232 177 218 228 173 214 223 168 209 221 165 206 223 167 208 227 173 213 
237 181 222 217 164 204 206 157 195 220 171 209 223 176 214 219 174 210 204 161 195 196 156 187 
200 163 192 222 187 214 214 182 207 197 169 191 175 147 169 107 84 100 83 62 76 124 98 118 
167 142 162 201 177 197 226 200 222 231 204 226 233 205 228 233 204 229 235 204 230 237 205 232 
240 206 233 205 183 201 174 157 171 148 128 145 96 73 93 95 69 90 144 113 137 175 139 168 
202 161 194 225 180 215 231 180 219 229 173 216 222 163 210 223 161 209 224 160 210 225 159 210 
217 150 202 216 150 202 219 154 206 215 150 200 206 142 192 195 132 181 195 134 183 194 133 182 
191 129 179 193 125 182 191 119 179 186 113 173 183 109 171 180 106 167 176 102 163 166 92 152 
157 83 142 147 75 132 133 66 119 121 57 107 109 49 95 98 42 83 76 24 59 54 5 35 
53 5 29 54 6 26 56 8 23 60 10 20 65 13 19 71 17 20 80 23 25 83 23 24 
80 22 24 71 23 32 77 29 40 87 38 48 99 48 55 87 32 34 76 17 15 89 25 20 
103 33 24 116 39 27 128 45 29 139 51 32 148 57 35 155 61 37 156 63 37 155 65 37 
152 68 37 145 68 35 135 66 32 122 64 27 114 66 27 111 72 31 114 83 39 115 90 45 
117 100 57 119 117 82 124 122 88 128 123 88 128 121 83 117 105 67 109 94 55 110 91 51 
138 117 76 170 147 106 201 176 137 224 200 163 238 216 181 241 221 188 237 218 188 231 214 186 
222 207 181 210 196 170 197 184 157 181 168 142 184 170 142 190 175 145 199 183 152 203 186 155 
212 189 151 225 191 140 219 186 134 212 179 126 203 169 115 196 161 106 190 154 98 186 149 91 
183 145 87 181 142 82 177 138 77 175 133 73 173 130 71 171 128 68 170 125 67 169 122 66 
166 119 64 165 115 63 164 114 64 165 113 67 167 114 69 170 116 73 172 118 76 174 120 79 
176 117 78 178 113 77 179 116 78 180 120 79 180 123 79 178 124 77 176 126 74 174 128 72 
168 125 67 160 119 60 151 111 51 145 105 46 143 104 45 143 103 46 140 101 46 135 98 47 
130 97 49 129 98 53 126 98 58 122 97 61 113 93 60 100 84 54 86 73 45 72 60 35 
55 41 21 40 23 10 40 19 8 43 16 9 49 15 12 59 16 17 68 17 21 75 18 24 
80 18 27 84 19 28 88 20 28 91 23 29 87 23 23 83 23 17 82 27 14 88 41 19 
102 63 29 127 96 49 143 118 61 150 130 63 141 126 53 140 128 50 141 131 48 142 134 48 
147 136 50 152 138 52 153 139 53 155 140 54 156 141 56 156 141 56 157 142 57 158 143 58 
159 144 59 161 146 61 163 148 62 164 149 63 170 155 67 175 160 71 178 164 74 184 170 78 
189 175 82 194 180 85 198 185 89 203 190 92 207 194 95 211 199 98 215 202 101 218 205 102 
223 211 96 226 213 93 226 213 95 224 211 96 222 210 98 219 208 102 222 213 115 221 213 124 
214 207 128 162 154 89 124 118 66 101 94 55 43 37 18 12 7 1 5 0 0 10 5 8 
13 8 13 14 8 17 12 8 14 10 7 12 9 6 11 5 2 4 7 5 4 14 11 9 
24 15 9 81 71 51 163 153 117 197 188 148 220 212 168 235 228 179 237 232 176 238 234 173 
238 235 170 236 235 165 234 233 161 232 232 157 233 234 157 232 235 156 231 234 155 229 232 156 
229 232 157 229 232 160 230 233 163 230 233 165 229 232 166 223 225 163 215 218 157 201 203 146 
167 163 126 160 154 118 170 165 121 203 200 144 223 222 157 236 235 163 237 237 159 234 233 156 
230 227 152 226 221 151 219 213 147 213 205 142 210 199 137 209 195 133 210 193 130 210 191 126 
207 184 121 201 173 115 188 156 106 163 127 87 128 88 59 82 37 22 68 21 13 63 15 12 
63 15 18 61 14 17 62 17 20 70 29 30 79 41 42 73 38 37 40 9 7 38 9 5 
42 14 8 48 21 13 
57 25 26 54 20 22 83 41 43 96 48 51 96 45 47 81 23 23 87 23 21 104 34 31 
112 37 31 117 39 30 121 42 29 122 45 30 123 51 31 121 57 33 112 59 30 99 60 28 
87 61 26 79 69 29 79 84 40 83 101 55 86 117 69 86 127 78 85 134 85 85 139 90 
88 145 96 93 151 101 105 158 106 114 164 112 121 171 120 126 176 127 129 178 129 129 178 129 
127 177 129 127 176 129 127 176 129 126 176 128 124 174 127 122 173 125 122 173 123 120 172 120 
117 170 117 115 168 113 112 166 110 109 164 107 107 163 104 104 161 100 101 158 96 97 155 92 
95 152 88 91 150 86 86 149 85 82 145 82 77 140 77 72 133 71 69 129 68 66 125 66 
64 122 64 61 118 60 58 114 57 55 109 54 52 105 51 49 100 49 46 96 46 43 90 43 
40 85 39 37 81 36 34 76 33 34 75 32 37 78 35 43 83 41 57 98 56 82 123 80 
92 134 92 109 144 112 133 155 141 150 170 157 168 186 173 186 201 190 191 202 192 197 205 197 
203 209 202 208 213 206 212 216 210 215 220 213 214 221 214 207 217 209 197 210 200 190 206 194 
178 197 185 163 185 171 143 167 151 124 148 131 104 128 110 79 103 84 54 77 58 31 52 33 
18 38 19 20 24 12 35 11 10 38 10 10 45 9 11 55 9 12 67 14 18 80 18 23 
91 21 27 96 23 29 96 23 29 93 22 27 86 20 25 84 23 30 85 32 39 90 43 52 
125 82 95 165 127 143 173 134 155 177 136 163 181 136 169 186 134 173 194 136 181 202 139 189 
208 141 193 208 147 197 207 153 200 209 154 201 210 156 203 212 158 205 214 160 207 217 162 208 
219 164 209 221 166 211 222 167 211 224 168 212 225 169 213 226 170 214 226 171 214 227 171 215 
229 173 215 230 174 216 230 174 216 227 172 213 225 169 211 226 168 210 228 171 213 232 176 217 
240 182 223 230 177 217 226 175 215 235 185 224 236 188 226 234 188 224 226 183 217 218 176 208 
218 179 209 232 196 224 229 196 221 221 191 214 211 182 205 200 173 194 201 174 195 215 188 210 
219 192 213 223 197 218 231 203 225 231 202 225 231 202 225 232 201 226 232 200 227 234 200 227 
235 200 229 221 197 218 208 189 206 197 175 194 185 160 181 188 159 182 204 171 198 211 174 204 
221 178 213 231 185 222 234 182 222 233 177 220 230 170 217 222 159 207 223 157 207 229 162 213 
223 156 207 220 154 205 221 155 206 213 148 198 203 140 188 193 131 179 196 135 183 194 135 182 
191 130 179 193 124 181 190 117 178 184 111 171 181 107 168 179 104 165 175 99 160 160 85 145 
150 76 134 142 70 127 128 61 113 115 51 100 100 40 85 82 26 66 65 15 47 53 5 32 
53 5 27 55 7 25 57 8 23 60 10 19 65 14 18 73 19 22 90 32 33 91 31 31 
84 26 27 71 24 34 76 30 41 86 38 48 99 48 55 87 33 35 76 19 16 90 26 21 
103 33 24 116 40 27 129 45 28 139 50 31 147 56 33 154 61 36 157 64 36 157 66 36 
155 70 37 148 70 35 138 69 32 126 68 29 118 68 28 110 70 28 104 73 29 103 76 31 
102 84 40 103 99 63 107 104 69 113 108 72 120 112 73 116 105 65 115 99 59 118 100 58 
150 129 87 183 160 119 212 187 147 228 204 167 236 214 178 232 213 180 224 207 176 216 201 172 
209 195 168 198 185 158 186 174 145 172 160 131 184 172 142 199 186 154 215 201 167 213 198 163 
216 193 153 223 186 138 215 178 128 205 168 117 192 155 102 182 146 92 177 139 84 174 135 78 
171 132 75 169 129 71 167 127 68 167 127 68 167 125 67 166 124 66 164 120 63 160 115 59 
157 109 56 154 106 54 152 103 54 151 101 55 154 103 58 157 105 62 160 107 65 163 109 67 
169 110 72 177 111 77 178 114 78 178 118 78 178 122 78 178 124 76 177 127 74 175 129 71 
172 129 68 165 124 62 157 117 54 149 109 47 146 106 45 145 105 45 141 101 44 137 99 46 
134 99 48 132 99 53 128 99 57 123 97 61 116 94 61 95 78 49 72 58 33 58 45 22 
47 32 14 40 21 8 39 17 6 42 14 7 49 14 10 59 16 17 69 19 23 79 21 28 
84 21 30 89 22 32 92 23 32 95 26 33 89 25 26 84 24 18 83 28 15 88 41 19 
101 62 28 125 93 47 139 113 57 143 124 58 133 119 47 134 123 45 135 127 45 135 129 44 
140 129 44 143 129 44 144 130 45 146 131 46 148 133 48 150 135 50 150 135 50 151 136 51 
153 138 52 153 139 53 155 140 54 157 143 56 161 147 58 165 151 61 169 155 64 175 162 68 
182 169 72 188 175 77 193 180 81 198 185 84 203 191 88 207 195 91 211 199 94 215 203 97 
221 209 91 225 212 89 225 213 92 223 211 93 222 210 96 220 209 100 224 216 114 226 218 126 
223 216 134 170 164 95 134 128 73 111 105 64 54 48 23 19 14 1 5 0 0 7 2 3 
7 2 6 5 1 8 6 3 9 5 3 7 3 2 4 2 1 1 10 9 7 26 24 19 
58 49 28 122 111 81 201 190 156 217 208 169 230 222 178 239 232 184 239 234 179 239 235 174 
238 235 169 236 235 164 234 233 160 232 232 156 232 234 155 231 234 154 229 232 152 227 230 152 
227 231 154 229 232 158 228 232 159 227 230 160 223 226 159 211 214 150 199 201 139 170 172 116 
87 83 48 73 68 34 99 94 53 169 166 111 205 202 137 224 222 149 231 230 151 234 232 151 
234 229 150 231 225 150 229 221 150 228 218 149 226 213 145 225 209 141 224 205 136 222 201 130 
216 191 124 207 179 117 194 161 107 171 134 91 139 99 67 94 50 31 78 32 21 69 22 17 
64 15 18 60 13 16 61 16 19 70 28 30 81 43 43 76 42 41 46 15 12 46 17 13 
50 23 17 54 27 19 
60 28 30 65 31 33 86 43 46 96 48 51 96 45 47 81 23 22 87 23 22 105 35 32 
112 37 31 117 39 30 121 42 29 124 47 30 124 52 31 122 57 33 112 59 30 98 59 26 
84 59 23 75 66 26 75 80 37 79 97 51 84 114 67 85 125 76 84 132 83 84 137 89 
86 143 94 91 149 99 102 155 103 111 162 110 118 169 117 124 174 124 126 176 127 127 176 127 
125 175 127 125 175 127 124 174 127 124 174 126 122 173 124 120 172 123 121 172 122 118 170 118 
115 168 114 112 165 110 109 163 107 105 161 103 103 159 99 100 157 96 97 155 93 94 152 88 
92 149 85 88 147 82 83 146 81 78 141 77 74 136 73 69 129 67 65 125 64 62 121 61 
60 117 59 57 113 57 54 109 54 52 105 50 49 101 48 46 96 46 43 91 43 41 87 40 
38 82 37 35 78 34 32 73 31 32 71 30 34 74 32 40 79 38 54 94 53 80 121 79 
91 131 90 111 145 114 145 165 153 165 183 172 182 198 187 195 208 198 199 209 200 202 209 202 
205 209 204 209 211 207 211 213 210 213 216 212 211 217 212 207 215 209 201 212 204 194 209 199 
183 201 190 169 191 178 152 176 161 136 160 144 119 144 125 92 117 98 64 88 69 37 59 39 
21 43 23 21 26 14 35 12 10 38 10 10 45 9 11 55 9 12 67 14 18 80 18 23 
92 22 27 97 24 30 97 24 30 94 22 28 87 20 26 85 24 30 86 32 39 90 42 52 
123 81 94 162 124 140 171 132 154 176 135 162 180 135 168 185 133 172 193 135 180 201 137 188 
206 139 191 206 145 195 205 150 197 206 151 198 207 152 199 209 154 201 211 156 203 213 158 204 
215 160 206 217 162 208 219 164 208 221 165 209 222 165 210 224 168 212 227 171 215 228 172 216 
230 173 216 231 174 216 230 173 215 228 171 213 227 170 212 228 170 212 231 173 215 235 177 218 
239 181 222 233 178 220 231 179 220 236 185 226 238 189 228 238 191 228 235 189 225 227 186 218 
227 188 218 236 199 228 233 200 225 229 198 222 224 194 218 220 191 213 220 193 214 227 200 221 
228 201 223 229 202 224 232 204 227 231 203 226 231 201 226 232 200 226 231 198 225 231 197 225 
232 197 226 223 199 220 218 197 216 216 193 213 210 185 206 212 182 207 220 186 214 222 183 215 
224 181 216 227 179 217 229 177 217 229 173 216 228 168 215 222 159 207 223 158 207 229 162 213 
222 154 206 219 152 203 218 152 203 213 149 198 206 143 191 198 136 184 198 138 184 193 134 179 
185 126 172 191 122 178 189 116 177 184 111 171 181 107 168 178 103 164 172 96 158 156 80 140 
146 72 129 139 66 122 124 57 109 111 47 96 97 36 81 73 18 56 60 9 40 53 5 30 
54 7 28 56 9 25 58 10 23 61 11 19 64 12 16 72 17 19 92 34 36 94 34 34 
87 28 29 72 25 35 75 30 41 86 38 48 99 48 55 87 33 35 77 19 16 91 27 21 
104 34 24 117 40 27 128 45 28 138 50 29 146 55 32 155 61 35 158 64 36 159 68 37 
158 73 39 152 74 38 143 73 35 131 72 32 121 71 30 111 71 28 101 70 25 96 71 25 
93 75 30 90 87 50 95 92 56 102 97 60 113 105 65 116 104 63 117 101 60 118 99 58 
157 135 93 191 168 126 213 188 147 226 202 164 230 208 173 222 203 169 212 195 164 205 190 160 
200 187 158 191 178 150 181 170 141 173 162 131 192 180 148 211 198 165 229 215 180 224 209 173 
220 197 156 217 179 131 207 168 119 195 156 106 180 141 90 170 133 79 165 127 72 164 125 69 
162 122 66 160 121 63 160 119 61 162 121 63 165 124 65 169 126 68 165 121 65 160 116 60 
155 109 55 151 104 52 148 100 50 147 97 50 148 97 53 151 99 56 154 103 59 157 105 62 
163 105 67 171 104 72 172 106 73 172 111 73 172 116 72 172 118 71 172 122 70 172 126 68 
170 126 65 165 123 60 158 118 53 151 112 48 147 108 45 145 105 43 142 103 44 139 102 46 
137 102 49 134 101 54 128 98 56 119 93 56 103 81 49 80 62 34 57 43 18 46 33 12 
40 24 7 36 17 4 35 13 3 39 10 4 46 11 7 58 15 15 69 19 23 80 22 29 
87 23 33 92 25 35 96 27 36 99 29 37 92 26 28 85 24 19 83 29 16 89 41 19 
101 61 28 123 90 45 135 109 54 138 119 54 129 114 43 129 119 42 132 124 42 132 125 42 
135 125 41 139 125 41 139 126 42 142 128 43 144 130 45 145 131 46 146 132 47 147 133 47 
149 134 49 150 136 50 152 137 51 153 139 52 154 140 52 157 143 53 161 148 56 168 155 61 
175 162 65 181 169 71 187 175 75 193 181 79 198 186 83 203 191 86 208 196 89 211 199 92 
218 206 87 222 209 85 222 210 87 220 208 88 219 208 92 218 208 98 225 217 113 226 219 124 
222 215 131 181 174 104 150 144 88 128 121 79 67 61 33 30 25 8 13 8 2 10 5 4 
7 3 5 5 1 7 7 4 9 6 5 8 5 3 5 6 5 4 17 17 14 37 36 30 
73 64 41 137 126 95 213 202 169 225 215 177 234 225 182 240 232 185 238 233 178 238 234 173 
238 235 169 236 235 164 234 234 159 232 232 155 231 233 154 230 232 153 229 231 151 227 230 151 
227 230 152 228 231 156 229 232 159 228 232 162 225 228 160 211 213 149 198 201 138 171 172 115 
90 86 52 74 69 37 98 94 53 171 169 113 202 200 135 217 215 141 227 225 144 231 228 145 
232 227 146 231 224 146 230 221 146 229 217 144 227 212 141 226 208 137 224 204 132 222 199 126 
217 191 120 209 180 114 196 164 107 177 141 96 149 109 76 105 62 41 88 43 30 76 29 23 
65 17 20 60 13 17 60 16 19 69 28 30 81 43 44 78 44 43 49 19 15 50 22 17 
54 27 21 58 31 22 
59 27 27 68 34 35 86 43 46 95 47 51 96 45 48 80 23 24 87 24 23 105 35 33 
112 37 32 117 40 32 122 43 32 125 48 31 126 53 32 123 57 33 113 59 29 100 58 25 
87 59 22 78 65 24 76 78 33 78 93 47 82 110 62 83 121 73 82 129 81 82 134 87 
83 139 91 87 143 96 99 149 100 107 156 106 114 163 113 121 169 120 123 171 123 123 171 123 
122 171 123 121 171 123 121 171 122 120 171 122 119 170 121 117 170 119 117 170 118 114 168 115 
111 165 111 107 163 107 104 160 104 101 157 100 98 156 96 95 153 94 93 150 90 89 147 85 
87 144 82 83 142 80 78 139 78 74 135 74 70 130 70 65 124 65 61 120 61 58 115 58 
56 112 55 54 108 53 51 103 50 48 99 46 46 95 44 43 90 42 40 85 39 38 81 36 
36 77 33 33 73 31 29 67 27 28 64 26 31 66 28 32 66 30 49 84 48 85 122 85 
97 134 97 123 152 126 163 179 173 181 195 190 193 205 201 200 211 208 204 211 209 205 210 209 
206 208 208 207 208 209 208 209 210 209 210 210 208 211 211 206 211 209 202 210 205 195 207 200 
186 200 192 174 192 182 161 181 170 148 169 156 132 155 139 107 130 114 80 103 86 52 74 56 
24 46 28 19 25 13 32 12 8 36 12 8 44 11 10 55 11 13 67 15 18 79 18 22 
90 21 25 98 25 28 99 25 28 97 25 26 90 23 24 88 26 28 88 34 38 91 43 51 
122 78 92 158 118 138 167 127 154 173 130 163 178 131 170 183 130 174 191 132 179 198 135 185 
204 137 188 203 142 193 201 146 199 202 147 199 203 148 200 205 150 202 208 152 203 211 154 204 
214 156 205 216 158 206 219 160 206 221 161 206 222 161 206 225 165 209 229 168 212 230 170 213 
232 170 213 232 171 213 232 170 212 231 170 212 231 170 213 233 171 214 235 175 217 238 177 219 
239 178 220 235 178 218 233 179 218 235 183 222 238 188 225 239 190 228 237 191 229 232 189 225 
231 191 225 235 197 232 234 198 230 233 198 228 232 198 227 228 194 223 227 194 221 231 197 223 
233 199 225 234 200 227 235 200 227 234 199 227 233 198 227 234 198 227 232 196 227 231 195 226 
231 194 227 224 194 221 221 194 219 225 195 222 222 191 218 223 189 218 227 189 221 226 185 220 
225 180 217 223 174 215 224 172 214 224 169 213 223 165 212 221 160 208 222 159 208 225 161 211 
218 153 204 214 150 201 213 149 201 211 147 198 206 143 193 200 138 188 198 138 186 191 131 179 
183 122 171 191 118 180 192 114 180 187 109 175 180 104 168 172 98 160 163 89 150 146 75 131 
137 69 122 130 65 115 113 53 99 99 43 86 85 32 71 60 12 44 51 5 31 50 5 27 
53 8 26 57 10 25 61 12 24 64 13 19 68 12 16 75 16 17 96 34 34 100 35 34 
93 30 29 77 26 32 79 30 38 89 37 44 102 48 53 90 33 34 79 19 16 92 26 21 
105 34 25 118 41 28 128 45 29 135 49 29 143 54 30 153 63 35 157 67 36 159 71 37 
160 77 38 156 78 38 149 78 36 139 78 33 130 76 31 120 74 28 108 69 23 101 66 21 
94 67 24 87 74 37 91 79 43 99 85 48 112 97 58 123 105 66 128 108 68 125 103 63 
162 139 99 194 170 130 210 185 145 218 194 157 219 197 162 213 192 159 204 185 154 191 174 144 
174 159 128 170 156 126 177 163 132 193 181 148 209 195 161 224 210 174 241 225 188 222 205 167 
206 183 140 194 159 109 182 147 97 168 134 83 153 119 67 146 112 60 143 108 56 144 108 56 
143 107 54 143 107 53 145 108 54 150 112 58 157 118 64 164 123 69 162 120 67 159 116 64 
156 112 60 152 107 56 150 102 54 148 99 53 148 98 53 149 98 54 151 100 55 153 101 57 
158 101 61 164 100 65 161 99 63 161 102 62 161 106 62 162 109 62 163 113 62 165 117 62 
166 120 63 165 121 61 161 119 57 155 114 53 151 110 50 148 107 49 145 105 50 143 105 53 
141 104 57 137 102 60 128 97 60 114 87 56 84 60 34 62 40 18 45 27 7 39 22 5 
35 18 5 33 15 6 32 11 5 36 9 4 44 9 7 57 14 15 70 19 23 81 22 29 
90 24 34 96 26 36 100 29 37 103 31 38 95 27 29 87 24 19 85 28 17 90 40 20 
101 59 28 121 87 45 130 104 50 132 113 49 124 110 40 125 115 39 126 120 39 126 121 39 
130 121 38 133 121 38 134 122 39 136 124 41 139 126 42 140 127 43 141 127 44 143 128 45 
144 129 46 146 131 47 148 133 48 149 134 49 150 135 48 152 137 49 156 142 51 163 149 55 
170 156 59 178 164 65 183 170 68 189 176 72 193 181 76 199 187 80 204 192 84 208 196 87 
214 202 85 217 205 85 217 205 85 216 205 87 216 206 91 217 208 97 224 216 109 225 218 119 
220 214 124 194 188 111 170 163 99 146 139 88 87 80 42 46 39 15 23 15 4 15 7 4 
11 4 4 11 3 5 11 5 8 12 6 8 12 6 6 13 8 5 30 25 21 60 55 46 
107 97 66 163 152 111 220 209 167 230 221 175 236 228 179 240 232 180 236 231 172 235 231 167 
234 232 164 233 233 160 232 233 156 231 232 153 230 232 150 229 232 149 228 231 148 228 232 148 
228 231 150 228 230 152 230 232 158 231 232 161 229 230 162 217 218 153 208 208 145 189 187 130 
132 122 85 120 108 74 136 125 85 189 179 128 208 199 140 216 207 141 223 214 142 227 218 142 
229 220 142 230 220 142 231 219 140 230 217 137 227 211 130 226 208 126 225 204 121 222 198 115 
216 190 110 209 179 106 200 166 104 188 150 100 168 125 88 133 88 63 106 58 42 83 34 27 
65 18 23 58 13 18 59 16 20 70 30 32 82 45 45 79 46 43 51 22 16 54 25 18 
58 30 22 60 32 22 
51 19 16 56 21 19 81 38 41 94 46 51 96 46 50 80 25 28 86 25 27 102 35 35 
110 38 36 117 42 38 124 47 39 126 48 34 128 53 33 127 57 33 118 57 28 109 59 25 
100 61 23 89 68 24 84 77 30 81 87 40 80 102 53 80 114 66 80 123 77 78 128 83 
76 131 87 78 133 91 92 138 94 102 144 101 109 152 108 115 159 114 117 161 116 117 162 116 
115 161 114 114 163 114 114 164 115 115 166 114 114 167 114 113 167 113 111 166 111 108 164 108 
105 162 106 101 160 104 99 157 101 96 154 99 92 151 96 89 148 93 85 144 89 81 139 85 
78 137 82 75 133 79 71 128 76 69 125 73 66 122 69 63 117 64 59 113 60 56 108 56 
53 104 52 51 100 49 48 95 46 44 89 41 42 86 38 40 81 35 37 76 33 34 70 29 
31 65 26 29 62 24 24 54 20 22 51 18 25 53 21 16 39 12 39 63 36 101 129 101 
118 145 118 147 168 153 192 199 209 196 203 214 200 207 218 204 210 221 206 209 221 205 208 219 
204 207 216 203 205 215 203 204 213 203 204 210 205 205 212 203 205 210 200 203 205 193 198 200 
187 193 193 180 188 184 174 184 180 163 174 169 147 161 153 126 141 133 106 123 113 83 102 90 
28 46 34 13 20 8 25 14 2 32 16 5 43 16 9 54 16 15 65 17 19 75 17 19 
85 19 18 97 25 23 102 29 23 101 30 20 97 29 19 94 32 23 92 37 33 96 44 51 
120 72 91 150 105 137 161 115 158 168 120 170 174 122 177 180 123 178 187 125 179 194 129 179 
200 132 179 198 137 194 195 142 209 196 143 209 199 144 209 203 146 210 206 147 210 211 149 209 
215 152 208 218 154 208 222 156 206 226 158 205 227 157 203 230 159 204 231 161 204 233 162 204 
233 162 204 234 163 205 236 164 206 237 167 210 239 171 213 241 173 216 242 175 218 242 176 220 
241 175 219 236 176 212 234 179 209 236 182 213 236 185 218 235 188 223 234 188 227 232 187 229 
230 188 232 231 189 236 232 190 237 234 190 237 235 190 236 236 189 233 238 189 230 240 189 228 
241 190 228 241 190 227 239 189 225 239 189 226 239 190 229 239 193 231 238 193 232 237 193 233 
235 193 233 223 181 220 220 176 215 224 181 219 227 183 222 228 184 223 226 182 221 225 179 220 
224 177 219 223 175 218 220 172 216 219 168 214 217 165 211 215 163 210 215 160 208 214 157 206 
210 153 204 207 150 201 204 146 198 203 143 196 200 139 193 195 135 189 191 130 186 188 126 182 
185 122 180 198 115 191 200 110 191 192 105 184 177 98 169 160 87 152 143 76 133 127 70 118 
119 69 111 112 68 104 88 51 81 73 41 66 61 31 54 40 10 30 36 3 22 42 5 22 
48 9 22 56 12 24 65 15 24 72 16 21 78 16 18 87 19 18 105 32 29 110 34 29 
106 31 26 90 28 26 90 30 29 97 36 36 111 47 48 99 33 33 87 19 17 96 24 20 
108 32 26 120 41 31 128 48 33 131 49 30 136 54 29 149 67 34 154 73 35 157 77 35 
158 80 34 157 82 34 155 84 33 153 85 33 148 83 31 142 79 29 132 71 24 123 64 21 
112 59 20 97 60 25 99 63 29 107 71 36 118 85 49 144 111 75 156 124 89 144 114 79 
168 140 106 191 164 130 204 179 143 201 176 142 200 176 144 206 183 151 200 177 146 173 152 119 
119 100 65 129 110 75 169 151 115 242 227 189 238 221 182 239 220 179 249 229 186 198 178 135 
163 142 95 145 123 67 129 108 54 116 94 42 104 82 31 103 80 31 104 79 32 106 81 34 
108 81 36 112 84 39 119 89 45 128 97 53 138 104 61 146 110 68 150 112 69 154 114 70 
158 116 72 159 115 70 159 112 67 158 109 64 155 105 59 153 102 55 150 100 52 150 98 51 
152 99 53 153 100 56 146 94 50 144 91 47 144 91 46 146 93 48 149 96 49 153 100 52 
162 110 62 168 117 68 169 120 71 161 113 67 158 112 67 157 112 69 152 109 70 148 107 72 
145 106 75 139 101 75 130 96 74 111 81 63 60 31 18 41 13 4 37 11 3 39 12 6 
35 16 12 32 17 17 32 13 14 37 11 12 45 11 12 59 15 18 71 19 23 83 22 27 
92 24 31 98 26 32 102 28 33 107 31 35 98 26 27 90 23 20 89 26 18 91 37 20 
99 56 29 120 85 46 124 98 47 122 105 43 119 107 39 118 111 36 117 114 35 118 117 35 
121 116 35 125 115 34 127 117 36 129 118 38 131 119 40 133 119 42 134 119 43 135 120 44 
138 120 45 140 122 45 142 125 46 145 126 46 148 130 46 151 134 47 154 138 47 161 145 50 
169 153 54 177 161 60 182 168 62 186 172 65 188 175 67 195 181 72 201 187 78 208 194 83 
209 196 87 210 198 89 210 199 89 212 202 91 215 205 94 218 208 97 219 211 102 221 213 107 
222 214 113 212 205 112 194 187 102 167 158 85 115 105 47 71 59 21 34 20 3 22 7 1 
20 4 1 25 9 2 22 5 2 23 6 2 28 10 3 25 8 2 51 34 28 101 85 72 
174 163 111 212 201 136 226 216 150 235 227 160 239 232 165 239 233 166 233 229 159 228 225 153 
225 223 149 225 227 147 228 231 148 230 233 148 227 232 143 227 232 141 228 233 142 229 234 143 
230 233 145 231 231 147 231 230 152 233 230 158 236 231 163 234 228 165 232 225 166 229 218 163 
217 190 146 218 186 146 223 191 152 225 196 156 224 196 155 222 195 152 221 195 146 222 199 144 
226 205 142 230 211 138 234 216 134 236 219 128 232 216 116 230 213 109 228 208 103 222 199 96 
216 189 92 211 178 91 207 170 96 204 161 102 198 150 106 186 134 103 136 80 59 89 36 26 
63 19 29 54 12 22 56 16 23 73 35 39 83 48 47 79 47 41 52 23 13 58 29 16 
64 34 19 62 32 16 
53 21 18 56 22 19 83 40 42 97 49 53 98 47 52 81 26 29 86 25 27 101 35 36 
110 38 36 119 43 38 126 48 40 128 50 36 130 55 35 130 60 35 121 59 28 112 60 25 
102 63 24 93 68 25 86 76 30 81 86 38 79 98 49 77 109 61 76 118 72 75 125 80 
74 128 84 76 130 87 88 132 89 97 138 95 104 146 102 110 153 109 112 156 111 112 157 111 
110 156 109 110 157 109 110 159 109 110 161 109 109 161 108 108 161 108 106 161 105 103 160 103 
101 158 101 97 155 99 94 152 96 91 149 94 88 146 92 84 142 89 80 138 85 77 134 81 
74 131 77 71 127 75 67 123 72 65 120 69 62 117 65 59 113 60 56 108 56 53 104 53 
50 100 49 47 96 46 45 91 42 41 85 38 39 81 34 37 77 32 35 73 30 32 67 26 
29 62 23 28 60 23 22 51 18 22 49 18 28 55 25 21 45 18 52 77 51 131 157 131 
144 169 144 166 184 172 200 206 218 202 208 220 204 210 222 206 211 224 206 209 222 204 208 219 
202 205 215 200 202 212 199 200 209 199 199 207 200 200 207 200 201 207 198 201 205 192 195 199 
184 189 190 176 183 182 173 181 179 163 174 170 149 162 156 130 145 138 112 129 120 90 107 98 
30 47 37 13 20 9 25 15 2 32 16 4 42 16 9 54 17 16 65 17 19 74 16 19 
82 17 17 97 25 23 103 30 24 104 32 21 100 31 20 95 32 23 92 35 31 95 43 49 
119 70 90 147 102 136 159 112 157 166 117 169 172 119 176 177 120 177 184 123 177 191 126 176 
198 130 177 196 135 191 192 139 205 193 138 204 196 139 204 201 142 206 206 145 206 212 148 206 
217 151 206 220 152 205 223 153 202 225 154 200 226 152 197 225 152 194 225 151 191 225 150 189 
224 149 188 224 148 188 225 149 190 228 154 194 232 159 200 237 165 206 241 170 211 242 174 215 
242 176 218 238 178 211 236 180 209 238 183 214 238 186 219 236 188 223 234 187 227 232 186 229 
230 186 232 230 186 235 230 186 236 231 186 235 232 186 234 236 187 232 239 188 231 241 188 230 
240 188 228 240 187 226 238 186 224 239 187 226 239 189 228 239 191 230 237 191 231 235 190 230 
230 188 229 223 179 219 221 176 216 226 180 221 227 182 222 227 181 222 225 179 221 223 176 219 
221 174 217 221 173 217 219 170 216 218 167 213 216 164 211 214 161 209 213 159 207 211 155 205 
208 152 202 206 148 200 203 144 196 201 141 195 198 137 192 194 133 188 190 128 185 186 124 181 
185 121 180 197 113 190 198 108 190 190 105 182 175 97 167 157 85 148 137 72 128 120 65 112 
109 61 101 99 58 91 75 41 69 62 31 55 51 24 44 35 7 25 33 3 20 39 5 21 
47 9 22 56 13 24 67 16 25 73 17 22 80 17 19 89 20 19 108 33 30 113 35 30 
109 32 26 92 29 26 92 31 29 99 36 35 113 48 48 101 34 33 89 20 18 97 25 21 
109 33 27 121 42 32 130 49 35 133 51 31 137 55 29 148 66 33 153 72 33 156 76 33 
157 81 33 158 83 33 158 85 33 157 87 34 154 87 33 150 84 31 140 77 27 131 69 23 
119 62 21 101 58 22 99 60 24 102 64 28 110 72 36 120 84 48 123 88 53 113 80 46 
150 119 84 181 153 118 196 170 135 194 169 135 192 167 134 190 166 134 168 145 112 157 135 102 
164 144 108 174 154 118 200 180 143 245 227 189 235 216 177 226 206 166 220 200 158 164 143 101 
132 111 65 128 107 53 115 93 41 103 81 31 92 70 22 92 68 23 93 68 24 95 69 26 
95 68 26 99 70 28 104 74 33 113 81 40 122 87 47 130 93 53 135 96 56 141 100 59 
146 104 61 150 105 62 152 106 62 154 105 60 153 103 57 152 101 55 151 100 53 151 99 52 
150 98 52 147 97 52 142 91 47 140 89 45 141 89 45 143 91 46 145 94 48 149 97 51 
158 107 60 164 113 67 165 116 70 157 109 65 154 108 67 154 110 70 150 107 71 147 106 74 
143 105 76 133 97 72 119 85 65 96 65 50 50 21 13 36 8 2 36 9 3 39 13 8 
35 15 13 30 16 17 32 13 14 37 12 13 46 12 14 59 16 19 72 19 23 83 21 26 
92 23 29 98 26 31 104 29 33 109 32 36 102 28 29 94 25 22 91 28 20 94 39 23 
102 57 31 120 84 48 122 95 46 120 101 42 117 104 37 116 109 36 115 112 35 116 114 35 
119 114 34 122 113 34 124 114 35 126 116 37 129 117 38 131 117 40 131 116 41 132 116 42 
134 117 43 136 119 43 139 121 43 141 123 43 145 127 44 148 132 45 152 136 46 160 144 50 
169 153 54 178 162 59 182 168 63 186 171 65 188 174 67 193 179 71 199 184 77 205 190 82 
207 194 86 209 196 89 210 198 90 213 201 92 215 205 95 218 208 98 220 211 103 221 213 109 
223 215 114 218 210 115 204 197 110 185 176 99 158 148 82 128 117 64 98 85 48 89 75 47 
82 67 44 77 61 40 72 55 38 74 57 42 81 65 49 87 71 57 113 97 82 154 138 119 
202 190 134 224 214 145 230 220 150 235 227 158 238 230 161 237 231 161 234 229 158 231 228 154 
228 227 151 228 229 150 230 232 150 231 234 150 228 232 144 226 231 140 225 229 139 226 229 140 
229 230 144 231 231 149 235 232 157 237 233 163 239 232 167 233 225 167 231 221 167 226 212 162 
210 180 140 205 170 133 201 166 130 188 155 120 180 149 113 176 146 108 177 150 107 186 161 111 
197 174 115 207 186 115 216 197 116 224 206 115 229 212 111 230 211 106 228 207 100 223 199 94 
217 189 91 212 180 91 210 172 97 207 163 102 200 151 105 187 134 102 138 82 59 93 38 28 
67 22 33 55 14 24 55 15 22 70 33 36 81 46 45 78 45 40 51 22 11 57 27 14 
63 32 18 61 31 15 
55 23 19 57 22 20 86 43 44 100 51 54 101 48 53 83 27 29 87 26 27 102 35 35 
110 38 36 120 43 38 128 49 40 130 52 37 133 57 37 133 63 37 123 61 29 114 61 26 
105 64 25 96 69 26 88 76 30 81 84 36 77 94 45 74 103 55 72 112 65 72 119 75 
72 124 80 74 127 84 84 127 84 91 132 90 98 140 97 104 147 104 107 151 106 107 152 106 
105 151 105 105 152 105 105 153 104 104 155 104 103 155 103 102 154 101 101 154 100 98 154 98 
96 152 96 92 149 94 89 145 91 86 142 88 83 139 86 79 135 82 76 131 78 72 128 74 
69 124 71 66 121 68 63 118 66 61 115 64 58 112 60 54 108 55 52 103 52 49 99 48 
46 96 45 44 91 41 41 86 38 38 81 34 36 76 31 34 73 28 32 70 27 29 63 23 
26 58 21 26 56 22 20 48 16 21 48 18 31 57 29 27 51 25 68 93 68 162 187 162 
169 193 170 182 200 189 204 210 222 205 211 223 206 212 223 206 211 223 205 209 220 203 206 216 
199 203 213 197 200 208 196 197 205 196 196 203 196 196 204 197 198 204 198 200 205 190 194 197 
182 187 189 173 180 180 170 179 177 162 173 169 150 163 158 133 148 141 117 132 125 96 112 105 
33 50 42 15 22 11 26 16 2 32 16 4 41 16 9 53 16 16 64 16 19 73 15 18 
81 15 17 96 24 24 103 30 25 106 33 23 101 32 21 96 32 24 91 34 30 94 41 48 
117 68 89 145 99 134 157 109 155 164 114 167 170 117 174 175 118 175 182 120 174 189 122 173 
195 128 174 194 131 186 191 134 197 192 134 197 195 135 198 200 138 199 208 143 201 214 147 202 
219 150 202 222 149 200 224 149 196 224 148 192 222 146 187 221 143 182 219 140 177 215 135 171 
211 132 168 210 130 166 212 132 169 217 138 175 223 145 183 231 154 192 238 163 201 242 170 208 
243 173 211 238 175 207 236 178 206 239 182 213 239 185 218 237 187 223 234 185 226 231 184 228 
229 184 230 229 184 233 229 185 234 229 184 233 229 183 231 234 185 230 237 186 230 239 186 229 
239 186 226 238 185 224 236 184 223 237 186 225 237 187 226 235 187 227 234 188 228 229 185 226 
221 179 220 221 177 218 223 177 218 227 181 222 227 181 222 226 180 221 223 176 219 221 173 216 
219 171 215 219 170 216 219 168 214 217 166 212 215 163 210 213 159 207 211 156 205 210 153 203 
207 150 201 204 146 198 202 142 195 200 139 193 197 136 191 194 131 187 189 127 183 186 123 180 
184 120 178 194 112 187 194 107 187 187 104 179 172 96 164 153 83 143 131 68 122 113 59 104 
98 52 90 85 46 77 63 30 56 51 21 44 42 15 35 32 5 22 32 3 19 38 5 20 
46 9 21 57 13 24 67 17 26 74 17 22 81 18 19 90 21 20 108 33 30 113 35 30 
110 33 27 94 30 28 93 32 31 99 37 36 113 49 48 102 35 34 90 21 19 99 26 23 
111 34 28 123 44 33 132 51 36 135 53 32 138 56 30 148 65 32 153 71 32 156 76 32 
158 81 33 159 84 33 160 87 34 160 90 35 159 91 35 155 89 34 147 83 30 138 75 26 
126 68 23 106 61 22 102 61 23 102 62 24 104 64 27 103 64 27 99 62 26 91 56 22 
134 101 65 171 141 105 191 162 127 192 165 130 187 161 127 174 150 117 142 118 85 148 126 92 
209 188 152 217 197 161 226 206 170 240 220 183 227 207 169 211 192 152 194 175 135 141 120 81 
114 93 49 118 95 44 107 84 34 97 73 26 88 64 19 88 63 19 89 62 20 90 62 22 
89 60 21 90 59 21 93 61 23 100 66 29 107 71 33 114 75 37 120 79 41 126 84 45 
132 89 48 138 93 51 142 96 53 146 97 54 148 97 53 149 97 52 149 98 52 151 98 53 
149 97 53 145 95 52 140 90 47 140 90 46 142 92 47 144 93 49 145 95 50 147 96 51 
154 104 59 158 109 64 159 111 67 150 104 62 148 103 63 148 105 68 146 104 69 143 104 72 
137 101 73 125 90 66 105 72 53 80 50 36 46 17 10 36 8 3 36 10 4 39 14 10 
34 15 14 29 14 15 31 12 14 38 12 14 48 13 15 60 16 20 72 19 23 83 21 25 
91 23 27 98 26 30 105 29 34 111 34 38 105 31 32 97 28 25 94 30 22 97 41 25 
104 57 32 117 80 45 118 89 43 116 95 39 114 99 36 114 105 36 115 110 36 115 111 35 
117 111 33 120 111 33 121 112 33 124 113 35 126 114 37 128 114 38 128 113 39 129 113 40 
130 114 40 133 116 40 136 118 40 137 120 40 142 124 41 146 129 43 150 134 44 159 143 49 
169 153 54 178 162 60 183 167 63 186 171 66 188 173 67 192 177 71 197 182 76 202 187 81 
206 192 85 209 195 87 211 197 89 213 200 92 216 203 96 218 207 100 220 210 106 222 212 112 
224 214 117 221 211 120 213 204 118 202 192 113 192 183 110 176 166 101 155 144 87 145 133 83 
131 119 75 115 102 64 111 97 63 117 102 72 129 115 87 144 130 104 166 152 127 195 180 152 
221 208 150 231 221 150 233 223 152 235 226 155 235 227 157 235 227 157 234 229 157 233 230 157 
232 230 155 231 231 153 231 232 152 231 233 150 229 232 146 225 228 141 221 223 136 221 222 137 
225 225 144 232 230 153 238 233 163 239 233 169 237 229 170 226 216 164 222 210 162 215 199 156 
191 159 125 179 143 112 167 132 101 142 107 77 129 96 65 124 92 59 128 99 60 147 121 74 
169 145 89 184 163 94 198 179 99 212 193 103 225 207 107 228 209 104 227 206 99 224 200 95 
219 191 93 215 183 94 212 174 99 206 163 102 196 148 101 179 126 94 135 80 56 96 42 30 
72 28 38 57 16 26 54 14 21 67 30 33 79 44 44 77 44 39 51 21 11 56 26 14 
61 31 17 61 30 15 
55 22 19 55 21 18 88 44 45 103 53 55 104 51 52 85 28 28 88 27 26 103 36 34 
111 39 36 120 44 38 129 50 40 132 54 37 136 60 38 137 66 38 125 62 29 117 63 26 
109 66 26 100 71 26 90 76 29 81 81 33 74 89 40 69 96 48 67 104 56 68 112 66 
69 118 74 72 122 80 79 121 80 86 126 85 92 134 92 99 141 99 101 145 101 101 146 101 
101 147 100 100 147 100 99 147 100 98 148 98 96 147 96 94 146 95 94 146 94 92 145 92 
89 143 90 86 140 86 83 137 83 80 134 80 77 130 77 74 127 74 70 124 70 66 119 65 
63 115 62 60 113 60 57 111 59 55 109 56 52 106 53 49 101 49 47 97 46 44 93 43 
42 90 39 39 85 36 37 80 33 34 76 29 32 71 27 30 67 25 28 64 23 25 57 19 
22 52 17 20 50 17 16 44 13 20 46 17 32 57 30 32 55 31 82 105 82 190 214 192 
193 215 194 197 214 203 206 212 223 206 212 223 206 212 222 205 210 221 203 207 217 200 203 213 
197 200 210 195 197 206 193 196 203 193 195 201 193 196 202 195 198 203 196 200 204 189 193 196 
180 185 188 171 178 179 168 176 176 161 171 169 150 162 160 136 150 145 122 138 132 104 120 114 
40 56 50 20 26 15 28 18 2 33 17 4 41 16 10 52 16 16 61 15 18 71 14 18 
80 15 17 95 23 24 104 30 26 108 35 25 104 35 24 97 34 26 91 34 32 93 39 47 
115 65 86 142 95 131 154 106 152 161 111 165 167 113 173 172 114 173 178 116 171 185 118 169 
191 123 169 191 125 179 189 127 188 193 130 190 197 132 191 202 135 192 210 141 195 216 145 197 
221 147 196 223 145 192 224 145 188 223 142 182 218 135 172 217 133 168 214 129 162 204 118 151 
197 111 143 194 108 140 198 112 144 205 120 152 214 130 162 224 141 175 235 156 189 241 165 198 
241 162 196 235 167 197 233 173 200 237 178 208 238 182 215 237 184 221 234 183 223 230 182 225 
228 182 227 229 183 231 229 183 232 228 182 231 227 180 228 231 182 229 234 184 228 236 183 226 
236 184 224 236 184 222 235 183 222 236 185 223 234 184 223 228 180 221 227 183 224 221 179 220 
207 166 208 218 172 215 224 178 220 228 180 223 227 180 223 224 177 220 221 173 216 219 170 213 
218 167 212 218 167 213 218 166 212 217 164 211 216 162 210 212 157 205 209 153 202 208 150 202 
204 147 198 202 143 195 200 140 193 198 137 191 196 134 189 193 130 185 189 126 181 185 122 177 
184 119 176 190 111 184 190 106 183 183 102 175 168 94 160 147 79 138 123 62 113 103 51 95 
85 42 78 69 33 61 49 18 42 38 10 30 32 5 24 29 3 20 32 4 19 38 6 20 
46 9 20 57 14 23 68 18 25 74 18 21 82 19 19 91 22 20 105 31 27 112 34 28 
111 34 28 96 33 30 95 34 32 101 38 37 114 49 49 103 36 35 92 22 20 100 28 24 
112 36 29 124 45 34 134 52 36 137 55 33 141 58 31 149 67 32 154 72 32 157 77 32 
159 82 33 162 86 34 164 90 35 164 94 37 164 95 38 161 94 37 153 88 33 145 82 29 
134 75 25 116 68 25 112 67 25 110 66 25 105 62 23 103 61 23 99 59 21 92 54 18 
128 92 54 163 129 92 188 157 120 193 164 129 185 157 123 159 134 100 130 106 72 151 127 93 
236 214 179 242 221 185 239 220 183 233 213 176 216 197 158 199 180 141 183 163 124 137 118 79 
113 92 49 111 85 37 102 76 30 95 69 24 90 62 19 90 62 20 91 62 20 91 60 21 
88 56 19 87 53 17 87 53 17 90 55 20 94 56 22 97 57 23 104 62 27 110 67 31 
117 73 36 125 79 41 131 83 44 136 87 46 139 88 47 142 90 48 144 93 49 146 93 50 
146 94 52 144 95 54 142 93 52 143 94 52 146 97 54 148 99 55 147 98 54 145 96 53 
150 101 58 152 105 61 151 106 63 142 98 57 140 96 58 140 98 63 140 101 68 136 99 69 
128 94 67 112 79 56 89 58 40 66 37 23 47 19 10 39 13 6 36 12 6 39 15 12 
34 14 14 27 11 14 31 10 13 39 11 15 49 14 17 61 17 21 72 19 23 83 20 24 
91 22 25 99 25 29 107 30 34 113 36 39 108 34 34 101 31 27 98 34 26 99 42 27 
102 54 31 108 68 36 109 77 36 109 85 35 111 92 34 113 100 35 114 106 36 114 107 35 
114 106 32 116 106 31 118 108 32 120 108 33 122 109 35 124 110 36 124 109 37 125 110 37 
127 111 37 130 113 38 132 115 38 134 117 38 138 121 39 143 126 41 148 132 43 158 142 48 
168 152 53 178 162 60 183 167 64 186 170 67 187 171 68 191 174 71 195 178 76 199 183 80 
207 191 83 210 195 86 211 195 87 213 198 92 217 201 98 220 206 104 221 206 110 222 208 115 
224 211 120 223 212 124 221 210 125 217 207 124 212 203 123 203 194 117 190 182 108 175 166 97 
152 144 80 126 118 59 126 117 63 139 129 80 162 151 106 181 170 130 198 186 149 213 201 163 
233 221 158 238 227 154 234 225 151 233 223 151 232 223 151 231 223 153 233 227 156 235 230 157 
235 232 158 233 231 155 231 230 152 229 229 150 230 231 149 223 224 141 215 214 133 213 213 133 
222 219 143 233 229 158 238 231 169 237 228 172 231 219 170 211 198 156 206 192 154 200 182 147 
171 136 112 155 117 95 137 100 77 96 60 37 77 43 19 70 38 12 75 46 14 108 81 39 
145 120 67 167 145 79 184 164 86 201 182 93 219 201 102 225 206 102 227 206 99 224 200 95 
222 194 96 220 188 98 216 178 102 206 163 101 190 143 95 168 116 82 131 77 52 99 47 33 
79 35 44 61 19 29 54 14 21 65 28 32 78 43 43 77 44 40 52 22 13 56 25 14 
60 30 17 61 31 17 
52 19 16 52 18 15 88 42 42 104 52 52 105 51 50 87 29 27 91 28 26 106 38 34 
114 41 35 123 46 38 132 52 40 134 55 37 138 60 37 139 66 37 128 62 29 120 64 27 
113 68 26 104 72 27 93 76 28 82 79 30 72 84 34 66 89 40 62 95 47 63 103 57 
65 110 66 69 115 73 75 115 75 81 121 82 88 129 89 93 135 95 96 139 97 96 141 97 
96 141 96 95 142 96 95 142 95 93 142 94 90 140 91 88 139 89 87 138 87 85 137 85 
83 134 82 79 131 79 76 128 75 73 125 72 71 122 69 67 118 66 64 114 62 60 110 58 
57 107 54 54 105 52 52 105 53 50 103 50 48 99 47 45 95 44 42 91 40 40 87 37 
38 83 34 35 79 31 33 75 28 30 70 24 28 66 23 27 62 21 25 58 20 20 51 15 
17 45 11 15 42 11 12 37 8 19 42 15 35 58 34 37 59 37 90 111 91 200 221 203 
200 221 203 201 217 207 204 211 220 204 210 220 203 209 218 201 207 216 199 204 213 197 201 209 
195 198 207 194 196 205 193 196 203 194 196 202 194 197 203 194 197 203 193 197 201 186 189 193 
175 181 183 164 171 173 160 169 169 153 163 162 143 155 154 131 144 142 119 133 129 100 115 111 
37 52 48 20 26 16 32 22 8 35 19 8 41 16 12 50 15 16 61 14 19 71 14 19 
81 15 19 97 25 27 105 32 28 109 36 27 106 36 26 99 35 28 92 35 33 94 40 49 
114 64 86 139 92 128 150 101 149 158 107 161 163 109 168 169 110 169 175 112 167 181 115 165 
188 119 166 190 121 173 191 122 180 193 124 181 197 127 182 202 130 183 210 135 185 213 136 184 
213 134 179 211 128 170 205 120 159 199 112 148 191 102 134 176 86 116 163 71 99 156 64 90 
152 59 85 150 57 82 150 57 82 151 60 84 155 64 89 162 72 98 180 91 118 198 111 138 
215 127 156 219 145 173 224 161 188 231 169 199 234 176 209 235 180 216 233 180 219 230 179 222 
228 180 225 228 181 229 228 181 231 228 181 230 226 178 227 229 180 226 232 181 226 233 180 224 
234 181 222 234 181 221 234 181 221 231 180 219 222 172 212 204 156 197 184 139 181 157 115 157 
123 81 124 188 141 184 223 174 217 226 177 220 226 177 220 224 175 219 221 172 216 218 168 213 
218 166 212 219 165 212 218 164 212 216 162 210 215 160 208 211 154 205 208 151 202 207 148 200 
204 145 197 201 142 194 200 139 191 198 136 190 195 132 187 192 128 183 188 124 179 185 121 176 
183 117 174 186 109 179 184 104 178 177 101 170 162 91 154 139 75 131 113 56 105 93 44 84 
75 34 67 59 25 51 42 13 34 31 6 24 26 3 18 27 2 17 30 3 17 36 5 18 
46 10 20 57 14 23 68 18 24 75 19 21 83 20 20 93 23 21 107 32 27 113 35 29 
112 36 29 98 35 32 96 35 34 101 38 37 113 48 48 103 36 34 93 23 20 102 30 25 
114 38 30 126 46 34 135 53 36 139 56 33 143 60 31 153 70 33 157 75 33 161 80 33 
164 85 34 166 89 35 168 93 36 169 97 38 169 99 39 167 99 39 159 93 35 152 87 31 
142 81 28 128 77 29 125 75 29 121 72 27 115 68 25 109 64 23 105 62 21 101 59 21 
107 68 30 115 78 41 124 91 53 131 100 64 143 114 79 162 135 100 169 143 109 189 165 130 
227 205 170 227 206 171 222 202 165 213 193 156 183 164 127 160 142 104 146 128 90 112 94 57 
99 78 38 110 81 35 104 75 30 99 70 26 96 66 24 97 67 25 98 67 26 97 65 27 
93 60 23 90 55 20 88 52 18 90 52 19 91 52 19 93 51 19 98 55 22 104 60 26 
110 65 30 116 69 33 121 73 36 125 76 37 128 77 38 130 79 39 133 81 41 134 82 42 
137 87 47 139 93 54 139 92 53 141 94 54 144 98 57 144 99 57 142 96 55 139 93 52 
141 95 55 141 96 56 138 95 55 129 87 49 126 86 50 127 88 55 125 88 57 120 84 57 
109 76 52 86 55 35 68 39 23 53 26 14 40 15 6 35 11 4 33 10 6 35 12 10 
29 10 12 25 8 13 30 9 14 39 11 16 50 14 19 62 17 21 73 18 22 82 19 22 
90 20 22 99 25 27 108 31 34 116 38 41 111 36 36 105 34 31 102 37 29 99 42 28 
97 47 27 93 51 24 90 56 22 92 64 23 101 79 28 106 90 32 109 96 34 110 98 33 
110 99 30 110 100 28 112 101 29 114 103 31 117 105 32 119 106 34 120 106 34 122 107 35 
124 108 35 127 111 36 129 113 36 132 116 36 137 121 38 142 126 39 146 131 41 157 141 47 
166 151 52 176 160 59 181 165 64 185 168 67 187 169 69 191 173 74 195 178 79 201 182 85 
209 189 86 212 192 87 211 191 88 213 193 94 216 196 101 221 202 110 220 201 115 221 202 120 
221 204 124 222 206 127 221 207 127 219 207 125 220 210 126 217 208 123 211 202 118 201 194 111 
189 183 103 176 170 94 175 169 98 183 176 110 195 188 128 206 198 144 214 205 156 222 212 164 
235 225 156 238 227 151 234 223 147 231 220 146 229 219 146 229 220 147 230 224 151 232 227 154 
233 229 155 231 228 152 228 226 149 227 225 146 226 225 145 219 217 138 210 207 130 208 204 130 
217 212 142 229 222 157 231 221 164 227 216 167 212 198 156 154 139 104 124 108 77 106 85 60 
93 58 45 91 52 39 88 49 32 69 31 16 63 27 9 65 31 7 74 43 13 111 83 42 
151 126 73 173 150 83 189 169 90 205 186 95 219 200 101 225 205 101 226 206 99 225 201 95 
223 195 96 221 189 98 216 179 102 202 160 96 183 137 86 158 107 70 130 76 48 104 52 36 
83 39 46 62 21 30 54 14 21 64 27 31 79 44 45 79 46 43 55 25 17 57 27 17 
61 30 18 61 30 18 
51 18 15 51 16 13 87 40 38 103 51 49 105 50 48 88 29 26 93 29 25 109 40 34 
117 43 36 126 48 38 134 54 40 136 55 37 139 60 36 140 65 35 130 63 29 124 66 27 
117 70 27 109 74 28 97 77 28 85 78 28 72 80 30 64 83 34 59 87 39 59 95 49 
62 101 57 65 107 64 70 110 71 76 116 77 82 123 84 87 129 90 89 132 92 90 134 92 
90 135 92 90 136 91 89 136 90 87 135 89 84 133 85 82 132 82 80 130 81 78 128 78 
76 126 74 73 123 71 70 120 68 67 116 65 65 114 62 62 110 58 58 106 54 55 102 51 
52 99 47 49 97 46 48 99 47 46 97 45 44 94 42 41 89 38 38 85 35 36 82 32 
34 78 30 32 74 27 29 70 24 27 66 21 25 62 19 23 58 18 22 54 17 16 46 11 
12 39 7 11 36 6 9 33 6 20 41 17 41 63 41 48 68 49 101 121 104 207 226 211 
205 223 208 202 217 210 203 209 218 201 208 216 200 206 214 198 203 212 195 201 208 193 198 205 
193 196 203 193 196 203 193 196 203 193 196 202 194 197 203 193 196 201 189 193 197 182 186 190 
171 177 180 158 166 168 153 161 162 145 155 155 135 146 147 126 138 138 115 128 127 98 112 110 
36 51 48 21 27 19 37 27 14 36 21 12 41 16 13 49 13 16 60 13 19 71 14 20 
83 17 22 98 26 29 107 33 30 111 38 28 107 38 28 101 37 29 94 37 35 96 43 52 
114 64 87 136 88 126 147 98 146 154 103 157 160 105 164 166 106 165 172 109 164 179 111 162 
185 115 162 190 117 167 193 119 173 195 120 173 200 123 175 204 127 176 211 130 177 211 128 171 
207 122 162 200 111 149 190 98 133 180 86 117 172 77 104 153 57 81 137 40 61 134 37 55 
132 35 52 130 34 50 129 32 48 126 31 46 125 31 46 128 33 50 145 49 69 168 71 92 
193 97 120 204 125 150 214 147 175 224 160 189 231 170 203 235 177 213 233 177 217 230 177 221 
228 177 224 228 179 228 228 179 229 227 179 229 224 176 225 227 178 225 230 179 224 231 178 223 
233 179 222 234 180 221 234 180 221 226 175 215 210 160 200 182 135 176 153 108 150 118 76 118 
79 36 79 171 123 167 220 169 214 223 172 217 224 174 218 224 173 218 221 170 216 219 167 213 
218 165 212 219 164 212 217 162 211 216 160 209 214 157 207 210 152 203 208 149 201 207 146 199 
204 143 195 201 140 193 199 137 190 197 134 188 194 130 185 191 126 182 186 122 178 183 119 174 
182 115 172 183 108 176 180 104 173 173 99 166 158 90 150 132 71 125 103 49 95 83 38 75 
66 28 58 50 19 43 35 9 27 26 3 19 22 1 14 24 2 14 28 3 15 34 5 16 
45 10 19 56 15 22 68 18 23 75 19 21 84 21 20 94 24 21 108 33 28 114 36 29 
114 37 30 100 36 33 97 36 34 100 37 36 112 47 47 102 35 33 93 24 20 104 31 26 
115 39 31 127 47 34 136 54 36 141 57 33 146 62 31 156 72 34 161 78 34 164 83 34 
167 88 35 170 92 36 172 97 37 174 101 40 175 104 41 173 104 41 167 99 37 160 93 33 
151 87 31 141 85 32 137 82 32 132 79 30 125 73 26 118 69 24 114 67 23 112 67 25 
101 58 20 92 52 17 88 52 15 92 59 23 113 81 46 156 126 91 195 168 133 216 191 156 
211 188 153 209 188 152 204 184 148 194 175 139 159 141 105 135 117 80 123 105 68 99 83 46 
94 73 34 109 79 35 106 75 32 104 73 30 102 71 30 105 72 32 106 72 33 105 70 33 
100 64 29 95 59 25 91 53 21 92 52 21 92 51 20 92 50 19 96 53 21 101 56 24 
106 60 27 110 62 29 113 64 30 115 66 31 117 66 31 118 68 31 121 69 33 122 70 33 
125 77 40 129 86 49 130 86 49 133 89 51 136 94 55 136 94 55 133 91 52 129 86 48 
129 87 50 128 86 49 125 84 47 115 75 41 113 76 43 114 79 49 109 75 47 99 67 43 
87 56 35 66 36 19 53 25 12 43 18 8 35 12 5 32 10 5 31 9 7 30 9 8 
25 7 10 22 4 13 29 7 14 39 11 17 51 14 20 63 17 22 73 18 21 81 18 20 
88 19 20 99 24 25 109 31 33 118 39 41 115 39 38 109 37 34 106 39 32 100 41 29 
93 41 24 82 38 16 77 40 12 78 47 13 89 64 21 98 77 27 103 85 30 102 86 29 
103 90 27 105 94 26 107 95 27 110 98 28 113 100 30 115 102 32 117 103 33 120 105 33 
122 107 34 125 110 34 128 113 35 132 116 35 137 122 38 142 127 40 147 131 41 156 140 46 
166 150 52 175 159 59 181 164 64 185 167 68 187 169 72 192 174 78 198 178 84 205 183 91 
211 188 90 213 188 89 210 185 90 212 187 97 215 190 106 221 196 117 219 195 121 218 194 125 
217 195 128 218 197 128 217 199 127 217 201 124 224 211 126 225 214 125 222 213 121 217 210 116 
212 206 114 207 203 113 207 202 118 210 205 126 215 210 138 220 214 149 223 216 157 226 219 161 
235 225 151 236 225 146 232 221 143 230 218 142 228 217 142 227 218 143 229 221 147 230 223 149 
230 225 150 228 224 148 226 222 145 224 221 143 224 220 142 216 212 136 206 202 128 203 197 127 
210 203 137 220 210 150 217 204 153 210 196 152 187 171 135 110 93 63 67 49 25 46 23 4 
46 8 2 51 10 3 55 15 4 52 14 3 58 21 5 69 34 11 84 52 21 125 96 54 
166 140 86 186 163 94 202 180 99 214 194 102 221 202 101 225 206 100 227 206 98 225 201 95 
223 196 96 221 189 97 215 179 99 198 157 91 176 130 77 149 99 59 126 74 43 105 53 35 
83 39 45 62 20 28 53 13 19 64 27 30 80 45 46 81 48 46 57 27 20 58 27 19 
61 29 20 60 29 18 
54 20 17 53 16 13 86 38 33 102 49 43 105 49 44 89 29 24 95 31 25 112 43 35 
120 46 37 129 51 39 137 56 40 139 56 36 141 60 35 141 64 34 133 64 28 128 67 27 
122 72 28 114 77 29 103 79 29 89 79 28 75 78 27 65 79 29 59 82 34 57 87 41 
59 93 48 61 99 56 64 103 65 69 109 72 74 115 78 79 121 83 81 124 85 82 126 85 
83 128 86 83 129 86 83 130 85 80 128 82 77 126 79 74 124 76 73 122 74 71 120 71 
69 118 68 66 115 64 64 112 61 62 109 58 59 107 54 57 103 51 54 99 48 50 95 44 
47 91 41 45 90 39 43 94 41 42 92 39 40 88 36 37 84 33 35 81 30 33 77 28 
31 74 26 29 70 24 27 66 21 24 62 19 22 58 17 21 54 15 19 50 15 15 43 9 
11 36 5 9 32 4 10 32 8 24 45 23 51 72 53 67 85 69 119 136 123 213 229 218 
208 223 213 203 216 211 202 209 215 200 207 213 197 204 211 194 200 207 192 197 204 190 195 201 
190 194 200 191 194 200 191 195 200 191 195 200 192 196 201 189 193 199 184 188 193 179 183 188 
169 174 179 155 162 167 146 155 157 137 146 148 127 138 139 120 132 132 113 126 126 99 113 113 
40 54 54 26 31 26 40 32 19 36 22 14 40 16 14 48 11 16 58 11 20 71 14 22 
86 19 25 99 26 30 108 33 31 113 39 31 108 38 29 102 38 32 97 40 39 100 46 56 
115 64 88 135 85 123 146 97 145 152 101 155 157 102 159 164 104 162 170 106 161 176 108 158 
182 110 158 189 113 161 195 116 165 201 121 170 206 124 171 210 126 171 216 129 172 212 123 162 
204 113 148 193 98 131 181 83 112 171 71 96 166 65 87 159 56 75 153 49 65 152 47 62 
152 46 60 152 46 58 152 46 58 147 42 54 143 39 50 142 38 50 148 45 57 161 57 71 
183 78 95 192 107 129 202 133 159 218 150 178 230 165 197 237 175 212 236 177 218 232 176 220 
229 176 223 228 177 226 227 178 228 225 176 227 223 174 225 227 177 225 230 178 224 230 177 222 
233 179 221 235 181 222 236 182 223 222 171 211 199 151 191 166 119 161 144 99 142 123 79 123 
101 59 103 175 127 172 216 164 210 220 168 214 223 170 217 224 170 217 223 169 216 221 167 214 
220 164 212 219 162 212 217 160 210 215 157 207 213 154 204 210 150 202 207 147 200 206 145 197 
204 141 194 202 138 191 199 135 189 196 131 187 193 128 184 190 124 180 185 120 176 182 116 172 
180 113 170 181 108 174 177 104 170 169 99 162 155 90 147 126 68 119 92 42 84 74 32 65 
57 23 49 43 14 35 30 5 22 22 2 15 19 1 11 21 2 11 26 4 13 34 6 15 
43 9 17 55 14 20 66 19 22 74 19 20 83 20 19 94 24 20 109 33 27 115 37 29 
115 38 30 102 38 34 97 36 33 99 36 34 111 46 44 101 34 32 93 23 20 105 31 26 
116 39 30 127 47 33 137 55 35 142 58 32 148 63 31 157 73 34 163 79 34 167 84 34 
170 89 35 174 95 36 177 100 38 180 105 41 181 109 43 180 110 43 175 106 40 169 100 37 
161 95 34 153 93 36 148 89 34 142 84 31 134 78 27 130 76 27 127 75 28 126 77 30 
119 73 29 111 68 26 101 62 23 95 59 22 103 70 34 133 101 65 197 168 133 221 195 160 
189 165 130 191 169 135 189 169 135 180 161 127 153 135 100 132 115 80 121 106 69 107 92 55 
103 82 44 109 77 36 109 76 35 109 75 35 109 76 36 112 76 39 112 76 40 111 75 39 
106 68 35 101 62 30 97 56 25 96 54 24 96 53 23 96 53 23 99 55 25 101 57 26 
104 59 27 106 59 28 107 59 28 106 59 27 106 58 26 107 58 25 109 58 25 110 59 25 
111 65 31 113 73 39 115 73 39 118 77 42 122 82 47 123 83 48 120 80 45 115 75 41 
115 76 42 114 76 42 110 73 40 100 64 33 101 66 37 104 71 44 92 61 37 76 46 26 
60 32 15 53 26 12 46 20 9 39 16 8 36 14 9 32 12 10 29 10 9 26 7 8 
22 4 9 21 2 12 29 5 15 39 10 18 51 14 20 63 17 21 72 17 19 80 17 18 
88 18 18 99 23 23 110 31 30 119 39 40 118 40 39 114 39 36 109 40 34 101 40 30 
92 38 23 78 31 13 71 31 8 70 36 8 76 48 12 88 62 22 94 71 26 89 68 22 
94 79 23 100 88 24 103 91 25 106 93 26 109 95 28 112 99 30 115 101 31 118 103 32 
122 106 33 125 110 34 128 114 35 132 116 35 139 124 39 145 131 41 149 134 42 158 141 47 
166 149 52 175 158 59 181 163 65 186 166 71 189 169 75 196 175 83 202 181 91 210 187 99 
214 186 96 213 183 94 209 177 93 211 178 102 214 182 113 220 188 126 218 186 129 215 185 132 
212 183 133 211 185 129 210 187 125 210 190 119 222 205 124 226 212 122 223 213 116 218 210 110 
212 206 105 207 202 102 208 204 109 211 207 118 215 211 129 221 216 142 225 219 152 227 220 156 
231 221 143 232 221 138 230 218 138 229 217 139 229 217 140 228 218 141 228 218 143 228 219 144 
227 220 145 225 220 143 224 218 141 223 217 140 222 217 140 214 209 134 205 198 126 200 191 123 
201 191 128 204 192 135 195 180 133 183 165 125 157 138 105 89 69 44 57 36 17 45 20 5 
46 7 2 47 5 2 47 6 2 47 8 2 60 22 8 79 44 19 104 72 38 148 119 73 
189 163 105 207 183 112 220 198 114 228 207 113 226 207 103 227 207 99 228 206 97 224 200 93 
223 196 95 221 190 97 212 176 95 192 152 84 168 124 69 141 93 50 120 69 35 100 50 28 
78 35 38 58 17 24 51 11 16 64 27 28 81 46 46 82 49 48 57 27 21 58 27 20 
60 28 20 58 27 18 
68 33 31 67 30 27 88 40 34 101 47 39 105 48 41 90 30 22 97 32 24 115 44 35 
124 48 37 132 53 39 140 58 39 142 58 36 143 62 34 144 66 33 138 66 29 133 70 28 
128 75 29 121 80 30 110 82 30 98 82 29 83 80 28 71 79 28 63 80 30 59 82 35 
58 86 41 58 90 47 58 96 57 61 101 63 66 107 68 70 112 73 71 114 74 72 116 75 
72 117 76 73 119 77 73 120 76 71 119 74 68 116 70 66 114 67 66 115 67 65 113 65 
63 111 62 60 108 58 58 106 55 56 103 52 55 100 49 52 97 46 49 93 42 47 89 39 
44 86 36 42 86 35 41 89 37 39 87 35 37 84 33 35 80 29 33 77 27 31 73 25 
29 70 24 27 66 21 25 62 19 22 58 17 20 54 14 19 50 13 18 48 14 13 40 8 
10 34 6 9 31 7 13 33 12 34 54 35 77 96 80 97 113 101 138 153 143 204 219 210 
207 221 213 205 217 214 202 209 214 199 206 211 195 202 208 192 197 203 189 194 200 186 192 197 
185 190 196 185 189 195 184 188 194 183 187 193 183 187 192 181 185 190 178 182 187 173 177 183 
162 168 173 148 155 160 139 146 151 130 138 142 121 130 133 116 126 130 111 123 126 102 114 116 
43 56 58 28 32 29 39 31 21 35 21 14 39 14 14 47 11 17 59 12 22 72 15 24 
86 19 26 98 26 30 107 32 31 112 37 31 108 37 30 104 39 34 101 42 42 102 49 58 
115 64 87 131 81 119 142 92 140 147 95 149 151 95 153 160 99 157 166 102 156 173 104 154 
179 107 155 188 110 156 196 112 158 199 114 160 202 115 159 204 114 156 203 111 151 194 101 136 
185 89 120 177 77 107 170 67 92 165 59 80 164 57 74 165 56 72 167 56 70 167 55 66 
166 54 64 166 53 63 165 53 62 161 50 59 157 46 54 151 41 48 149 40 48 152 43 51 
161 51 61 172 81 101 188 113 140 209 137 166 227 158 191 238 173 210 238 177 217 232 175 219 
228 173 221 227 174 224 226 175 226 225 174 226 223 172 223 227 175 224 230 176 223 229 174 221 
231 176 220 233 178 221 233 180 222 218 167 208 180 131 173 118 71 113 113 68 111 113 70 114 
117 74 118 180 130 176 215 161 208 219 165 213 223 168 216 224 168 217 223 166 215 221 164 213 
220 162 212 219 161 211 216 158 208 214 155 205 211 151 201 209 148 200 207 145 198 205 143 196 
203 139 192 200 135 189 197 132 186 194 128 184 191 124 181 187 120 177 182 116 172 179 112 169 
177 109 166 177 108 170 172 104 166 163 97 157 146 86 138 116 63 108 81 35 73 62 25 54 
47 17 39 35 10 27 24 3 16 18 1 10 17 1 8 20 2 9 25 4 11 33 6 14 
42 10 16 54 14 19 66 18 21 75 19 19 83 21 18 93 24 19 108 33 27 115 36 29 
115 38 30 103 39 35 98 37 34 98 36 33 110 45 43 101 34 31 93 24 19 106 32 26 
118 40 30 128 48 33 139 55 34 144 60 32 150 64 31 158 73 32 163 79 32 167 84 33 
172 90 34 176 96 36 180 102 39 185 109 42 187 114 45 187 115 46 183 113 44 178 108 41 
171 103 38 163 98 37 159 95 36 153 91 34 145 84 30 138 80 28 133 78 28 133 80 31 
127 77 30 117 71 27 104 62 22 94 55 19 104 68 31 142 109 71 193 163 127 213 187 152 
192 168 135 187 165 132 174 154 121 150 131 98 134 117 84 120 104 71 107 93 58 98 84 49 
99 80 43 112 80 41 113 79 41 114 80 42 115 81 43 117 81 44 116 80 44 114 78 44 
110 72 40 106 67 35 102 61 31 100 59 29 99 57 28 99 56 27 100 57 28 102 58 29 
103 59 29 103 58 28 102 57 27 100 55 24 99 54 23 99 53 22 100 53 22 101 54 22 
101 57 26 99 61 31 99 60 30 103 64 34 108 70 39 110 72 41 108 70 39 104 68 36 
106 69 39 105 70 40 102 68 38 92 59 31 92 60 34 93 63 39 77 49 28 62 35 17 
48 23 8 43 19 7 40 17 8 37 16 11 36 16 13 32 14 13 27 10 11 23 6 8 
20 3 9 20 1 12 27 3 15 38 7 17 49 12 18 61 15 19 70 15 18 79 16 16 
87 17 17 98 23 21 109 29 28 118 38 37 118 40 38 116 41 38 112 42 37 104 41 33 
94 37 26 80 30 15 70 27 9 66 29 6 71 38 9 77 48 15 80 54 18 73 48 13 
86 69 18 98 86 23 101 88 24 104 91 26 108 94 28 111 97 30 113 100 31 117 103 32 
121 106 33 124 111 34 128 114 35 131 117 35 140 127 40 148 134 43 151 137 44 159 144 48 
167 151 54 176 158 61 181 162 67 186 165 72 189 167 78 195 173 87 202 178 95 210 185 104 
215 181 103 214 175 101 206 167 97 208 169 107 213 173 120 220 179 134 217 177 137 214 175 138 
210 174 137 206 173 130 203 173 122 199 172 111 208 186 112 212 194 109 212 197 104 211 199 101 
210 201 100 210 203 101 209 204 107 209 204 113 210 204 120 213 207 131 215 209 138 217 210 142 
225 215 135 229 217 133 229 217 134 230 217 137 230 218 139 230 219 140 229 218 141 228 218 141 
227 218 141 226 218 140 225 218 140 225 217 139 226 218 140 221 212 136 213 203 129 206 195 125 
198 186 122 185 171 113 149 132 83 122 104 62 97 77 44 65 43 20 45 22 8 36 10 2 
46 8 2 50 9 3 53 13 3 59 20 6 74 37 16 98 63 32 139 107 66 177 148 96 
208 182 118 223 199 122 231 210 121 234 214 116 229 210 104 228 208 98 227 205 94 222 198 90 
221 194 91 218 188 93 209 175 92 189 150 79 164 122 63 136 91 44 113 65 28 91 44 20 
71 29 28 54 14 16 49 11 12 64 28 28 80 45 45 80 47 46 54 23 19 55 24 19 
58 26 19 57 25 17 
76 41 39 77 40 37 91 42 34 101 46 36 105 47 38 91 30 20 99 33 22 117 45 34 
126 50 36 135 55 39 143 60 40 145 61 36 147 65 34 148 69 33 143 70 30 139 74 29 
135 79 31 128 84 32 118 86 32 107 86 32 92 83 30 79 81 29 69 79 29 62 79 31 
59 81 34 56 84 39 53 90 49 55 95 55 59 99 59 61 103 63 62 105 64 62 106 65 
63 108 66 64 110 67 64 112 68 63 111 67 61 108 63 59 107 60 59 109 61 58 107 59 
57 105 56 54 102 53 53 100 50 51 97 47 50 95 44 48 92 41 46 89 38 43 85 34 
41 82 32 39 81 31 38 84 33 36 82 32 34 79 29 32 76 27 30 72 25 28 69 23 
27 66 21 25 63 19 23 59 17 19 54 14 18 50 13 17 47 12 16 45 13 12 37 8 
9 32 6 9 31 9 12 29 11 39 54 40 97 113 101 121 135 126 155 167 161 199 212 206 
205 217 213 205 215 215 201 208 212 197 205 208 193 200 204 189 195 199 185 191 195 182 188 193 
180 185 191 179 183 189 177 181 187 175 179 185 173 177 183 171 176 181 169 174 180 164 169 175 
153 159 165 139 146 152 130 137 143 121 128 135 113 122 126 109 118 124 106 116 121 97 108 112 
42 53 58 26 29 29 34 26 17 32 17 12 37 12 13 47 10 18 60 12 23 72 15 25 
85 18 26 97 25 30 106 31 31 112 36 31 109 37 30 106 40 36 104 45 45 104 49 59 
113 62 85 127 77 114 137 86 134 142 89 143 146 89 147 156 95 153 163 98 152 170 100 150 
176 104 151 187 106 151 197 108 151 198 109 152 199 108 149 198 105 143 191 96 132 181 84 116 
172 72 100 168 64 89 165 58 80 165 55 72 167 55 69 174 60 73 181 64 76 181 63 72 
180 62 69 179 61 68 177 59 66 174 56 63 169 52 58 160 45 50 154 40 44 150 37 40 
149 37 40 155 60 76 169 91 117 197 121 150 221 149 181 237 168 204 239 174 214 233 172 216 
228 170 218 226 171 221 226 172 225 225 172 226 223 171 223 226 173 223 228 173 222 226 171 219 
228 173 219 230 176 220 232 178 222 217 165 208 172 122 165 93 45 88 107 61 105 127 83 127 
150 108 152 192 141 187 216 159 208 221 164 214 224 167 216 224 167 216 222 164 214 220 161 212 
219 160 210 218 158 209 215 155 206 212 151 202 210 148 199 208 146 198 206 143 196 204 140 194 
201 136 190 198 132 187 196 129 184 192 125 181 188 121 178 184 117 174 180 112 169 176 108 165 
174 105 162 173 107 166 167 103 161 157 96 151 137 82 130 106 57 98 71 29 63 53 19 44 
39 12 31 28 6 20 19 2 11 15 1 7 14 1 5 19 3 8 25 4 10 32 6 12 
41 10 15 53 14 18 65 18 20 74 19 18 82 20 17 92 23 18 108 33 26 114 36 28 
115 37 29 105 41 36 99 38 35 99 36 33 110 45 42 102 34 31 95 25 19 108 34 26 
119 41 30 130 49 33 141 57 34 146 62 33 152 66 31 159 73 31 163 79 31 168 85 32 
173 90 33 178 97 36 183 104 39 188 112 42 192 118 46 193 120 47 190 119 46 185 114 43 
179 109 40 170 101 38 167 99 37 162 96 35 154 89 31 145 83 28 139 80 28 139 82 31 
133 80 31 123 75 29 109 65 23 96 55 17 103 65 28 137 103 66 169 138 103 184 157 123 
179 155 122 169 148 116 151 132 101 124 107 75 118 102 71 111 96 65 101 87 55 96 84 51 
101 83 48 116 84 47 118 84 48 119 85 49 120 86 50 120 84 49 118 83 48 116 80 47 
112 75 43 109 70 40 105 65 36 103 63 34 101 60 32 101 59 32 101 59 32 101 59 32 
101 59 31 99 57 29 97 55 26 95 52 23 93 51 22 92 50 21 93 50 20 94 51 21 
92 52 23 88 53 26 87 52 25 90 54 27 94 59 31 97 62 34 96 62 34 94 61 33 
97 64 37 97 65 38 94 63 36 84 54 29 80 51 29 77 50 30 63 38 20 50 26 11 
40 17 4 35 14 4 34 14 7 33 14 11 33 16 14 29 13 13 24 8 10 19 4 7 
18 2 9 20 1 12 26 2 14 36 6 16 47 10 17 59 13 18 69 14 16 77 15 15 
86 17 15 96 22 20 107 28 26 116 36 34 118 40 37 117 42 39 114 44 39 106 42 36 
96 38 30 82 30 19 71 25 11 65 25 7 68 31 8 72 38 12 72 41 13 65 36 9 
83 63 17 98 85 24 101 87 25 104 90 27 107 93 29 110 97 30 113 100 31 116 103 32 
120 107 33 124 111 33 127 115 34 130 118 35 141 129 40 149 136 44 153 139 45 159 145 49 
166 151 54 175 157 61 179 160 67 183 161 73 186 163 78 191 167 87 198 172 96 206 178 104 
212 171 107 211 164 107 204 156 103 206 157 113 211 162 126 218 168 140 215 166 142 211 164 142 
208 163 140 203 162 132 198 160 121 192 159 109 196 167 103 200 175 99 203 182 97 204 187 95 
206 193 96 209 199 100 208 199 104 206 198 108 205 197 113 208 200 123 209 201 129 210 202 133 
222 210 129 227 214 128 228 214 130 229 216 134 230 217 136 230 218 138 229 218 138 229 217 138 
228 217 137 227 218 137 227 218 137 227 218 137 229 220 138 227 216 136 222 210 131 215 203 129 
204 190 122 186 170 107 144 126 72 112 92 47 85 64 27 61 39 12 45 21 4 37 10 2 
51 13 3 57 16 4 62 21 5 73 35 11 93 57 26 123 88 49 172 140 90 202 173 113 
223 197 125 232 209 124 235 214 119 235 215 112 230 211 101 228 208 95 225 204 91 220 197 86 
218 193 88 215 187 90 206 174 88 186 150 76 161 121 60 134 91 41 107 62 24 83 38 13 
64 23 19 51 12 10 49 11 9 65 29 28 80 45 44 78 45 44 51 20 17 53 22 18 
57 25 20 56 24 18 
75 41 38 79 41 39 93 44 34 103 47 36 107 48 37 92 30 19 99 33 21 117 45 32 
127 50 35 137 57 38 146 63 41 149 64 36 152 69 35 154 73 35 149 74 31 145 77 31 
141 83 32 135 88 34 127 91 35 118 91 35 103 88 33 89 85 31 78 81 29 68 78 29 
62 78 29 57 79 32 49 85 43 50 89 48 52 92 51 53 95 53 53 96 54 53 97 54 
54 99 56 56 103 59 58 105 61 57 105 60 54 102 57 53 101 55 53 103 55 53 101 53 
51 99 51 50 96 48 48 94 45 47 92 42 46 90 40 45 88 38 43 85 35 40 81 31 
38 79 29 37 78 28 36 80 31 34 77 29 32 74 27 29 71 24 27 68 22 26 65 20 
24 62 18 22 59 17 20 55 15 17 50 12 16 46 11 15 44 10 15 42 11 10 34 7 
8 29 6 8 29 9 4 16 4 35 43 36 106 119 112 136 147 143 167 176 175 200 210 210 
203 212 213 202 210 212 199 207 209 195 203 205 190 198 200 185 193 195 181 187 190 177 183 187 
174 180 186 172 177 183 169 174 180 165 170 176 162 167 173 159 165 171 157 162 169 151 157 164 
142 148 155 129 136 142 118 125 133 110 117 125 102 111 117 100 108 115 94 102 110 82 92 97 
34 44 51 18 21 22 24 15 7 26 12 8 34 9 13 46 9 19 59 11 24 72 13 26 
84 17 26 96 23 29 105 30 31 112 36 32 110 38 32 108 42 37 106 46 46 104 48 58 
111 58 82 121 71 108 132 80 128 137 83 137 141 84 142 152 91 149 160 95 149 167 97 146 
173 100 147 185 103 146 197 106 146 200 108 148 199 105 144 195 99 135 186 87 121 176 75 105 
169 65 90 167 59 82 169 58 77 173 59 74 177 61 73 186 67 78 194 72 82 194 72 79 
193 70 76 191 68 73 190 67 72 186 63 67 180 58 62 173 51 55 163 44 46 156 38 39 
152 36 36 141 43 57 146 65 89 179 100 127 210 135 166 231 160 194 236 169 209 231 167 212 
227 166 215 225 167 218 225 169 223 225 171 225 225 170 224 225 171 223 225 170 220 222 166 215 
226 170 217 229 174 219 232 177 222 220 168 212 179 128 172 103 55 98 138 91 134 175 130 174 
211 167 212 216 162 210 220 161 211 224 164 216 225 166 217 225 165 216 222 161 214 219 158 210 
217 156 208 217 154 207 214 151 204 211 148 201 209 144 198 207 142 196 205 140 194 203 138 192 
199 133 189 196 129 186 194 126 182 190 122 179 186 117 174 181 113 169 177 108 165 173 104 161 
170 101 158 169 106 161 162 103 156 151 94 145 129 79 122 97 53 89 62 24 53 46 16 39 
34 9 27 24 5 16 15 2 8 12 0 3 12 1 2 18 4 7 24 5 9 31 7 11 
40 10 13 52 14 17 64 17 19 72 18 16 80 19 15 90 22 17 107 32 26 114 36 28 
115 37 29 107 44 38 101 41 36 100 38 33 111 46 42 104 35 31 97 26 20 110 35 26 
121 43 30 132 51 33 143 59 34 148 64 33 154 68 31 160 74 31 165 80 31 170 86 31 
175 92 33 180 99 36 185 106 38 191 114 42 195 120 46 197 124 48 194 123 47 190 118 45 
184 112 41 176 103 36 173 100 36 169 98 35 161 93 32 151 86 29 144 82 28 144 85 31 
139 84 32 130 80 31 118 72 27 102 60 20 98 59 22 111 76 39 118 87 53 127 100 67 
139 115 83 131 110 79 120 102 72 108 92 63 107 93 63 106 94 63 106 95 64 108 97 66 
113 95 63 120 88 54 121 90 55 122 90 56 122 90 56 120 87 53 118 84 51 115 81 49 
111 75 45 108 71 42 105 68 39 103 65 36 101 63 35 101 61 35 101 61 35 101 61 34 
99 59 33 96 57 30 92 54 27 89 51 23 87 49 22 86 48 21 86 48 20 87 49 21 
86 50 23 83 51 26 79 47 23 80 48 23 83 51 26 85 53 28 86 54 30 85 55 31 
88 59 35 89 60 36 86 58 34 75 48 27 64 39 20 54 31 13 49 26 12 41 19 7 
33 13 2 29 12 4 27 10 5 25 9 8 27 11 11 23 8 10 17 4 7 14 1 5 
16 1 9 20 1 13 25 1 14 35 4 14 46 8 15 58 12 16 67 14 15 76 15 13 
85 17 14 94 22 18 104 27 24 112 34 30 116 38 35 117 42 39 113 43 39 107 42 37 
98 39 33 84 31 22 74 25 15 68 24 10 69 29 12 71 34 15 72 37 15 69 35 12 
86 63 20 100 85 27 102 87 28 105 91 30 108 95 31 112 97 32 114 100 32 116 104 32 
119 107 33 122 111 33 125 115 34 129 118 35 140 128 40 148 136 43 152 138 45 158 144 48 
165 149 53 172 155 60 176 156 65 178 156 71 179 156 76 184 157 83 189 160 90 195 165 97 
202 154 105 204 146 110 201 142 110 204 144 120 208 148 130 213 153 141 209 151 143 207 150 143 
206 151 142 202 151 134 198 151 125 193 152 114 189 152 101 191 158 96 197 169 96 198 175 93 
200 180 94 202 186 96 201 186 99 200 187 103 200 189 109 207 195 120 209 198 127 210 199 130 
222 208 126 226 212 125 226 212 126 227 212 129 228 214 131 228 216 132 229 216 134 229 217 134 
229 218 134 230 219 134 230 219 132 230 219 131 232 220 133 231 219 133 230 218 132 228 216 133 
222 208 130 212 195 124 199 180 116 175 155 98 141 120 71 88 65 26 61 38 8 50 24 4 
61 24 5 65 26 6 71 32 8 87 51 18 118 83 40 155 123 71 199 169 107 221 193 121 
233 207 124 232 210 117 230 209 108 228 208 100 229 210 97 226 206 91 222 201 86 217 196 83 
217 193 86 214 187 88 203 172 84 183 149 73 160 123 58 134 94 41 102 60 23 75 33 10 
59 19 12 49 10 6 50 12 9 68 32 28 80 46 43 77 44 41 48 17 15 52 20 18 
58 25 23 59 27 22 
72 38 35 76 39 36 94 45 34 105 49 35 108 49 37 93 30 18 100 33 20 118 45 30 
128 50 33 139 58 36 149 65 40 152 67 37 156 72 37 159 77 37 154 77 32 151 80 32 
147 86 33 143 92 35 135 95 36 126 95 36 113 92 35 99 88 32 86 83 29 75 78 27 
67 76 26 59 76 27 49 83 39 48 87 44 50 89 46 51 91 48 50 92 48 50 93 49 
51 95 51 53 99 54 55 101 56 54 102 57 52 100 54 50 98 52 50 99 51 49 97 50 
48 95 47 47 93 45 45 91 43 44 89 40 44 87 38 43 85 36 41 82 33 39 79 30 
36 76 27 35 75 27 33 76 29 32 74 28 30 71 25 28 68 23 26 65 21 24 62 19 
23 60 17 21 56 15 19 52 14 16 48 12 14 43 10 13 40 9 12 37 9 9 31 7 
6 26 5 5 23 6 9 21 10 39 50 43 103 114 109 135 145 143 165 173 174 192 199 203 
195 201 206 196 202 207 195 203 205 191 199 201 186 194 196 181 189 191 177 184 186 173 180 184 
171 177 182 168 174 179 164 170 175 160 166 171 157 163 169 155 160 167 152 159 166 147 153 160 
137 143 151 125 131 139 115 121 130 107 113 122 101 108 116 100 107 115 93 100 109 78 87 94 
32 40 48 15 16 18 19 9 3 23 7 6 32 7 12 46 8 19 59 11 24 71 13 26 
82 15 25 92 20 27 102 27 29 110 35 31 110 38 32 108 42 37 105 46 46 104 48 58 
109 56 79 118 67 104 128 76 123 133 79 132 138 80 137 150 88 145 159 92 146 167 96 144 
173 99 144 184 100 141 193 100 138 193 98 137 189 93 129 184 85 119 178 76 108 172 68 95 
168 61 84 169 58 79 174 61 78 181 64 78 187 68 79 194 72 82 199 75 83 199 73 80 
197 71 76 194 68 72 192 65 69 187 61 64 182 57 59 177 52 54 170 47 48 164 42 43 
160 39 39 133 34 44 126 43 65 164 82 108 200 121 151 225 150 185 233 162 201 228 162 206 
225 162 210 223 164 216 225 167 222 227 170 225 227 171 226 226 170 223 224 168 220 222 165 216 
226 170 218 229 173 220 231 175 222 222 168 213 185 133 178 119 68 113 156 108 153 187 141 186 
209 164 210 218 163 212 224 163 215 227 165 218 228 166 218 225 163 216 221 159 212 217 155 208 
215 152 205 214 150 203 212 148 202 210 145 199 208 142 196 206 141 195 204 139 193 201 135 190 
198 131 187 195 127 184 191 123 180 188 119 176 183 115 171 179 110 167 174 105 162 170 100 158 
167 98 155 165 104 157 158 101 151 146 92 139 125 77 117 93 51 85 59 24 50 44 16 36 
32 10 24 22 5 14 14 2 6 10 0 2 10 1 1 17 5 6 23 7 8 30 8 10 
39 11 13 51 15 16 63 18 19 71 18 17 80 19 15 90 22 16 108 34 27 115 36 29 
114 37 29 108 45 38 103 42 36 102 39 33 112 46 42 105 36 31 99 28 21 112 38 27 
123 45 31 133 52 33 144 61 35 151 66 33 157 71 32 163 77 32 168 83 32 173 89 32 
177 95 34 182 101 36 186 108 39 191 115 42 196 121 45 198 125 47 194 123 46 189 118 43 
186 114 41 185 111 40 177 103 37 170 97 34 166 96 33 158 91 31 152 88 31 150 89 33 
144 87 34 135 83 33 121 74 28 106 62 22 99 59 22 104 69 33 106 75 42 110 83 51 
116 92 62 112 92 62 116 99 70 131 116 87 113 100 71 105 94 65 111 100 71 111 101 71 
113 97 66 118 89 56 119 90 57 120 91 57 119 89 56 116 85 53 113 81 49 109 77 45 
106 72 43 103 69 40 100 65 37 98 63 35 98 62 35 100 63 37 100 63 37 98 62 37 
96 60 35 92 57 31 88 53 28 84 50 23 82 48 22 81 48 21 80 48 21 81 48 22 
81 49 24 79 49 26 74 44 22 73 43 21 74 45 22 75 47 25 75 47 25 75 47 26 
79 52 31 78 53 32 74 50 30 63 40 21 54 32 15 47 27 12 45 26 13 41 23 12 
36 19 12 31 17 11 28 14 11 25 12 11 25 12 13 22 10 13 18 6 11 14 3 8 
15 2 11 19 1 15 24 1 14 32 3 13 43 7 13 55 11 15 65 13 14 74 14 12 
82 17 13 92 21 17 102 26 22 109 32 28 114 37 34 116 42 39 114 43 41 107 42 39 
98 38 34 86 31 24 76 26 17 70 24 14 72 29 16 75 34 19 76 38 20 74 37 18 
90 65 24 103 87 30 105 89 31 107 93 32 110 96 33 112 98 34 114 101 33 116 104 33 
119 107 33 121 110 33 124 114 34 127 117 35 136 126 38 144 132 41 149 135 43 155 140 47 
162 146 52 170 150 59 172 150 63 173 149 68 172 146 72 175 146 78 178 148 84 183 151 90 
194 139 103 199 131 111 198 129 112 201 133 121 205 136 130 208 140 137 207 141 140 206 142 141 
205 143 140 203 145 134 200 146 126 195 146 116 185 140 99 184 144 92 191 156 93 197 166 96 
202 175 98 204 181 101 204 184 103 202 185 106 202 187 109 206 191 117 208 194 122 209 196 125 
221 207 124 225 211 123 223 209 122 223 209 123 224 210 125 225 212 126 228 214 129 230 217 130 
232 219 130 232 220 129 231 219 127 231 219 125 233 221 126 234 221 126 233 220 126 234 220 128 
230 214 127 223 206 124 211 192 116 192 173 103 165 145 82 116 95 41 85 63 21 68 43 9 
77 43 10 85 49 13 97 61 20 121 87 37 145 114 55 173 143 76 209 182 106 226 201 116 
234 210 117 231 210 109 227 208 100 225 206 93 226 208 91 223 205 87 219 200 84 216 196 82 
215 193 85 211 186 86 201 173 83 183 152 73 161 127 59 135 98 41 102 63 23 75 34 9 
58 19 7 51 13 4 54 17 10 72 36 29 82 48 42 76 43 40 47 16 13 53 21 19 
60 28 26 63 31 27 
66 31 29 68 30 27 95 45 33 107 50 35 107 48 34 96 33 19 102 35 20 118 45 29 
129 52 32 141 60 36 152 68 39 156 71 38 160 76 38 163 81 37 159 81 34 157 85 34 
154 90 35 151 96 37 144 99 38 136 101 38 124 98 37 110 93 34 95 86 30 83 80 26 
74 75 24 64 73 23 46 78 31 44 81 35 45 82 37 45 83 38 44 84 38 44 85 39 
45 87 41 47 91 45 48 94 48 48 95 50 47 94 48 45 93 47 45 93 46 44 91 44 
43 88 42 42 87 40 41 85 38 40 83 36 39 82 34 38 80 32 37 77 30 35 75 26 
33 72 24 31 70 24 30 70 26 29 68 25 27 66 23 25 63 21 24 60 18 22 57 17 
21 55 15 19 51 14 17 48 12 15 45 11 14 41 10 12 37 9 9 32 7 7 28 6 
5 23 5 4 18 3 11 23 13 40 52 45 99 108 105 131 139 139 159 166 169 182 187 194 
186 190 198 189 193 200 190 197 200 186 194 197 182 189 192 176 184 187 172 180 183 168 176 179 
164 171 176 160 167 172 156 163 168 151 159 164 149 155 162 146 152 159 142 150 156 136 143 150 
127 134 142 117 123 132 107 113 122 100 106 115 95 101 110 94 100 110 89 95 105 76 83 92 
28 33 43 11 10 14 16 6 1 21 6 6 32 7 13 47 9 21 60 12 26 72 13 27 
82 15 26 91 19 27 99 24 26 106 31 27 111 39 33 110 44 39 107 46 47 105 49 59 
109 56 78 115 64 99 122 70 116 128 73 125 135 76 132 147 84 140 157 89 142 166 94 140 
171 97 141 181 96 136 187 92 129 184 87 124 177 78 113 171 70 101 168 65 94 167 61 86 
168 59 80 173 60 80 181 65 81 189 70 83 196 74 84 200 76 84 202 76 83 201 73 79 
198 70 74 195 66 69 192 62 65 187 59 61 183 55 58 179 52 54 174 48 49 169 44 44 
165 41 41 132 31 40 120 35 54 154 68 92 191 108 138 218 139 174 227 154 193 226 157 202 
225 160 208 224 162 214 225 165 220 226 168 224 226 169 225 224 167 222 223 166 219 222 164 217 
225 168 217 227 170 218 229 171 218 222 166 212 198 144 190 154 102 148 180 130 176 198 151 197 
207 161 207 218 161 212 224 161 215 226 162 216 225 161 216 223 159 213 219 155 209 215 151 205 
213 148 203 212 146 201 210 145 200 209 143 198 207 141 195 205 139 194 202 136 191 200 133 188 
196 128 185 193 125 181 189 121 177 186 117 173 182 113 169 177 108 164 172 103 159 169 98 155 
165 96 152 161 102 153 154 100 147 143 92 135 124 78 115 91 51 82 54 21 45 41 15 32 
29 9 20 20 5 11 13 2 4 10 1 1 10 2 1 15 5 5 22 7 7 29 8 9 
38 11 11 49 14 15 61 18 18 72 19 17 80 20 16 90 22 16 104 30 23 112 34 26 
115 38 30 109 46 38 104 43 36 103 40 33 114 49 43 107 39 32 101 30 21 113 39 27 
124 47 31 136 55 34 148 64 37 154 68 35 159 72 32 166 80 33 171 86 33 176 92 34 
180 98 35 184 104 37 188 110 39 193 117 43 197 123 45 198 126 47 195 124 46 190 120 43 
188 117 42 194 118 44 181 106 38 170 97 34 169 98 34 163 95 33 158 92 32 153 91 34 
147 89 35 137 84 34 124 75 29 109 65 24 99 60 23 98 63 28 95 64 32 96 69 40 
104 80 53 101 81 54 112 96 69 143 130 102 120 108 81 107 96 69 108 98 71 106 98 70 
109 96 66 115 90 57 116 91 58 117 91 58 116 89 57 112 84 52 108 78 47 102 72 42 
98 68 38 96 64 36 94 63 34 93 60 34 94 60 34 95 62 36 95 61 36 93 60 36 
90 59 34 87 55 31 83 52 27 78 49 23 76 46 21 73 44 19 71 44 18 70 43 18 
71 43 20 71 43 23 68 40 21 67 40 20 68 42 21 68 42 23 68 43 24 69 45 25 
71 47 29 67 45 27 62 42 24 64 45 28 63 45 30 61 44 31 62 48 36 62 48 39 
60 47 40 52 40 35 42 32 29 33 23 22 29 18 20 24 14 18 19 10 15 15 6 12 
15 3 13 17 1 15 22 1 14 30 4 13 41 7 13 53 11 14 63 13 13 73 15 12 
81 17 13 89 20 15 97 23 19 102 27 23 110 35 32 116 43 40 117 47 44 109 44 42 
99 39 36 88 32 28 78 26 20 73 25 17 78 33 22 80 37 24 80 39 24 78 38 23 
93 67 28 106 90 33 107 91 34 109 94 34 110 96 34 111 97 34 113 100 33 114 103 32 
117 105 32 120 109 32 122 112 33 124 114 34 133 123 37 140 129 39 145 132 41 151 136 45 
157 140 49 164 143 55 166 143 60 167 141 64 166 137 68 164 134 71 164 132 73 165 131 76 
176 115 90 183 107 99 184 108 102 189 113 110 193 118 118 198 123 124 200 126 128 200 129 129 
199 130 128 197 132 123 193 132 116 189 132 108 176 124 90 174 126 83 181 138 87 193 154 95 
201 167 102 207 177 107 207 182 108 206 184 109 204 185 109 206 188 114 208 191 117 209 194 119 
219 205 120 221 208 120 220 206 118 220 206 119 221 207 120 223 209 122 226 212 124 228 214 125 
229 216 124 230 217 122 231 218 120 231 218 118 231 218 116 231 218 115 232 218 115 233 218 117 
232 216 118 229 212 118 221 204 115 211 192 108 195 175 97 162 142 70 137 116 54 122 98 44 
129 98 44 137 104 45 148 116 51 168 138 68 183 154 79 198 171 89 220 195 105 231 207 110 
234 212 108 230 210 100 226 208 94 223 206 88 221 204 85 217 200 81 213 196 79 211 192 78 
210 189 80 206 183 82 196 170 79 180 151 71 162 130 60 139 106 45 102 66 25 72 34 7 
57 18 4 53 15 3 57 21 10 73 38 28 79 46 38 72 39 34 45 14 11 49 17 15 
56 24 22 63 31 28 
58 21 19 52 14 11 95 44 32 108 50 35 103 43 28 102 37 22 107 39 23 117 45 27 
132 55 33 145 63 38 155 70 41 160 75 40 164 79 38 165 83 37 165 87 36 165 92 37 
163 97 38 159 101 39 154 105 40 147 107 41 137 106 41 122 99 37 107 91 32 93 83 27 
83 78 24 70 73 22 41 69 21 35 69 22 35 69 22 34 69 22 34 70 23 34 71 25 
35 74 27 36 77 31 37 79 34 38 82 37 39 84 38 39 85 39 38 84 39 37 82 37 
36 80 35 34 78 32 33 76 31 33 75 30 33 74 29 31 70 26 30 68 23 28 67 20 
28 65 19 27 64 19 25 63 20 24 61 20 23 59 18 21 57 16 20 54 15 18 51 14 
17 49 11 15 45 10 14 43 9 15 41 10 15 40 11 13 36 10 7 27 4 6 24 5 
4 20 5 3 14 3 7 18 10 35 46 41 93 101 100 124 131 132 150 155 160 171 174 182 
176 178 188 180 183 192 183 190 195 180 187 192 176 184 188 172 179 183 168 175 180 162 169 174 
155 162 167 149 156 161 143 151 156 138 146 152 136 143 150 131 139 145 125 133 139 118 125 133 
111 117 126 103 109 118 94 100 109 87 93 103 81 87 97 80 85 96 79 84 95 74 80 90 
21 23 34 6 3 7 15 7 2 24 10 9 36 11 17 49 12 24 61 13 28 74 16 30 
87 19 31 93 21 28 96 22 23 98 24 19 113 42 35 115 48 44 110 49 50 108 51 60 
110 56 77 113 61 95 115 63 107 122 67 118 131 72 128 143 79 134 153 85 136 163 90 136 
169 93 137 176 90 129 179 83 119 173 75 111 163 63 96 155 53 83 157 52 80 161 55 79 
168 59 80 179 65 84 189 71 87 197 77 89 203 80 90 204 79 86 202 75 81 200 71 77 
196 67 71 193 63 66 190 60 62 187 57 59 183 54 57 179 51 53 173 46 47 168 42 42 
164 39 38 141 36 46 131 41 61 148 59 82 182 97 126 209 128 162 221 145 183 226 155 199 
228 161 210 225 162 213 224 163 217 222 163 219 220 161 219 220 162 218 221 162 218 222 162 216 
223 163 215 223 164 213 223 163 212 221 164 212 218 162 210 214 159 207 213 161 208 212 162 209 
211 162 210 215 157 210 218 154 209 218 153 209 217 152 208 216 151 207 215 150 206 213 148 204 
212 146 202 210 144 200 208 142 198 207 140 197 205 139 195 202 135 192 200 133 189 198 130 187 
194 126 183 191 122 179 187 119 175 185 115 171 181 111 166 177 107 162 172 102 158 169 98 154 
165 96 151 158 99 148 151 98 143 142 93 134 127 83 117 90 52 80 46 15 36 36 12 26 
26 7 16 16 3 7 12 2 3 11 3 1 12 4 2 15 6 4 19 6 6 26 6 8 
36 9 10 48 12 12 60 16 16 73 20 18 82 23 18 89 23 17 91 20 12 105 29 21 
118 40 33 111 46 39 106 44 36 105 42 35 119 54 46 112 43 34 104 32 21 113 38 24 
126 48 30 140 60 37 154 71 42 157 72 36 159 73 32 167 82 34 173 89 34 178 95 35 
183 103 37 187 108 38 191 114 41 196 120 44 199 125 46 200 128 47 197 127 47 193 124 45 
192 122 44 201 125 47 184 109 40 171 98 34 171 101 35 165 98 34 160 95 33 154 92 34 
147 90 34 138 85 34 125 77 30 111 67 26 99 60 23 90 56 23 80 49 20 83 56 29 
104 81 55 97 79 54 107 92 67 139 127 101 125 115 90 110 101 76 95 87 61 94 88 62 
100 90 61 112 92 58 112 92 58 112 91 58 113 90 57 108 84 53 102 77 47 94 68 39 
89 61 33 87 59 31 89 60 32 88 58 32 87 57 32 86 56 31 86 55 31 84 55 31 
82 54 29 80 52 27 76 49 25 72 46 22 67 42 18 62 38 15 57 34 10 54 32 8 
55 31 10 57 32 14 60 34 18 62 38 21 64 41 23 65 41 24 67 44 28 69 48 31 
66 47 30 56 38 22 49 33 17 84 70 54 97 84 70 100 88 76 108 96 87 111 100 92 
110 100 93 95 86 81 73 65 62 51 42 42 38 30 32 29 21 25 22 14 19 18 10 17 
15 5 14 14 1 13 20 2 14 30 5 14 41 10 14 51 12 14 62 14 13 72 16 13 
80 18 13 85 18 13 88 18 13 90 19 13 104 31 27 117 45 42 123 53 51 113 48 46 
101 41 39 92 36 33 80 27 23 75 26 19 88 41 32 87 43 31 84 41 28 83 40 27 
97 70 32 109 93 36 109 93 36 108 93 34 108 94 34 109 96 33 111 98 32 112 101 32 
114 103 31 117 107 31 119 109 32 120 111 32 130 119 35 137 126 38 140 128 39 145 130 42 
149 131 45 153 132 48 158 133 54 160 132 60 159 130 64 151 119 61 144 110 57 139 103 54 
146 79 63 152 69 71 157 74 76 164 82 84 172 90 92 181 100 100 185 105 104 186 108 105 
185 110 103 181 109 98 176 108 92 172 107 85 161 100 72 159 103 69 167 116 75 183 137 90 
197 156 102 208 172 112 211 179 113 209 182 112 206 183 109 207 186 110 209 189 111 210 192 112 
214 200 114 215 203 114 215 203 114 218 204 116 221 206 118 223 209 120 223 209 119 222 209 116 
222 207 113 224 209 111 228 213 111 230 216 111 225 211 102 224 209 99 224 210 99 225 211 100 
227 213 103 230 215 108 233 217 114 234 217 118 233 215 120 228 210 120 224 205 118 223 201 117 
225 198 115 228 199 114 230 202 114 231 205 115 234 208 114 235 211 112 235 212 107 234 213 104 
233 212 99 229 211 93 226 210 90 222 207 85 213 198 77 207 192 73 203 187 71 201 183 71 
200 181 73 196 175 75 186 162 71 174 147 65 161 133 60 148 118 53 102 70 28 65 31 6 
54 17 4 54 17 4 60 24 9 71 37 22 72 39 27 63 31 23 42 11 7 39 7 4 
44 12 10 58 26 23 
54 18 16 52 13 10 96 44 33 109 51 36 104 43 28 103 39 23 109 40 23 118 46 27 
133 56 33 145 64 37 155 72 40 162 77 39 166 81 38 168 84 36 166 86 34 165 90 34 
164 95 35 160 100 36 156 104 38 150 106 39 140 105 38 126 98 34 112 91 30 101 85 27 
92 79 23 78 74 20 45 70 19 38 69 19 38 69 20 38 70 21 38 71 22 38 72 24 
37 74 26 38 77 29 39 80 33 41 83 37 41 85 39 41 85 40 38 83 38 37 81 37 
35 78 35 34 76 33 33 74 31 32 73 30 31 71 28 30 69 26 29 67 23 28 65 22 
28 64 21 26 62 20 24 58 19 22 56 18 20 53 16 18 51 14 17 49 13 16 47 12 
17 46 12 16 44 11 15 42 11 15 40 11 15 38 12 13 34 11 8 27 7 7 25 8 
6 21 8 3 13 4 4 15 8 31 40 37 86 93 94 120 125 129 148 152 158 171 174 182 
176 178 188 180 183 192 184 191 195 182 189 194 179 186 191 175 182 186 169 176 181 162 170 175 
155 163 167 148 156 161 142 150 156 137 146 151 135 144 150 130 138 145 122 130 138 115 123 131 
108 115 124 100 106 116 92 98 108 85 91 100 78 84 94 79 84 95 77 82 93 69 73 83 
19 20 32 5 2 8 14 6 3 23 9 9 35 10 16 48 11 24 60 12 27 73 15 29 
87 19 31 93 21 27 95 21 21 97 23 19 116 44 38 118 51 46 112 51 51 110 53 61 
112 58 78 116 64 97 122 68 112 128 71 122 134 73 128 142 77 131 152 83 132 162 88 132 
168 91 133 174 87 125 177 79 114 170 71 105 160 60 91 154 51 79 157 52 78 165 57 80 
174 62 82 182 67 85 189 71 86 196 75 86 201 78 87 201 75 83 199 71 77 197 68 72 
194 64 67 190 60 63 187 57 60 185 55 57 182 52 55 178 49 51 172 45 46 167 41 42 
163 38 38 141 35 44 131 39 57 148 56 79 181 92 121 208 124 158 221 143 181 227 154 198 
229 160 209 226 162 213 223 161 215 221 160 217 221 161 219 221 161 218 221 161 217 222 161 216 
222 162 214 222 162 212 222 162 212 221 162 212 219 162 211 217 161 211 215 161 210 213 160 210 
211 160 209 215 155 209 217 152 209 217 151 209 217 151 208 216 150 206 214 148 205 213 147 203 
211 145 201 209 142 199 208 141 197 206 139 196 205 138 195 201 134 191 199 130 187 196 128 184 
193 124 181 189 121 177 186 117 173 183 113 169 179 109 164 175 105 160 171 100 156 167 97 152 
163 94 149 155 98 145 148 97 139 140 91 130 125 82 114 88 51 77 43 13 32 34 10 22 
24 7 14 15 3 6 11 2 2 10 3 1 11 4 1 14 6 4 19 6 5 24 6 7 
35 9 9 46 12 12 58 15 15 72 20 18 82 22 19 88 22 17 91 19 12 105 28 21 
118 41 33 113 48 40 107 45 37 107 42 34 120 54 45 113 44 34 105 33 21 113 39 24 
127 49 30 141 61 37 155 72 41 157 73 36 159 75 32 168 84 34 173 90 34 179 97 35 
184 105 37 188 111 39 192 116 41 197 123 45 200 128 47 201 131 48 198 130 47 194 127 45 
191 123 44 192 118 43 182 108 38 174 102 35 172 103 36 165 99 34 159 95 33 153 93 34 
145 90 35 135 84 34 122 75 30 108 66 26 97 59 24 90 57 25 67 39 15 63 38 18 
85 64 41 97 80 57 113 99 76 132 121 98 116 108 84 101 94 70 88 83 59 99 94 69 
106 97 70 109 92 60 109 91 59 109 90 59 110 90 59 106 85 55 100 77 48 92 67 39 
87 61 34 85 58 31 85 58 30 83 55 29 83 54 29 83 54 30 80 53 28 78 51 27 
75 49 25 73 47 24 70 45 22 66 44 21 63 42 19 61 40 17 58 38 16 56 36 15 
54 34 14 54 31 15 56 33 18 59 36 21 61 39 23 61 41 25 62 43 28 63 46 30 
63 47 31 55 41 26 50 37 23 77 65 51 90 80 67 96 87 77 105 97 88 111 103 95 
111 104 98 98 90 86 79 72 70 59 53 53 44 38 39 31 25 28 20 14 18 13 6 12 
10 2 11 11 1 11 17 2 12 26 4 12 36 7 11 46 9 11 58 12 11 69 15 12 
80 19 15 87 21 16 91 21 17 92 21 16 103 32 28 115 45 43 121 53 51 112 48 47 
101 41 39 93 37 34 81 29 23 76 28 19 91 44 33 90 45 33 87 44 30 86 43 28 
99 71 32 108 92 37 108 92 35 106 91 33 105 91 32 105 92 31 106 94 30 108 97 30 
111 101 30 114 105 31 117 108 31 119 110 32 128 118 35 135 124 38 137 125 38 143 128 42 
149 130 45 152 131 49 157 132 55 159 131 61 159 128 66 149 115 60 141 105 56 134 97 52 
146 76 63 155 67 72 158 70 74 164 78 80 171 85 85 178 93 90 182 99 92 184 103 92 
184 105 92 180 105 87 175 104 83 171 103 78 164 100 72 165 105 72 172 117 79 184 134 91 
196 152 102 207 169 111 209 175 111 208 178 107 205 179 103 209 186 105 211 191 106 213 195 107 
215 202 114 216 204 116 216 204 116 218 205 118 221 207 120 223 209 121 224 210 119 223 209 115 
222 207 111 224 209 108 228 212 108 230 215 107 225 211 97 224 209 93 223 208 92 223 209 91 
225 211 93 227 213 97 230 215 102 231 215 106 231 214 108 228 211 108 225 208 108 225 206 108 
231 208 109 234 209 110 234 210 109 235 211 108 236 213 107 235 213 104 233 212 100 231 211 95 
227 210 91 223 207 87 221 206 84 218 203 81 212 197 76 204 189 72 198 183 69 194 178 68 
192 175 70 187 168 70 176 155 65 167 144 62 158 132 58 146 120 52 105 77 29 71 41 9 
60 25 5 60 24 5 64 29 10 73 40 20 73 40 25 65 33 22 45 15 8 41 9 6 
44 11 9 54 22 19 
54 18 16 56 17 15 98 46 34 110 52 36 105 45 29 104 40 23 110 42 23 120 48 27 
133 57 33 146 66 37 156 73 39 163 78 38 168 82 37 170 86 36 169 89 35 169 93 34 
168 97 35 166 103 36 162 106 38 156 109 39 148 108 38 136 103 35 123 96 32 112 89 28 
103 84 25 88 78 21 53 71 18 44 69 17 43 69 17 42 69 19 41 69 20 40 70 21 
39 72 23 39 75 26 40 78 29 41 81 34 41 82 36 39 82 37 37 79 36 35 78 35 
34 76 34 32 73 33 31 71 31 30 69 29 28 67 27 28 65 25 27 64 23 27 63 22 
26 62 21 25 60 20 22 54 19 20 51 17 18 48 14 15 45 11 14 43 10 15 43 10 
15 42 12 15 41 12 14 39 11 13 36 10 13 34 11 11 30 10 7 24 6 7 23 9 
6 20 9 3 14 5 4 13 8 28 35 34 79 85 87 114 118 123 144 147 154 168 171 180 
174 175 186 178 182 191 183 190 195 181 188 194 178 185 191 174 181 186 167 174 181 160 167 174 
152 161 165 144 153 159 138 147 153 131 141 147 129 138 145 124 133 140 116 125 133 110 118 126 
103 110 119 95 101 111 88 95 104 81 87 97 75 80 90 75 79 90 70 74 85 59 62 73 
19 20 31 7 5 10 14 6 4 22 8 8 33 9 15 46 9 23 59 11 26 73 15 29 
87 19 30 92 20 26 94 20 20 97 23 18 119 46 40 121 53 48 114 52 51 111 54 60 
111 57 75 114 62 93 124 70 112 129 72 121 134 73 125 140 75 126 149 79 126 158 84 126 
166 88 127 172 83 119 174 74 107 165 65 96 158 56 85 154 51 77 159 53 77 168 59 80 
178 65 84 184 68 84 189 70 83 193 71 82 197 72 81 196 69 76 194 66 71 192 63 66 
189 59 62 186 56 59 184 54 56 182 52 54 179 50 52 176 47 49 170 44 45 165 40 41 
162 38 38 140 34 42 131 37 53 147 53 74 177 87 114 204 118 150 220 140 178 227 152 196 
228 159 207 225 160 211 222 159 214 220 158 216 221 160 219 220 159 217 220 159 216 221 159 215 
222 160 213 222 160 212 222 160 211 221 160 211 219 160 211 217 159 211 215 159 210 213 158 209 
212 158 209 214 153 208 216 150 208 217 150 209 217 149 207 215 148 206 214 146 204 212 144 202 
210 142 200 208 140 198 206 139 197 205 138 195 204 136 194 200 132 189 197 128 185 194 126 182 
190 122 179 187 118 175 183 115 171 180 111 166 177 107 162 172 103 158 168 98 153 164 94 150 
160 92 146 152 96 141 145 95 135 136 89 127 121 79 110 84 48 72 39 10 27 31 7 19 
22 5 12 15 3 5 10 3 2 9 3 1 9 4 1 13 5 3 18 6 5 23 5 6 
35 9 9 46 12 12 57 15 15 70 19 18 80 22 19 88 22 18 90 19 13 104 28 22 
118 41 35 116 51 42 110 47 37 108 43 33 121 53 44 113 44 33 106 34 22 115 40 24 
128 50 30 142 62 37 156 73 40 158 75 36 160 77 32 168 85 34 174 92 35 180 99 36 
185 106 38 189 113 40 193 119 42 198 126 46 201 131 48 202 134 49 200 133 49 195 130 47 
191 124 44 187 116 41 180 109 38 174 105 36 172 105 36 164 99 34 156 95 33 150 93 35 
143 89 35 133 83 34 118 74 30 105 65 26 98 63 28 100 70 39 87 61 39 92 69 51 
120 102 79 134 119 97 140 128 107 136 127 106 120 113 92 106 101 79 94 91 68 101 98 75 
105 99 73 107 92 61 106 90 60 106 89 59 107 90 60 105 86 56 99 78 49 88 65 37 
84 60 33 82 56 29 79 53 26 76 50 23 75 48 23 76 49 25 73 47 23 69 44 21 
67 42 19 64 40 18 62 39 17 59 38 17 57 37 16 55 36 16 54 35 16 52 34 15 
51 32 14 50 29 15 52 30 17 54 33 19 56 37 22 58 40 25 60 44 29 61 47 32 
62 49 34 63 52 38 68 58 45 84 75 63 92 84 73 97 90 81 105 99 91 112 107 100 
116 111 106 105 100 96 92 87 85 76 72 71 56 52 53 38 34 36 23 18 21 11 6 11 
8 2 9 10 2 11 15 4 12 23 5 10 32 6 9 42 8 9 54 11 9 65 14 11 
77 19 15 85 22 17 90 23 18 90 21 17 102 32 29 114 45 44 120 53 52 111 48 46 
100 41 39 93 38 34 82 30 23 78 29 20 93 46 33 93 48 33 91 48 30 91 48 29 
100 72 33 108 91 36 106 90 34 104 89 32 102 88 30 101 88 28 102 90 27 104 93 28 
108 98 29 111 103 30 115 107 31 118 110 32 127 117 35 133 122 37 135 123 38 142 127 42 
147 129 45 152 130 50 157 131 57 159 129 62 157 124 65 141 105 54 130 92 46 126 86 44 
142 70 57 153 64 66 156 67 68 162 73 71 166 78 73 169 83 74 173 89 74 176 93 75 
177 96 75 174 97 73 170 97 70 166 96 66 161 95 64 165 102 68 175 117 78 186 133 90 
197 150 100 208 167 109 209 173 107 207 176 102 204 177 96 209 186 98 212 191 99 214 195 100 
215 201 113 215 203 118 215 202 117 216 204 118 219 206 120 222 208 120 223 209 118 223 208 114 
222 206 109 224 208 106 227 211 104 229 214 102 226 211 94 224 209 89 224 208 87 223 209 86 
224 210 87 226 212 90 229 214 93 229 214 96 229 213 98 226 210 98 224 208 98 224 207 98 
231 210 100 233 211 101 233 211 101 234 212 99 233 213 98 232 212 96 229 210 91 225 208 87 
221 205 83 217 201 80 214 199 78 211 197 76 209 194 75 201 187 71 193 179 68 188 173 66 
184 168 66 178 160 65 166 147 59 159 139 57 153 131 56 145 123 52 118 95 37 94 68 24 
83 50 20 78 44 16 76 42 16 79 46 22 78 46 26 70 39 25 53 23 15 48 16 12 
48 15 13 53 21 17 
59 22 21 65 26 24 101 49 37 111 53 37 106 46 30 105 42 24 110 44 24 121 49 27 
135 59 33 147 67 36 157 74 38 165 80 38 169 84 37 172 88 36 176 96 38 178 101 38 
177 105 38 176 111 40 172 114 41 167 116 42 162 118 43 152 114 41 139 108 37 126 98 32 
117 92 28 101 84 23 63 73 17 51 69 15 48 67 14 43 63 13 40 62 13 38 63 13 
39 66 17 38 68 20 37 70 23 37 73 26 36 73 29 35 73 30 34 72 31 33 72 32 
32 71 32 30 69 31 28 66 29 26 63 26 25 61 24 23 59 23 23 57 21 23 57 20 
23 57 20 22 55 19 21 50 18 20 48 16 17 44 14 12 39 8 12 38 8 13 37 8 
13 38 10 13 36 10 12 34 10 10 30 8 8 27 7 6 23 5 3 16 2 5 18 6 
5 18 9 4 15 8 5 14 11 26 33 34 70 77 79 105 109 115 135 138 147 161 163 173 
168 170 181 174 177 187 179 186 192 175 182 190 171 179 187 167 176 181 160 168 176 152 161 168 
144 154 159 135 146 152 128 138 145 120 130 137 115 125 133 110 120 128 105 115 122 101 109 117 
95 102 110 86 93 102 82 88 97 76 82 91 69 74 84 64 68 78 57 59 70 45 47 58 
21 22 33 12 10 15 14 5 4 21 7 7 31 6 13 43 6 20 57 10 25 72 15 28 
86 19 29 91 19 24 92 19 18 96 22 16 122 49 42 125 56 50 116 53 50 111 52 58 
107 51 69 106 53 83 119 65 105 126 69 115 132 70 120 137 71 120 145 73 118 153 77 116 
162 83 120 167 77 111 169 67 98 159 57 86 156 53 79 156 51 76 161 53 75 171 60 79 
181 67 84 184 68 82 186 67 79 188 66 76 190 64 72 188 62 67 187 59 63 185 56 59 
182 53 56 180 51 53 178 50 51 177 49 50 175 47 49 173 45 47 168 42 44 164 39 40 
160 36 37 139 32 38 130 34 48 145 50 68 171 79 104 196 109 139 216 136 172 224 149 192 
227 157 205 223 158 210 222 157 212 220 157 215 220 157 218 219 157 216 219 157 215 221 157 214 
222 157 213 222 157 211 221 157 211 221 157 211 219 157 210 217 156 209 216 156 208 214 155 208 
212 155 209 214 151 208 216 148 208 217 148 208 216 147 207 215 146 205 213 144 203 211 142 201 
209 140 199 207 138 197 205 136 195 204 135 194 203 134 193 198 129 187 194 126 182 191 123 180 
187 119 176 184 115 172 180 112 168 177 109 164 173 105 159 168 100 155 164 95 150 160 92 146 
157 90 143 149 93 136 141 91 130 132 86 122 116 75 104 79 43 66 35 5 22 26 4 14 
20 3 9 15 4 6 11 3 2 9 3 1 8 3 1 12 5 3 17 5 5 23 5 6 
35 8 10 45 11 13 56 13 15 69 18 17 79 21 19 87 22 19 89 19 14 103 28 23 
119 42 36 120 54 45 113 49 38 109 43 32 121 53 42 114 44 32 107 35 22 116 42 25 
128 51 31 142 62 36 156 74 41 160 77 37 163 79 33 170 86 34 176 94 35 181 101 36 
185 108 38 190 115 41 194 122 43 198 129 47 202 135 50 203 138 51 201 137 50 196 133 48 
191 128 46 189 122 44 179 112 39 171 105 36 170 107 37 161 100 35 153 94 33 147 92 34 
139 89 35 129 82 34 114 72 30 104 66 29 105 72 38 123 94 65 148 125 99 181 162 138 
223 207 185 216 202 182 193 182 163 154 148 129 142 137 117 129 126 106 115 113 93 100 98 78 
96 91 67 105 93 62 104 89 60 103 88 59 104 89 59 105 88 58 98 79 49 82 61 33 
80 57 29 76 52 25 71 46 20 66 40 15 64 38 13 64 39 15 62 37 13 59 34 12 
56 32 10 54 30 9 52 30 9 50 30 10 47 29 9 45 27 8 42 25 7 41 24 5 
42 25 8 45 26 12 46 28 14 49 31 17 52 35 20 56 40 25 60 46 32 64 52 38 
64 53 41 82 72 61 106 98 87 110 103 93 109 103 93 107 102 93 112 108 99 120 117 110 
128 125 119 121 119 114 115 113 110 105 102 101 77 73 74 52 49 50 31 28 29 14 10 13 
9 5 10 10 6 12 15 7 13 22 7 11 30 7 8 39 8 8 50 11 8 60 14 10 
71 17 12 78 19 14 83 19 15 83 17 13 98 31 29 113 47 46 118 54 54 109 48 46 
99 42 37 93 39 33 83 32 23 80 32 20 95 48 32 96 51 32 94 52 30 96 54 29 
102 75 32 106 90 35 104 88 33 101 86 30 99 85 27 97 84 25 98 86 25 100 89 25 
103 94 27 108 100 29 112 105 30 117 109 32 124 115 35 130 120 37 134 122 39 140 125 42 
146 127 46 151 129 51 157 130 59 158 127 63 153 118 62 124 87 39 109 69 28 109 67 29 
130 57 41 144 55 51 150 60 56 153 65 56 155 67 54 154 69 50 158 72 50 161 77 51 
163 83 52 162 84 52 159 84 50 154 83 48 149 82 46 156 92 54 172 113 71 186 133 85 
198 151 97 210 167 106 211 175 104 209 178 98 205 179 90 208 185 90 210 189 89 211 192 90 
211 198 109 211 199 117 211 198 116 213 200 117 216 202 118 219 205 118 220 206 116 220 205 112 
220 204 107 221 205 103 224 208 100 227 211 97 226 210 91 225 210 87 225 210 85 225 210 84 
226 211 84 227 213 86 230 216 89 231 216 91 230 215 93 229 213 94 228 211 94 227 210 93 
231 211 93 232 212 93 231 212 93 230 211 92 229 211 90 226 210 88 223 206 83 218 202 80 
213 198 76 208 193 73 205 190 72 202 189 72 202 188 73 196 182 71 189 175 68 183 168 66 
177 161 64 168 151 60 154 137 53 150 132 52 148 130 53 148 129 55 144 125 54 138 115 51 
127 95 47 110 77 35 97 65 27 90 59 28 87 56 31 80 49 32 67 37 26 60 29 23 
56 24 20 53 22 16 
65 28 27 74 35 32 104 52 40 112 54 38 107 47 31 106 44 25 112 45 25 122 51 29 
135 61 33 147 68 36 157 75 38 165 81 38 170 86 37 174 90 36 178 96 37 179 101 37 
179 106 38 178 111 39 176 115 41 173 118 42 166 119 42 157 116 41 147 111 38 136 103 34 
128 98 31 116 93 28 86 87 26 70 77 21 59 68 15 50 61 13 44 58 11 40 57 11 
37 58 12 35 58 13 33 59 15 30 60 16 28 60 18 28 61 20 28 62 22 27 62 24 
25 60 24 24 58 23 22 57 22 21 55 21 20 53 20 20 52 20 20 51 19 19 50 18 
18 49 16 18 47 16 19 44 16 18 42 15 16 40 13 13 37 10 13 36 9 13 35 10 
14 35 11 13 33 10 11 30 8 7 26 6 5 22 4 4 17 2 2 12 1 8 20 10 
14 26 17 19 29 22 23 31 29 42 49 50 79 85 88 107 111 117 132 135 144 153 156 166 
159 161 172 164 167 178 169 175 184 166 173 182 162 169 179 158 166 174 151 159 167 143 151 160 
134 144 152 125 135 143 116 126 134 108 118 125 103 114 121 98 109 116 93 103 110 89 98 106 
82 89 98 72 79 88 69 76 85 66 71 81 62 66 76 53 56 65 43 45 54 32 32 42 
16 17 27 11 8 13 14 5 3 18 4 5 28 4 10 42 5 18 56 9 24 72 15 27 
86 19 28 91 19 23 92 18 16 95 22 15 125 52 44 127 59 51 117 54 50 111 53 56 
107 52 67 107 54 83 118 64 101 126 68 112 132 70 117 134 68 114 140 68 110 146 70 107 
153 75 108 156 65 96 157 54 81 155 51 76 155 50 73 157 50 72 164 54 74 173 60 78 
181 65 80 184 65 78 184 63 73 183 59 68 181 55 61 181 54 58 181 53 55 179 50 51 
176 48 49 174 46 47 174 46 47 173 45 46 172 44 45 170 42 44 166 40 41 162 38 38 
159 35 36 138 31 35 128 32 43 142 46 62 163 70 92 186 97 127 212 129 165 221 145 187 
225 153 202 222 154 207 219 154 210 218 154 213 219 156 216 219 156 215 219 155 214 220 155 214 
221 155 212 221 155 210 222 155 209 221 155 209 219 155 209 217 154 209 216 153 207 215 153 207 
214 153 207 214 148 206 214 146 206 214 145 206 214 145 205 212 143 203 210 141 201 208 139 199 
206 137 197 204 135 195 202 133 193 201 132 191 200 131 190 195 126 184 191 123 180 189 120 177 
185 116 173 181 113 169 178 109 166 174 106 161 170 102 157 166 97 152 160 93 147 157 90 144 
155 87 141 146 89 133 137 86 124 126 78 114 111 68 97 75 39 61 32 3 18 24 2 11 
19 2 8 15 4 6 12 4 3 9 4 1 8 3 1 12 5 3 17 5 5 23 5 7 
33 8 11 44 10 13 55 13 16 68 18 18 78 20 19 85 20 18 87 18 14 102 28 23 
119 42 38 124 58 47 117 52 39 110 44 32 121 53 40 115 45 32 109 36 23 119 43 26 
130 52 31 142 62 35 157 74 40 161 79 37 164 82 35 170 88 35 175 95 35 180 102 37 
185 110 39 190 117 41 194 124 44 198 131 48 201 136 50 202 139 52 198 138 50 194 134 48 
191 131 47 193 130 49 182 120 44 172 111 39 165 106 37 156 98 34 147 92 32 140 90 33 
133 86 35 125 82 36 115 75 35 111 76 40 120 90 58 147 121 94 166 145 121 193 175 154 
228 213 195 223 212 193 208 199 181 183 178 160 154 150 132 129 127 108 109 108 89 91 90 71 
89 85 62 105 92 63 102 89 60 103 88 59 105 90 61 105 88 59 99 79 50 85 64 35 
80 57 29 75 50 24 70 44 18 63 36 11 56 29 7 49 22 6 48 21 6 46 20 5 
44 19 4 44 19 4 43 20 5 42 21 5 40 20 4 37 18 4 33 15 3 30 12 2 
32 16 4 38 22 7 41 24 10 43 28 13 46 31 17 53 38 24 61 49 35 70 60 47 
73 64 52 94 86 74 117 112 100 105 100 90 90 86 76 80 77 67 100 98 89 118 117 109 
131 130 124 130 129 124 124 123 119 114 112 109 94 92 90 71 70 68 48 46 45 26 22 23 
13 12 13 7 7 10 12 8 9 19 8 8 26 7 6 35 7 5 45 9 6 56 13 8 
67 16 11 74 17 13 79 18 14 80 17 13 98 33 31 115 50 50 118 56 55 109 50 47 
99 43 38 94 42 33 84 35 22 81 35 18 95 50 29 97 54 29 97 56 28 99 59 28 
102 76 31 104 88 32 102 86 31 99 84 28 97 83 26 96 83 25 96 85 25 98 88 26 
101 93 27 106 98 28 110 102 29 114 105 30 121 111 34 127 116 36 131 118 38 137 121 41 
144 124 46 150 128 52 155 128 59 153 122 60 143 107 53 107 69 29 90 49 17 93 50 18 
117 45 29 132 45 37 137 50 40 141 54 41 141 56 39 139 55 35 141 58 33 144 62 34 
148 68 37 146 69 36 142 68 34 136 65 30 136 69 32 146 84 42 165 107 61 182 130 78 
197 151 91 209 167 100 210 175 98 208 178 93 204 178 85 205 184 83 205 187 82 206 189 84 
203 190 103 201 189 111 202 189 110 205 192 112 209 196 114 214 199 115 216 201 113 216 200 110 
216 199 105 217 200 99 220 203 96 223 206 94 223 206 88 223 206 85 223 207 82 223 208 81 
224 209 81 225 210 82 227 213 85 228 213 87 227 213 89 227 212 90 225 210 90 224 208 89 
225 207 88 225 207 87 224 206 87 223 206 86 221 204 84 217 201 81 214 198 78 208 193 74 
202 188 71 198 183 68 195 181 68 192 178 68 188 174 67 184 169 66 179 164 64 172 158 62 
166 151 60 156 141 55 137 122 43 135 120 43 139 123 48 148 132 57 155 139 64 158 138 69 
155 125 69 144 112 62 125 94 49 98 68 32 90 59 31 83 52 31 72 43 29 65 34 25 
59 27 21 54 22 16 
68 31 30 79 39 37 105 54 42 113 55 40 109 49 33 108 45 27 114 47 27 123 53 30 
136 62 33 147 69 36 157 76 37 165 83 37 171 88 37 176 93 37 179 97 37 181 102 37 
181 107 37 180 112 39 180 117 41 177 121 42 172 122 43 164 120 42 156 115 39 145 109 36 
138 104 33 128 99 31 106 96 31 90 86 26 78 75 20 67 67 16 58 62 14 50 58 12 
42 54 10 36 52 9 31 50 8 27 50 8 25 51 10 24 52 13 24 54 16 23 53 18 
21 51 18 18 49 17 17 48 17 16 46 17 16 45 16 17 46 17 18 46 18 16 44 16 
14 41 14 13 39 13 15 37 14 14 35 13 13 34 11 11 32 10 12 32 10 12 32 10 
12 31 10 11 29 9 9 27 7 6 23 4 6 21 4 7 19 6 10 19 10 22 32 23 
34 45 37 47 57 51 52 60 58 69 76 77 100 107 109 119 124 130 135 139 148 149 152 162 
152 154 165 155 158 170 159 165 177 156 162 174 152 159 170 147 155 165 140 148 157 132 140 150 
123 133 142 113 123 131 104 114 122 96 106 114 92 102 110 87 97 105 82 92 99 81 89 98 
73 81 89 60 68 76 59 65 74 57 62 71 53 56 66 42 44 53 31 33 41 22 22 30 
12 12 21 11 8 11 14 6 3 17 3 4 27 2 8 40 4 16 56 9 23 72 15 27 
86 19 28 91 18 22 92 18 15 95 22 14 128 55 45 130 62 52 118 55 49 112 53 55 
108 53 66 107 54 80 115 61 96 123 65 107 129 67 112 132 65 109 134 62 102 136 60 94 
137 60 90 143 52 78 149 45 67 152 46 67 155 48 68 159 50 69 167 55 72 174 59 74 
179 62 74 182 62 71 181 58 66 178 54 59 175 50 53 175 49 50 176 48 48 174 46 44 
172 44 42 170 43 41 171 42 41 170 42 42 169 42 42 168 41 42 164 39 39 160 36 37 
157 34 34 136 30 33 126 30 38 137 42 55 152 59 80 175 86 114 210 127 161 219 142 184 
222 150 198 220 151 204 217 150 207 215 151 211 217 153 214 218 153 214 218 153 213 219 153 212 
219 152 211 220 152 209 221 153 208 220 152 208 219 152 207 218 151 208 216 150 206 215 150 206 
214 150 206 213 145 205 212 143 204 211 142 203 210 142 203 209 140 201 207 138 199 205 136 196 
203 134 194 201 132 192 199 130 190 197 129 188 196 127 186 191 123 181 188 120 177 186 118 174 
181 114 170 178 110 166 175 107 163 170 104 159 166 100 154 163 95 149 157 91 145 154 87 141 
151 84 137 143 85 129 132 80 118 120 70 105 105 61 90 71 34 56 31 2 16 23 1 10 
19 2 7 16 4 6 13 5 4 10 4 2 8 3 1 12 5 4 17 5 5 23 6 7 
32 8 11 43 10 14 54 13 16 67 18 19 77 20 20 84 20 19 87 18 14 102 28 24 
119 43 39 128 61 49 120 54 41 111 44 31 121 53 38 116 45 31 112 38 23 122 46 27 
131 53 31 142 62 34 156 74 39 161 80 38 165 84 36 170 89 35 174 96 36 180 103 37 
185 112 40 189 119 42 193 126 45 197 133 48 199 137 50 199 140 51 195 138 50 191 134 47 
188 131 47 190 132 51 180 123 46 169 112 40 159 104 36 148 96 33 140 90 31 134 87 32 
127 85 34 121 82 37 115 78 39 129 97 63 147 119 90 166 143 118 172 153 132 186 170 152 
211 198 182 208 198 182 205 199 183 206 202 186 165 163 146 133 132 115 113 113 95 97 97 79 
94 90 68 104 92 63 102 89 60 102 88 59 105 90 60 106 88 60 102 82 54 94 72 43 
88 64 37 82 57 30 77 49 23 66 37 13 56 26 6 47 17 3 45 16 3 43 15 3 
41 14 2 42 15 3 42 17 3 42 19 4 41 19 5 38 17 5 33 13 4 30 11 3 
30 13 3 33 18 4 38 23 8 41 27 13 44 31 17 50 37 23 63 53 39 80 71 58 
82 74 63 96 90 78 109 106 93 83 81 70 63 62 51 53 53 42 79 79 69 107 107 99 
131 131 124 133 132 127 127 127 122 117 117 112 98 97 93 77 76 73 56 55 52 35 33 31 
17 17 16 4 7 6 8 7 6 15 8 5 23 8 5 32 7 4 41 9 5 52 12 6 
63 15 10 71 17 13 76 18 14 78 18 15 98 35 34 116 54 54 119 59 58 109 52 48 
98 45 37 94 44 32 85 38 20 82 37 16 95 52 26 97 56 25 99 59 25 102 63 27 
102 77 29 102 86 30 101 85 29 99 84 27 97 83 26 96 83 26 96 85 26 98 88 26 
100 92 27 104 96 28 107 99 29 111 102 29 116 107 32 122 111 35 127 113 37 134 117 41 
142 121 46 149 126 53 154 126 60 151 118 59 138 102 50 99 60 24 79 37 9 82 39 10 
106 36 20 121 37 26 125 41 29 130 46 31 131 48 31 129 47 28 130 49 26 132 52 26 
136 57 29 133 57 27 128 56 24 122 52 19 124 58 23 136 75 33 158 102 52 178 128 69 
193 149 83 206 167 93 207 175 92 205 178 87 200 177 80 200 182 78 200 185 78 200 186 79 
195 183 99 193 182 107 195 182 108 199 187 111 205 191 114 210 195 115 212 196 112 212 196 108 
212 194 102 213 195 97 215 198 93 219 201 90 218 201 85 218 201 81 218 201 79 218 202 78 
218 203 77 218 203 78 219 205 80 219 205 81 218 204 81 218 203 83 216 201 83 215 199 82 
215 198 81 214 197 80 213 197 79 212 195 78 209 193 76 205 190 74 201 186 71 195 181 67 
189 175 65 185 170 63 182 168 63 179 164 62 173 158 60 169 154 60 163 149 58 150 137 51 
145 131 49 137 123 45 120 106 34 121 108 36 129 115 42 142 130 54 157 146 69 170 154 80 
178 149 86 169 138 81 148 118 67 109 79 38 93 63 31 82 52 28 73 44 27 65 35 24 
59 28 20 55 23 15 
68 30 29 79 38 36 106 54 43 114 56 41 110 50 35 110 47 30 115 49 29 125 54 31 
137 63 34 148 70 36 157 77 36 166 84 37 172 90 37 178 95 37 182 101 37 183 105 37 
183 109 38 185 116 40 184 121 41 182 125 43 179 127 44 174 125 44 166 122 42 155 115 39 
148 109 35 138 103 32 119 97 31 111 94 30 105 90 28 94 83 24 82 75 20 69 66 16 
55 57 12 43 49 9 34 44 7 30 45 7 27 46 7 25 47 8 23 47 12 21 46 14 
19 45 14 16 43 14 13 39 13 11 37 12 11 37 13 14 39 16 16 40 17 14 39 16 
11 35 13 9 31 11 9 28 9 8 26 8 8 25 7 9 26 8 9 26 9 10 26 9 
9 26 7 8 24 6 7 22 5 6 21 4 10 24 8 17 30 16 28 40 28 47 58 49 
69 78 72 92 101 97 94 102 101 107 114 115 135 141 144 143 149 154 147 152 160 147 153 162 
146 150 160 147 151 163 150 155 170 146 151 166 141 147 161 135 143 154 128 136 147 119 128 139 
109 119 130 99 109 119 91 101 110 84 95 103 80 91 99 76 86 94 72 82 90 76 85 93 
68 76 84 52 61 66 51 57 64 48 52 60 42 45 54 32 34 42 23 24 31 15 15 22 
10 9 17 11 8 10 16 8 4 18 4 4 27 3 8 40 3 15 56 9 22 72 15 26 
87 20 28 92 19 22 92 18 15 96 22 14 129 56 46 131 63 53 119 56 49 114 55 55 
108 52 64 105 51 75 110 55 88 117 58 97 124 61 103 129 63 104 128 56 93 122 47 78 
115 38 65 129 37 59 146 40 57 150 42 59 156 47 63 163 52 67 169 55 68 174 57 68 
177 58 67 178 57 63 176 53 57 174 49 51 173 47 47 172 45 44 171 44 41 171 42 38 
169 40 37 168 40 36 168 40 36 168 40 38 167 40 39 167 39 39 163 37 37 159 35 35 
156 33 32 135 29 31 123 28 35 130 36 47 140 48 67 164 75 103 212 128 163 220 141 183 
220 146 195 217 147 200 215 147 205 213 148 209 214 149 212 215 150 212 217 151 211 217 151 210 
219 150 209 220 150 208 220 150 208 219 149 207 219 149 206 218 148 205 216 147 204 215 146 204 
214 145 204 211 141 203 209 139 202 208 138 201 206 138 200 204 137 199 202 135 197 201 133 194 
198 131 191 196 129 188 194 127 186 192 125 184 191 124 182 187 120 177 184 117 174 182 115 171 
178 111 167 174 107 164 171 104 160 167 101 156 163 97 151 159 93 147 154 88 142 150 84 138 
147 81 134 138 80 123 126 73 111 112 62 97 98 53 82 67 29 50 31 2 15 24 1 9 
20 3 7 17 5 7 14 6 4 10 4 2 8 2 1 13 5 4 18 6 6 23 6 8 
32 7 11 42 10 13 52 13 16 65 17 19 76 20 21 85 22 21 87 19 16 102 29 26 
119 45 40 131 64 51 122 56 41 112 44 30 122 52 37 118 46 30 115 40 23 125 48 29 
133 54 31 143 62 34 154 74 38 161 81 38 166 86 37 170 90 35 175 97 36 180 105 38 
184 113 40 188 120 42 191 127 45 194 133 48 196 137 50 195 139 50 191 138 49 186 133 46 
182 128 45 179 127 47 171 119 44 162 110 40 151 101 35 140 93 31 132 87 30 126 85 31 
122 83 35 117 82 39 112 80 42 159 131 98 187 162 136 180 160 138 166 150 132 163 149 133 
173 163 148 170 162 149 185 180 167 223 220 205 177 176 160 144 145 129 132 132 116 120 121 105 
111 107 87 103 91 62 101 89 59 101 88 58 104 88 59 108 89 61 110 88 60 109 86 57 
106 80 52 100 72 45 91 61 35 75 43 20 65 32 10 59 27 5 55 23 4 51 21 4 
48 19 3 48 20 3 49 22 5 50 25 9 50 26 11 48 25 12 46 23 11 43 20 9 
37 17 5 30 16 3 37 23 8 42 29 15 46 34 20 47 36 22 67 58 44 94 87 73 
91 85 72 88 85 72 81 79 66 45 44 33 30 30 19 29 31 20 48 50 40 87 88 79 
126 126 119 127 128 120 124 125 119 115 116 111 87 86 81 68 67 62 53 53 48 42 41 36 
20 22 17 2 5 1 4 6 1 11 7 2 20 9 3 30 9 5 39 9 5 48 10 6 
60 14 10 68 17 14 74 19 16 76 19 17 97 38 38 117 58 58 120 62 60 109 55 49 
98 47 36 94 47 31 85 40 19 82 39 12 94 54 22 98 58 22 100 61 22 104 67 25 
102 77 27 101 84 28 100 84 28 99 84 27 98 84 27 97 84 27 98 86 27 98 89 28 
100 92 28 102 95 29 104 97 29 106 98 28 111 102 30 116 105 32 123 109 35 131 113 40 
139 118 46 147 123 52 152 124 60 150 118 61 140 103 52 101 60 25 79 36 9 78 34 8 
97 30 14 110 31 18 115 36 23 121 42 27 124 45 29 125 46 30 126 48 29 127 49 28 
128 51 28 124 51 24 119 49 20 114 46 16 112 48 16 125 67 27 152 99 45 171 125 60 
187 146 73 200 165 84 202 173 85 199 176 81 194 175 76 194 179 75 194 182 75 194 183 77 
188 178 96 188 177 106 191 179 109 198 185 113 203 189 116 208 193 118 209 193 114 209 191 107 
207 189 100 208 190 95 210 192 91 213 195 88 212 194 82 212 194 78 212 193 75 209 192 72 
208 192 71 208 192 72 207 192 72 205 190 72 202 187 71 200 186 72 199 184 72 198 183 71 
200 184 72 200 183 71 198 182 70 196 180 68 194 178 67 190 175 66 185 169 63 179 164 60 
174 160 58 170 154 57 166 151 56 162 147 55 156 141 54 152 138 54 143 129 49 118 105 33 
113 100 30 110 97 29 101 89 25 107 96 29 117 107 35 128 120 45 152 144 66 176 163 85 
194 166 95 186 156 92 164 134 77 122 94 47 96 68 30 77 49 21 68 39 20 61 31 18 
57 25 16 54 23 14 
68 30 28 78 37 35 106 54 42 114 56 42 110 51 36 110 48 30 115 50 30 125 55 31 
136 63 34 147 71 35 157 78 36 165 84 36 172 90 37 179 97 37 185 104 38 187 109 39 
188 113 40 190 120 42 190 125 44 189 130 46 186 132 47 182 131 47 176 129 46 167 124 43 
161 120 41 153 114 39 133 102 34 124 95 31 117 91 29 108 86 26 98 81 24 88 75 21 
73 65 16 59 56 12 47 50 9 39 47 8 36 48 10 33 49 13 28 47 13 25 45 15 
22 43 16 17 40 14 13 35 12 9 32 10 8 30 9 11 32 13 13 34 15 13 33 15 
11 31 13 9 28 10 8 24 9 8 23 9 9 23 9 10 24 10 12 25 11 15 28 13 
20 33 18 26 40 25 33 46 31 40 52 38 52 64 51 62 73 61 67 78 68 99 110 101 
128 137 131 149 158 154 148 156 155 151 158 160 161 167 170 161 167 172 158 163 170 149 155 163 
144 149 158 140 145 157 139 144 160 136 141 157 131 137 152 124 131 146 116 124 137 108 116 129 
98 109 120 90 101 111 82 93 103 75 86 96 72 83 92 68 79 87 65 76 83 68 78 85 
61 69 77 46 54 60 43 49 55 38 43 49 33 36 43 23 25 31 17 17 23 12 11 18 
8 7 13 10 7 8 16 8 4 18 4 4 27 3 8 40 4 16 57 10 23 73 16 27 
87 20 28 92 20 23 93 20 16 97 24 14 129 56 45 131 62 52 119 55 48 112 53 53 
107 51 61 103 50 72 108 53 84 114 55 92 121 58 98 129 62 100 128 56 90 123 47 75 
117 40 65 130 37 56 145 38 51 151 42 55 158 47 59 165 51 62 170 53 63 173 54 62 
174 53 59 174 51 54 173 49 49 172 46 45 171 44 41 171 43 39 171 43 37 169 41 35 
168 39 34 166 38 34 166 38 34 166 39 35 166 39 36 165 38 36 162 36 35 159 34 33 
156 33 31 136 28 30 123 27 34 127 32 43 129 37 55 150 61 87 205 121 154 214 136 177 
216 142 190 214 143 197 211 143 201 209 143 204 210 145 208 212 146 208 213 146 208 214 146 208 
216 146 206 218 146 205 218 145 204 217 145 203 217 144 203 216 143 202 214 143 202 213 142 201 
212 141 201 208 138 200 205 135 199 205 135 198 203 135 197 201 133 196 199 131 194 197 130 190 
194 128 187 192 125 184 190 123 182 188 121 181 187 120 179 183 116 175 180 113 171 178 111 167 
174 108 164 170 104 160 166 101 157 163 97 152 159 94 148 155 89 143 150 85 138 146 81 135 
143 78 131 134 76 120 120 65 104 101 50 85 89 43 72 65 26 48 37 5 21 26 2 11 
21 3 8 19 5 7 16 6 6 13 6 4 11 4 3 14 6 6 18 7 8 24 7 10 
33 8 12 42 10 15 52 13 17 65 17 21 76 20 22 84 21 22 86 19 17 101 29 27 
120 46 42 133 66 53 123 56 41 111 43 28 121 51 35 119 47 30 117 43 25 128 51 30 
135 56 31 143 62 32 153 73 37 160 80 37 166 86 37 171 93 36 176 100 38 181 108 39 
185 116 41 188 122 43 190 128 45 193 133 48 193 137 49 191 138 49 186 135 47 181 130 44 
175 126 43 170 123 45 163 116 42 155 109 39 145 101 35 135 92 31 126 85 29 119 81 30 
118 83 36 120 87 46 125 96 60 173 148 118 191 170 146 160 142 123 132 117 100 118 106 93 
124 114 103 131 125 113 168 164 152 240 238 225 204 204 189 173 174 159 155 157 141 117 118 102 
100 97 76 108 93 65 105 90 62 104 88 60 104 86 57 107 88 60 112 89 62 116 91 63 
113 85 58 107 77 51 97 65 40 86 52 28 79 44 22 77 42 20 69 35 16 61 27 10 
52 19 4 48 16 3 45 14 3 43 15 4 44 16 5 43 16 6 41 15 5 40 14 4 
34 13 3 29 15 2 36 23 8 42 30 15 48 36 21 48 38 23 67 59 44 92 86 72 
91 87 74 83 81 68 69 69 55 44 45 33 27 29 17 18 21 9 33 35 25 59 61 51 
89 91 82 116 118 110 124 126 118 121 122 115 106 106 100 88 88 81 71 71 64 64 64 57 
43 47 40 24 32 24 28 33 25 32 31 24 36 27 21 38 21 15 42 16 10 48 13 8 
58 15 12 65 16 14 69 17 15 72 17 16 96 39 39 118 61 61 119 64 62 108 56 49 
97 48 36 94 49 30 85 42 18 82 41 12 94 55 19 97 60 19 101 64 20 107 71 24 
104 80 26 101 85 28 101 85 28 99 85 27 98 85 27 98 85 28 98 86 28 98 88 28 
99 90 28 100 92 29 102 94 28 103 95 28 107 98 29 112 100 30 117 102 32 125 108 37 
134 112 43 142 116 49 147 117 55 146 112 56 137 100 50 100 60 24 79 36 9 76 32 8 
89 26 10 98 25 13 103 29 16 109 33 21 113 37 26 116 39 30 114 38 28 113 38 26 
112 37 24 109 38 20 107 39 17 105 39 13 102 41 13 117 61 23 147 97 41 169 126 59 
186 149 72 197 166 80 199 174 82 196 176 80 190 174 75 190 177 75 190 179 75 190 181 78 
192 182 103 195 185 117 200 189 121 208 195 126 213 199 129 216 201 129 212 196 120 207 189 110 
202 183 99 201 182 91 203 183 87 205 185 84 202 183 77 202 183 73 203 183 71 201 183 69 
200 183 68 200 183 68 198 182 68 197 180 68 195 178 68 192 176 69 190 175 68 189 173 68 
187 171 66 185 169 64 183 167 62 181 164 61 178 161 59 174 158 57 169 154 56 164 149 54 
160 144 52 156 139 51 153 137 52 150 134 52 144 129 51 143 128 53 135 121 48 108 95 30 
101 88 25 96 84 23 87 76 20 94 85 24 107 99 31 121 115 41 153 147 67 180 169 89 
194 167 91 187 158 88 167 139 76 131 103 51 102 74 33 79 50 20 62 34 13 56 26 12 
54 23 13 56 25 15 
69 31 29 78 38 35 105 54 43 113 57 42 110 52 36 110 48 31 116 51 30 125 56 32 
135 64 34 146 71 35 156 78 36 165 84 36 172 91 36 180 97 37 187 107 40 190 112 40 
191 117 41 194 123 43 195 129 45 195 134 47 192 136 48 188 136 48 184 134 48 176 130 46 
170 127 45 163 120 42 146 105 36 136 98 33 129 93 30 121 89 28 113 86 27 104 82 26 
91 74 22 77 66 19 64 59 16 53 54 14 48 54 16 41 51 17 26 40 11 23 38 12 
21 38 13 16 34 11 10 28 8 6 23 6 5 21 5 6 22 8 8 24 10 9 24 10 
7 22 8 6 20 7 5 16 6 6 16 6 6 17 7 7 17 8 10 21 9 16 28 15 
28 39 26 43 55 42 58 70 57 74 84 72 90 100 89 103 114 103 113 123 114 146 156 148 
172 181 175 186 195 191 181 189 189 177 184 186 175 182 185 170 177 181 161 167 173 147 153 160 
138 144 152 132 138 149 131 136 153 128 133 150 123 129 145 116 122 139 107 114 129 98 106 120 
88 99 112 81 92 104 74 85 96 67 79 89 65 76 85 61 72 80 57 68 75 58 68 76 
51 61 67 39 47 53 34 40 46 29 34 39 24 27 32 16 18 22 12 12 17 10 9 14 
7 6 12 10 7 8 16 8 4 19 5 4 28 4 9 42 5 16 57 10 23 73 16 27 
88 21 28 94 21 23 95 21 17 98 25 15 128 56 43 130 62 50 119 55 47 112 53 51 
107 51 60 103 49 70 107 52 82 113 55 90 121 58 97 129 61 98 129 56 89 125 48 75 
120 41 64 131 37 53 146 37 46 152 41 51 159 46 54 165 49 57 168 50 56 170 50 54 
171 49 51 171 47 46 170 45 42 170 43 38 168 41 35 170 42 35 172 42 35 170 40 33 
168 39 32 166 38 32 166 38 32 166 38 33 166 38 34 164 37 34 161 36 33 158 34 31 
156 32 30 136 28 29 123 27 32 124 29 38 119 28 43 137 48 73 198 114 147 209 131 171 
212 138 185 211 140 194 208 140 197 206 140 201 207 141 204 208 141 204 210 141 204 211 141 204 
213 141 203 215 141 202 215 140 200 214 140 200 214 139 199 212 138 197 211 138 198 210 137 198 
210 137 197 205 134 197 202 133 196 201 132 195 200 131 194 198 130 193 196 128 191 193 126 187 
191 124 184 188 121 181 186 119 179 184 117 177 182 116 175 179 113 171 176 110 168 173 107 164 
169 104 160 166 101 156 162 97 152 159 94 148 155 90 144 151 86 139 146 81 134 142 78 130 
139 75 127 134 75 119 116 60 99 91 39 74 80 34 62 62 22 44 41 6 24 29 3 14 
23 3 9 20 5 8 17 7 7 14 7 5 12 6 4 15 8 8 19 8 10 24 7 11 
34 9 14 43 11 16 53 13 19 66 18 22 76 20 23 84 22 23 86 20 19 100 29 28 
119 45 43 135 67 53 124 57 40 111 42 26 120 50 33 119 47 30 119 45 27 130 53 32 
136 57 32 142 62 32 152 72 35 159 79 36 166 87 37 172 95 38 177 103 39 182 110 41 
186 118 43 188 124 44 190 129 46 192 134 48 191 136 49 189 136 48 183 133 46 176 128 43 
170 123 41 162 119 43 155 113 40 148 106 37 139 99 34 128 90 30 118 81 27 108 73 26 
121 89 43 135 106 65 146 119 86 175 152 125 178 159 137 143 128 110 95 82 69 67 57 48 
68 61 54 94 89 80 151 148 137 245 244 232 224 224 211 200 202 188 181 183 168 119 122 106 
95 92 72 111 96 68 110 93 65 107 89 61 103 83 55 104 83 55 110 86 59 120 93 65 
119 89 63 113 81 56 105 70 45 97 60 36 91 54 31 88 51 29 79 41 22 69 31 14 
57 20 4 49 14 3 44 10 2 41 9 2 41 10 2 40 10 2 38 9 2 37 8 2 
34 11 2 31 18 4 38 25 10 44 32 17 51 40 24 56 47 32 70 63 48 85 80 66 
85 83 69 75 74 60 58 59 45 41 43 30 26 29 16 16 19 7 23 27 16 34 37 27 
52 55 46 97 99 90 118 120 111 126 127 119 121 122 114 106 107 98 91 91 81 86 86 78 
63 70 60 42 54 43 45 53 43 49 50 41 51 45 37 51 37 30 52 29 23 55 22 18 
61 20 18 64 18 16 65 15 14 68 15 14 94 39 39 117 62 62 117 64 61 106 56 48 
96 48 35 94 50 29 85 43 18 82 42 11 94 57 18 98 62 18 102 67 19 109 75 24 
105 82 26 102 86 28 101 86 28 99 85 27 98 85 27 97 85 27 96 85 27 96 86 28 
97 88 28 98 90 28 100 91 28 101 92 27 105 95 28 108 96 29 111 96 29 120 102 34 
128 107 40 135 109 45 140 110 50 140 107 51 135 97 48 103 62 25 83 40 10 79 34 8 
84 23 7 89 20 8 91 22 11 96 24 17 100 27 23 103 29 29 101 28 29 99 27 27 
97 25 24 96 27 19 96 30 16 97 34 13 97 38 12 114 61 23 147 100 42 169 130 59 
184 151 70 192 164 76 194 171 79 191 174 78 186 173 75 186 175 77 188 179 79 191 183 84 
200 191 115 207 198 132 214 203 138 222 209 143 225 211 144 225 210 140 216 199 127 205 187 112 
195 176 96 191 172 86 192 172 81 194 173 77 191 171 70 191 170 67 192 171 65 192 173 64 
191 173 64 191 173 64 190 172 65 188 170 65 185 168 65 182 165 65 181 163 65 179 162 64 
177 160 62 174 158 60 172 155 58 169 153 57 166 149 55 162 145 53 157 140 50 152 135 49 
147 130 47 142 125 47 140 123 48 136 120 48 130 114 46 130 115 49 124 110 46 98 85 27 
89 77 21 83 72 18 73 64 15 84 77 20 101 95 28 121 117 42 155 151 69 181 172 89 
190 165 84 184 156 81 165 138 70 128 101 46 103 75 32 80 52 20 60 32 9 54 24 8 
53 22 11 56 25 15 
71 33 31 81 40 38 105 54 44 113 56 42 110 52 36 111 49 31 116 51 31 125 56 32 
135 64 34 146 71 35 156 77 35 165 84 35 172 91 36 180 98 37 189 110 41 193 115 42 
195 120 42 196 125 43 197 131 45 199 137 48 196 139 49 193 139 49 189 138 49 181 133 47 
175 129 46 169 123 43 157 108 39 149 101 36 143 97 33 135 93 32 127 90 31 119 87 30 
110 86 30 98 79 28 85 71 25 71 65 22 64 62 23 50 53 21 18 25 5 15 24 3 
16 27 4 11 24 4 6 17 2 2 10 1 2 8 1 2 9 1 2 9 1 2 11 1 
2 9 1 1 7 1 1 6 1 1 5 1 1 5 1 1 6 1 4 12 3 14 23 13 
33 43 32 57 67 56 82 91 81 107 116 105 122 131 122 141 151 142 166 176 167 187 196 189 
199 208 203 202 210 207 191 200 199 183 191 192 178 186 188 169 177 180 157 163 169 139 146 153 
128 134 141 123 129 140 125 131 149 121 127 145 116 122 140 109 116 134 99 106 122 89 97 112 
80 90 105 73 83 96 66 78 89 60 73 83 58 69 78 53 64 72 47 59 65 46 57 64 
40 49 56 30 38 44 25 32 37 20 24 30 14 17 21 10 11 15 8 9 13 9 8 12 
8 7 11 11 7 8 16 8 4 21 7 6 31 7 11 43 7 17 58 11 22 74 16 26 
89 22 29 95 22 25 96 22 18 99 26 16 126 54 41 129 61 48 119 56 47 112 54 51 
108 51 59 105 50 70 107 52 80 115 57 91 125 62 99 130 62 98 131 58 89 128 51 77 
121 42 64 133 37 51 149 37 42 154 40 46 159 44 48 164 46 49 165 45 48 166 45 46 
167 44 43 168 43 39 167 41 35 166 40 32 165 38 30 170 40 32 174 42 34 172 40 32 
170 39 31 168 38 30 168 38 31 167 38 32 166 38 33 164 37 33 161 35 32 158 33 30 
156 32 29 137 28 28 123 26 30 120 26 33 109 21 32 125 38 60 190 107 139 205 126 166 
210 135 182 210 138 191 206 138 195 204 138 198 204 138 201 204 137 201 205 137 201 208 137 200 
209 137 198 211 136 197 211 135 197 211 135 196 210 135 194 208 133 193 207 133 193 206 132 193 
205 131 192 201 131 194 198 130 195 197 130 194 196 128 193 194 127 191 192 125 189 190 122 185 
187 120 182 185 117 179 181 115 175 179 113 173 178 112 171 175 109 167 172 106 164 169 104 161 
164 100 156 161 97 152 157 94 148 154 90 144 150 87 140 146 83 135 141 77 129 138 74 125 
135 72 122 137 77 120 115 58 97 82 29 64 72 25 53 58 17 39 42 7 25 33 5 16 
26 5 11 20 5 8 18 8 8 15 8 6 12 6 4 17 9 9 20 9 11 24 7 11 
34 9 16 44 12 19 54 15 21 66 19 24 76 22 25 85 23 25 87 21 21 99 28 29 
116 43 41 135 66 52 125 56 39 111 41 25 120 49 31 120 47 30 121 46 28 132 55 33 
137 58 33 142 61 32 150 70 34 158 78 35 165 86 37 174 98 40 180 105 41 184 113 42 
187 120 44 189 126 45 190 131 47 191 134 48 190 136 48 186 135 48 180 131 45 173 125 42 
165 119 40 156 115 41 147 107 37 139 100 34 131 94 31 121 86 28 109 75 23 92 61 16 
132 103 59 164 138 100 176 152 121 162 142 116 146 130 110 132 118 103 56 45 39 9 1 1 
7 1 1 58 54 48 134 132 123 238 238 227 236 237 225 225 227 213 210 213 197 130 134 118 
97 94 75 115 99 73 114 96 69 109 90 62 101 80 53 97 74 47 104 78 52 121 92 65 
123 91 65 120 85 60 113 75 50 108 68 45 102 61 39 94 53 32 85 43 24 74 32 16 
63 21 6 54 14 3 48 10 2 44 8 2 43 7 2 41 6 2 38 4 1 36 3 1 
36 12 4 38 26 9 41 29 13 47 35 20 56 46 30 72 64 49 76 70 55 74 69 55 
73 71 57 62 62 48 47 49 34 34 37 23 27 30 17 22 26 14 21 25 14 14 18 8 
16 20 11 68 71 61 105 107 97 129 131 121 131 132 122 122 123 113 111 111 101 106 106 97 
81 88 77 56 69 57 54 64 51 58 62 50 65 61 51 70 58 50 71 50 44 70 40 36 
69 30 29 66 21 21 63 15 14 64 13 13 91 38 38 115 62 61 115 62 59 104 54 46 
94 48 33 92 49 27 84 44 18 82 44 11 94 59 17 98 65 18 103 71 20 111 79 24 
107 85 27 103 88 28 102 87 27 99 85 27 97 84 26 96 83 26 93 83 25 93 83 25 
94 84 26 96 87 27 98 89 28 100 90 28 103 92 28 105 92 28 105 89 26 114 96 31 
122 100 36 127 100 39 132 102 43 135 100 46 134 94 46 109 67 26 93 49 13 87 41 11 
83 23 7 81 15 7 80 14 8 82 15 15 84 16 21 87 17 28 87 17 31 86 16 30 
83 15 26 84 18 22 87 23 18 91 30 16 97 41 14 118 68 27 152 109 49 171 136 63 
181 152 69 183 160 70 186 167 74 184 170 75 180 171 74 184 175 81 189 182 88 196 190 98 
213 205 133 224 215 152 231 222 158 239 226 162 240 226 160 235 220 153 219 203 134 203 185 113 
187 168 92 180 160 80 180 158 73 181 159 69 177 156 63 177 156 60 179 157 58 181 161 60 
182 162 60 182 163 61 181 162 61 178 159 61 174 155 60 170 152 59 169 151 60 168 150 60 
168 151 59 167 150 59 165 148 57 162 145 56 159 141 54 154 137 52 146 128 47 140 122 45 
136 118 44 130 112 43 126 108 43 122 104 43 112 96 39 114 98 42 110 96 41 88 76 24 
77 67 18 70 61 14 61 54 12 76 70 17 99 95 29 128 126 49 158 156 73 178 170 86 
183 158 75 177 150 72 157 130 60 115 88 32 97 70 25 80 53 19 61 33 9 54 25 7 
52 22 8 54 23 13 
72 33 32 82 41 39 105 54 44 113 56 42 110 51 37 110 49 31 116 52 31 124 57 32 
135 63 33 145 70 34 155 76 35 165 84 35 173 91 36 181 99 37 191 112 42 196 118 43 
197 123 43 199 129 45 201 135 47 202 140 50 201 142 51 198 143 52 193 142 51 186 137 49 
180 134 48 175 128 46 169 115 43 164 111 42 158 108 41 150 104 39 142 100 38 132 96 37 
120 91 34 106 83 31 95 78 31 91 81 36 94 89 49 103 103 69 124 128 101 135 143 118 
143 153 130 148 159 140 147 157 143 144 154 142 142 151 141 144 153 144 147 156 148 149 159 150 
149 158 150 148 156 149 144 151 144 143 150 143 143 150 144 144 151 144 148 156 148 154 163 154 
163 172 163 171 179 170 177 186 177 181 190 181 175 183 174 176 185 176 190 198 191 204 212 206 
209 218 213 204 213 209 188 196 196 175 183 184 165 173 175 157 164 168 142 149 154 121 128 133 
111 118 124 106 112 123 105 110 129 100 105 125 96 102 121 92 98 117 84 90 108 75 83 99 
66 76 91 60 70 85 55 66 78 50 63 72 48 61 70 45 57 65 42 53 60 38 49 56 
33 42 48 25 33 38 20 26 31 15 20 24 11 14 17 9 10 14 9 9 13 11 10 15 
11 9 14 13 9 10 16 8 4 22 8 7 32 8 12 45 9 18 59 12 23 74 17 27 
89 21 29 96 23 25 97 23 18 100 27 17 126 54 40 128 60 46 119 56 45 111 53 49 
106 50 57 102 47 66 104 48 76 108 49 82 111 49 85 109 41 76 112 40 69 116 39 63 
115 36 57 131 35 47 150 37 40 154 39 43 157 41 44 160 42 44 161 42 42 162 41 40 
164 41 37 165 40 35 165 39 32 165 38 29 164 36 27 170 39 31 175 43 34 173 41 32 
171 39 31 169 38 30 168 38 31 167 38 32 166 38 33 165 37 33 161 35 31 158 33 29 
155 31 28 138 29 28 123 27 30 118 25 30 104 19 26 119 36 53 187 104 136 202 123 163 
208 132 180 208 136 190 205 136 193 203 136 197 203 136 199 202 135 199 202 134 198 204 134 197 
206 133 195 207 133 195 208 132 194 208 132 192 208 131 191 207 130 190 205 129 190 203 128 190 
203 128 189 198 128 192 196 128 193 195 128 192 194 127 191 192 125 189 190 123 187 188 120 183 
185 118 180 183 115 177 179 113 173 177 111 171 176 110 169 172 106 164 168 103 161 166 100 158 
161 98 153 158 94 149 155 91 146 151 87 141 147 83 136 143 79 132 138 75 126 134 71 122 
132 69 119 136 75 119 113 56 95 77 24 59 68 21 49 56 15 38 43 8 26 35 7 18 
28 7 13 23 8 10 19 8 9 16 8 7 14 6 6 17 9 10 21 9 12 25 8 13 
34 10 16 44 12 19 55 15 22 67 19 24 77 22 26 86 24 28 92 25 26 101 30 31 
115 42 40 135 66 52 124 56 38 110 41 24 119 48 31 120 48 30 122 47 29 133 56 34 
138 58 33 142 61 31 150 70 33 157 77 34 165 86 37 176 100 41 181 108 43 185 115 44 
189 122 46 191 128 47 191 132 48 191 135 48 189 136 49 185 135 47 178 130 44 171 124 41 
161 117 38 148 109 37 139 101 34 131 94 30 122 87 27 114 80 24 103 70 21 87 57 15 
153 126 83 201 177 139 208 186 156 148 129 105 103 87 68 86 73 58 43 33 24 18 10 5 
19 13 8 29 25 20 59 58 50 114 114 103 153 154 142 189 191 178 221 224 208 142 146 130 
107 103 84 120 101 76 116 97 71 107 87 60 94 72 45 91 65 40 103 75 49 129 98 72 
128 95 69 125 89 64 121 82 57 117 76 53 114 72 50 112 69 48 106 63 43 99 56 39 
92 49 34 90 48 36 88 48 38 88 50 42 88 50 43 85 49 43 80 46 41 77 42 39 
65 39 31 49 37 20 48 35 19 65 54 38 95 86 69 122 114 99 114 108 92 87 83 67 
73 71 57 57 57 42 39 41 27 29 32 19 27 31 18 28 33 20 23 27 15 18 22 12 
19 23 14 45 48 38 63 65 55 81 83 72 110 112 101 106 107 96 89 89 78 73 73 63 
50 57 45 32 47 33 40 51 38 52 58 45 65 63 52 75 64 56 80 60 54 85 55 51 
89 51 49 83 40 39 75 27 28 67 17 18 91 39 39 113 61 60 112 61 58 101 53 44 
92 47 31 91 49 26 83 44 17 81 45 11 95 61 17 100 67 19 105 73 21 113 82 24 
109 88 27 104 90 29 102 87 27 98 85 26 95 82 24 92 80 23 91 80 23 90 80 23 
92 82 25 94 85 26 97 88 27 100 90 28 101 91 27 101 88 26 98 83 23 108 90 28 
117 95 33 123 96 36 129 99 41 135 101 46 141 101 52 123 81 37 108 63 25 95 48 16 
84 26 10 79 15 8 77 12 10 78 12 16 79 12 22 80 13 30 80 12 33 79 12 33 
78 12 30 82 17 27 86 22 24 91 30 20 103 49 22 129 82 38 166 125 64 170 135 62 
171 143 60 169 147 59 169 152 61 171 158 65 174 165 71 185 177 84 194 189 97 205 200 111 
225 218 148 237 228 166 244 234 173 248 239 176 247 236 172 241 227 161 221 204 137 200 181 111 
180 160 87 171 150 73 169 147 66 170 147 62 167 146 56 167 145 54 168 146 52 169 149 53 
170 150 53 169 149 53 166 146 52 163 143 52 160 140 51 156 137 51 155 136 51 154 134 51 
148 130 46 144 127 43 142 125 43 143 125 43 141 122 42 136 118 40 130 112 38 124 106 36 
119 100 34 113 95 33 111 93 34 107 89 34 99 82 30 94 78 29 87 72 25 71 58 16 
62 51 11 57 47 9 54 48 9 78 73 21 108 104 35 136 134 56 162 162 78 180 174 87 
183 159 74 175 148 68 152 126 55 108 81 27 97 70 24 87 60 24 72 44 19 64 35 17 
60 30 16 59 28 17 
69 36 31 80 44 38 105 53 42 113 54 41 112 51 37 112 50 33 116 52 31 123 56 31 
132 62 32 142 69 33 151 76 34 161 85 36 169 93 37 177 101 39 190 115 45 196 123 46 
198 128 47 201 134 48 202 139 50 203 143 52 202 145 52 199 145 52 195 144 52 189 141 50 
185 139 48 182 134 47 177 122 44 174 118 44 170 116 43 163 113 42 156 110 40 147 105 39 
134 98 35 122 90 32 112 85 31 111 90 38 117 100 51 134 122 78 178 170 130 199 194 160 
212 210 181 220 220 196 223 225 205 224 227 211 223 226 213 226 230 220 229 233 226 231 236 230 
231 236 231 229 234 230 225 230 227 224 230 227 225 230 227 225 231 227 228 233 230 230 236 232 
232 237 233 230 236 231 226 232 227 219 225 221 205 210 206 197 203 199 198 205 202 205 211 209 
205 212 210 196 203 202 179 186 188 165 171 175 153 160 163 145 151 156 132 138 144 113 119 126 
105 111 118 98 104 115 92 98 117 88 93 112 84 89 108 82 86 104 76 78 97 70 71 89 
64 65 81 60 58 75 57 53 69 53 50 64 53 47 61 52 45 58 51 42 54 50 40 52 
46 36 46 40 30 38 32 21 29 26 15 21 21 10 14 20 9 13 20 9 13 21 11 14 
20 10 13 24 9 10 31 7 8 35 7 10 42 8 13 51 8 17 61 11 22 73 15 25 
84 19 28 92 22 27 96 25 26 102 31 27 122 52 47 125 57 52 118 54 51 112 50 52 
107 47 56 105 45 62 108 46 70 109 46 73 108 42 72 100 32 59 101 30 54 106 31 51 
109 33 51 129 33 42 151 35 36 154 37 38 157 38 39 158 39 39 159 39 38 160 38 36 
160 38 34 161 38 33 162 37 32 162 37 30 162 36 29 166 38 31 169 40 33 168 39 33 
167 38 32 165 37 31 164 37 32 164 37 32 162 37 32 161 36 32 159 35 31 156 33 29 
154 32 28 135 29 30 119 27 33 114 25 32 99 18 25 114 35 50 183 101 130 198 119 156 
203 128 171 206 133 181 203 134 186 202 134 190 201 134 193 200 132 193 199 131 192 200 131 192 
201 131 191 201 130 191 201 130 190 201 129 189 201 129 187 200 128 186 198 127 186 197 126 185 
196 125 184 194 125 185 192 125 185 192 124 184 190 122 183 187 120 180 185 118 178 182 116 175 
180 114 172 178 112 170 175 110 166 173 108 164 171 106 162 167 102 158 164 100 155 161 97 152 
157 94 148 154 91 144 150 88 140 146 84 136 142 81 132 139 77 128 134 73 123 130 69 119 
128 66 115 132 72 111 110 52 86 75 20 50 63 16 38 53 12 30 46 8 24 39 7 18 
33 7 14 28 7 11 24 7 8 21 6 6 20 5 6 23 8 8 26 8 10 30 8 11 
38 9 13 48 11 16 57 14 20 67 17 21 77 20 24 86 23 27 95 27 30 105 33 35 
115 41 42 131 60 50 123 52 39 113 41 28 118 46 31 121 48 30 124 50 30 133 56 33 
136 59 31 139 62 30 147 70 31 155 78 33 163 88 36 176 105 44 181 112 46 185 118 47 
189 125 48 190 128 49 190 131 49 188 133 49 185 133 49 181 131 47 176 127 45 171 123 43 
159 116 40 136 103 39 132 102 40 131 101 42 129 101 45 118 91 40 107 82 36 97 74 35 
167 146 110 215 196 165 217 199 174 134 119 100 74 61 47 56 45 34 37 28 20 27 19 13 
27 20 15 16 11 7 20 16 11 42 40 31 111 108 99 171 169 159 221 219 207 157 155 143 
124 116 98 126 107 79 116 96 67 104 83 54 92 68 39 92 65 37 104 74 47 129 96 68 
135 99 72 137 98 72 137 95 69 136 92 68 136 90 67 137 90 67 133 86 64 129 81 62 
124 78 59 123 77 60 121 76 60 119 76 61 117 74 60 112 72 58 107 68 55 102 63 51 
85 56 43 63 49 34 62 48 33 84 71 56 120 109 94 151 141 127 132 124 109 90 82 67 
73 67 54 56 52 39 41 38 24 34 32 19 34 32 20 35 35 23 30 30 17 28 28 17 
29 29 18 32 31 20 39 38 26 52 52 39 88 87 75 90 88 76 76 74 62 58 56 44 
44 47 35 37 44 32 47 51 41 61 62 51 76 71 60 87 76 67 94 76 68 99 74 67 
102 71 65 95 60 56 86 48 43 77 36 32 92 50 44 107 64 56 105 63 53 96 55 40 
88 49 29 88 50 25 83 47 19 83 49 17 95 61 21 101 68 24 106 75 26 114 82 29 
109 87 30 104 90 29 102 87 28 99 85 26 95 82 24 92 79 22 90 78 22 89 78 22 
91 80 23 93 82 24 96 85 26 98 87 27 98 87 26 97 84 24 94 79 21 101 84 25 
108 88 29 113 90 32 119 94 36 126 98 42 133 102 48 125 92 42 115 80 33 104 68 24 
89 41 17 81 26 14 78 23 14 76 21 15 74 19 17 73 17 22 72 16 24 72 16 24 
73 18 23 79 25 23 86 33 21 92 42 20 111 67 30 135 96 47 162 128 67 161 132 62 
160 136 60 159 140 60 160 145 64 166 154 71 175 166 83 188 181 99 199 193 113 209 204 126 
229 222 159 240 232 176 245 237 180 246 240 182 243 235 176 236 224 163 215 201 139 194 178 113 
173 156 88 162 145 73 157 139 65 157 137 60 153 134 54 154 134 52 156 136 51 156 138 51 
155 138 50 154 137 50 151 133 49 149 131 48 146 128 47 142 125 46 140 123 45 137 120 43 
129 113 38 126 110 36 125 108 35 126 110 36 124 107 36 120 103 34 115 99 32 111 93 30 
106 88 28 101 83 26 98 81 27 95 78 26 87 71 23 81 65 20 73 59 16 63 50 11 
58 46 9 55 44 8 54 46 9 81 73 22 112 105 38 139 134 59 159 156 76 172 165 85 
173 152 76 164 141 70 144 120 57 106 83 31 94 70 26 86 60 24 77 50 22 72 42 20 
68 36 17 65 33 16 
64 41 28 75 48 36 104 50 39 115 51 39 116 51 38 116 52 35 118 53 32 121 55 29 
127 60 30 135 68 32 144 76 35 153 87 37 161 95 39 170 104 42 186 121 51 193 130 54 
197 134 54 199 140 54 201 144 55 201 147 54 199 147 52 197 146 51 195 145 50 191 145 48 
190 144 48 189 141 47 183 128 43 180 124 41 177 123 41 174 120 40 169 117 39 163 113 37 
154 107 34 145 100 32 137 94 30 134 93 30 132 95 34 142 108 48 175 145 88 200 172 123 
216 192 150 220 199 164 229 212 184 237 222 201 240 227 212 241 230 221 241 233 228 243 235 233 
242 235 236 240 235 238 238 237 242 239 238 243 239 238 244 238 237 242 237 236 242 236 235 240 
233 234 238 229 230 234 224 225 229 217 218 222 211 212 215 202 204 208 192 194 199 190 193 197 
186 189 193 176 180 186 165 168 176 153 156 165 141 144 153 134 137 147 126 129 140 117 120 131 
111 114 125 101 106 118 87 97 112 84 92 107 81 86 102 79 78 95 77 69 89 76 62 82 
75 55 75 76 47 69 76 41 64 76 35 58 77 31 53 78 29 50 80 28 49 85 32 51 
85 33 49 80 30 44 66 20 30 55 12 20 47 6 12 45 9 12 43 11 12 41 12 11 
37 9 8 47 7 10 63 7 16 61 6 14 61 6 14 62 6 14 65 7 17 69 11 21 
75 16 26 83 21 33 92 30 42 103 40 53 115 49 63 119 53 67 119 53 67 114 45 61 
112 43 58 113 43 59 119 48 64 119 48 64 116 43 59 105 34 49 100 29 44 99 28 42 
103 32 47 128 31 37 152 33 30 155 34 32 157 36 34 159 37 35 159 37 36 158 37 35 
157 36 34 157 35 33 158 36 34 159 37 35 160 38 36 158 36 34 156 35 33 157 35 33 
157 35 33 156 35 33 156 35 33 155 34 32 155 34 32 154 34 31 153 33 31 152 33 30 
151 32 29 128 30 34 110 30 40 108 28 39 95 19 30 110 34 50 176 98 122 190 113 142 
197 121 154 202 128 165 203 130 173 202 132 179 200 132 181 196 130 182 194 129 183 194 129 184 
192 129 186 191 129 186 190 128 185 190 128 184 190 128 183 188 127 182 188 126 180 187 126 178 
185 124 177 187 121 173 187 120 171 187 119 170 183 116 167 179 113 164 176 110 161 173 109 159 
172 108 158 171 107 157 168 105 154 165 102 152 162 100 149 159 98 147 157 96 145 156 95 144 
151 91 140 147 87 136 143 84 132 139 81 129 136 79 126 132 75 123 128 71 119 125 68 115 
123 65 111 127 66 97 108 46 71 76 18 38 55 8 19 48 4 14 49 4 16 46 5 16 
41 4 13 36 2 8 33 3 6 31 2 4 31 2 2 33 5 3 36 6 4 40 6 5 
47 7 6 54 10 10 62 12 14 68 13 15 76 16 18 86 20 24 98 27 33 109 35 42 
118 42 48 123 47 46 122 46 42 119 43 37 117 42 31 122 48 32 127 54 32 130 56 29 
132 59 27 135 64 27 143 72 28 150 80 31 159 92 36 175 111 47 181 118 50 184 122 52 
187 127 54 187 129 54 185 129 53 183 127 52 179 124 49 175 122 47 172 122 47 173 122 47 
158 116 48 118 97 53 126 108 68 140 123 84 152 137 101 137 121 89 124 110 81 123 111 85 
173 162 139 204 194 176 199 190 176 119 111 101 61 53 46 43 36 31 39 31 28 35 27 25 
29 21 20 21 12 11 20 11 10 30 21 17 114 103 99 176 164 160 209 197 193 174 161 156 
148 133 118 135 117 80 114 94 58 101 79 44 96 70 37 101 72 39 109 77 45 120 86 54 
143 104 74 156 114 85 162 116 88 164 114 88 167 115 89 169 117 91 167 113 87 163 109 84 
159 105 80 153 99 74 145 92 66 135 83 58 128 78 52 121 73 47 116 70 43 110 64 37 
96 62 41 80 62 52 85 67 57 103 86 75 129 113 103 157 141 131 131 116 106 82 67 56 
72 58 47 62 48 37 52 39 28 50 37 25 46 34 23 43 32 20 44 32 21 46 35 23 
45 36 23 31 22 9 34 25 13 46 38 25 66 59 45 74 67 54 75 68 54 64 57 44 
67 59 49 75 64 58 78 67 62 86 75 68 96 85 76 107 93 84 112 97 87 112 97 86 
108 90 77 102 83 68 97 78 61 95 74 55 96 73 53 96 72 50 92 67 43 87 61 35 
83 55 28 81 52 24 83 53 24 86 56 26 94 62 31 101 69 36 107 75 40 112 78 43 
107 84 35 103 88 30 102 88 29 100 85 27 97 83 26 95 81 24 93 78 22 91 77 20 
91 77 20 93 78 22 95 80 23 96 82 24 94 80 23 93 78 22 92 78 21 93 78 22 
94 80 23 97 83 25 102 87 29 106 91 32 110 96 35 113 98 37 114 99 38 114 99 38 
98 71 30 88 54 24 85 51 20 79 45 14 72 39 9 65 32 7 62 29 6 63 31 6 
68 37 8 78 49 12 88 60 15 97 70 20 121 97 39 135 112 51 139 118 56 144 126 63 
148 132 69 152 138 76 159 147 86 170 159 99 183 172 114 194 187 129 203 195 138 210 202 146 
224 219 169 231 226 179 234 228 180 232 227 178 227 221 170 219 211 158 202 194 139 184 175 119 
167 156 98 153 143 82 146 134 72 141 129 65 135 123 58 136 123 56 139 126 57 139 126 56 
139 126 55 138 125 54 137 124 52 135 122 50 132 119 48 128 115 45 124 112 42 120 107 39 
112 100 35 112 99 35 112 100 36 111 99 35 109 97 34 107 94 33 103 90 31 99 86 28 
95 82 26 92 78 24 89 76 22 85 71 20 77 63 16 73 59 14 69 56 13 66 53 12 
65 52 11 64 51 11 62 49 10 84 72 22 112 99 36 137 125 57 150 138 68 155 142 77 
152 137 85 143 127 79 130 113 68 111 93 49 89 68 29 76 51 17 77 49 17 76 45 15 
74 41 13 72 37 8 
64 38 26 74 45 34 103 51 40 114 54 41 115 54 40 116 55 38 118 57 35 121 58 33 
127 64 33 134 71 35 144 80 38 153 89 41 161 97 43 169 106 46 184 123 55 191 131 58 
195 136 58 199 143 59 202 148 61 203 152 61 202 153 59 201 153 58 200 153 57 198 154 56 
197 153 56 196 150 54 190 135 49 186 130 47 184 128 46 180 125 45 175 122 44 169 118 42 
162 113 40 153 106 38 145 100 35 139 97 35 136 97 38 134 97 43 132 99 49 145 116 71 
160 134 95 172 149 117 184 163 138 193 176 156 199 184 170 206 192 184 212 200 196 215 205 204 
218 209 210 217 211 214 213 212 216 212 211 216 211 210 215 209 208 213 207 206 211 204 204 209 
202 202 206 197 198 201 191 192 195 185 186 188 179 180 183 171 172 176 159 162 165 156 158 162 
151 154 159 144 148 153 136 140 146 128 132 139 120 123 131 113 116 124 105 108 117 96 99 109 
94 97 108 88 94 104 79 89 98 74 82 92 69 74 84 64 63 74 61 54 67 60 47 61 
62 42 56 68 40 57 73 39 56 78 39 55 82 39 54 89 43 58 100 51 65 106 56 68 
105 56 66 99 52 60 83 38 44 68 26 29 55 17 17 50 16 14 47 16 12 44 16 10 
41 14 7 49 11 10 62 10 15 61 9 14 62 10 15 65 12 16 69 15 20 74 19 25 
79 23 30 87 30 37 97 38 47 108 48 57 118 58 67 119 58 67 115 53 63 110 46 57 
107 42 53 106 40 51 108 41 52 107 39 50 103 35 46 95 28 38 92 24 34 91 23 33 
94 27 37 117 26 30 139 28 25 141 29 26 142 30 27 143 31 28 144 31 29 143 30 28 
142 30 27 142 30 27 143 31 28 145 32 29 146 33 31 147 33 31 146 33 31 146 33 31 
146 32 30 145 32 30 144 31 29 144 31 28 143 31 28 143 30 28 143 30 27 142 30 27 
141 29 26 116 25 27 98 23 30 98 23 32 88 16 25 104 32 44 167 93 114 181 109 135 
188 117 148 193 123 159 193 125 165 192 126 169 190 126 172 189 125 175 188 125 177 188 126 179 
186 126 179 185 126 179 184 126 179 183 125 177 183 125 176 182 124 175 181 123 173 180 122 171 
179 121 170 181 119 167 183 118 166 183 119 166 179 116 163 175 113 160 172 110 157 169 108 155 
168 107 153 167 106 153 163 104 150 160 101 147 157 99 145 152 94 139 148 91 136 146 88 134 
142 86 130 139 83 127 135 80 124 131 76 120 127 72 116 122 68 112 118 64 108 114 60 104 
110 56 98 116 59 86 101 43 65 74 20 39 59 9 24 53 7 20 52 9 22 48 10 20 
44 10 17 40 9 14 39 11 13 38 12 11 38 12 10 39 13 11 41 13 11 44 13 11 
50 14 12 57 16 15 65 18 19 72 19 20 80 23 25 89 28 31 103 36 41 115 45 51 
123 51 57 121 49 49 119 47 44 118 46 40 118 47 37 121 51 36 125 56 35 127 59 32 
130 62 30 134 66 29 142 75 32 150 84 35 158 95 40 172 111 50 177 117 52 179 120 53 
181 125 54 181 127 54 180 127 54 178 126 53 175 125 51 173 124 51 172 125 51 173 127 53 
174 135 67 175 155 111 183 166 128 195 179 141 211 196 161 203 189 157 192 179 150 179 167 142 
197 187 166 205 196 180 194 186 173 136 129 120 100 93 87 100 92 89 83 75 73 66 58 57 
49 41 40 36 27 26 28 20 18 29 20 18 85 74 71 122 110 107 134 122 118 175 162 158 
184 169 156 157 139 108 142 123 92 134 112 83 132 107 79 141 113 85 147 116 90 151 118 92 
162 125 100 170 129 105 174 129 107 176 127 106 177 126 106 178 126 106 176 122 103 174 120 101 
172 118 99 159 106 87 145 94 74 130 81 61 118 70 50 107 61 40 98 52 31 92 47 26 
92 59 42 100 84 75 137 121 112 152 136 127 153 139 129 157 142 132 122 108 98 74 60 50 
71 57 48 65 52 42 59 47 36 60 48 37 59 48 37 58 48 37 64 53 42 72 63 51 
80 72 60 82 74 62 88 80 68 96 89 77 105 99 86 108 101 89 107 100 88 102 95 83 
115 107 99 131 122 117 134 123 118 139 128 121 145 132 125 149 136 128 148 134 125 144 130 119 
137 121 108 131 115 100 128 110 94 128 108 90 115 94 74 103 81 59 98 75 52 92 68 44 
88 62 36 86 58 31 87 59 31 91 62 33 98 68 38 104 73 42 109 78 45 111 80 47 
105 83 36 100 86 30 99 85 29 98 84 28 96 83 27 94 80 25 92 78 24 90 76 23 
90 76 22 91 77 23 92 78 24 94 80 25 93 79 25 92 78 24 91 77 23 91 77 23 
91 77 23 91 77 23 94 80 25 97 83 28 101 87 31 104 90 33 107 93 36 109 96 38 
108 82 40 106 75 41 105 74 39 102 71 35 99 68 31 95 64 28 93 64 27 96 66 27 
101 73 29 111 83 35 119 93 40 127 102 44 133 111 50 139 118 56 143 124 61 151 134 71 
158 143 80 165 152 89 174 162 101 184 174 113 194 185 125 201 194 135 206 199 141 209 202 146 
209 203 157 209 203 160 208 202 158 204 199 152 199 193 145 192 184 135 180 172 121 165 156 104 
149 139 85 133 123 66 125 114 56 122 110 50 116 103 44 115 102 41 116 103 40 117 104 40 
117 104 40 117 104 39 116 103 38 115 101 37 113 100 36 110 96 33 107 94 31 105 92 30 
101 90 29 100 89 29 100 89 29 98 88 29 98 86 29 96 84 28 93 81 26 91 79 25 
88 76 23 85 73 21 84 71 21 82 70 20 80 67 19 75 63 16 72 60 14 71 59 14 
70 59 13 70 59 13 70 60 14 91 80 27 114 103 42 136 125 60 146 135 68 147 135 73 
138 121 74 130 111 67 118 98 56 100 78 39 85 60 25 75 47 16 72 41 12 72 38 10 
72 36 9 70 33 7 
65 35 26 74 42 33 102 53 42 113 58 44 113 58 44 115 59 42 116 60 39 119 62 38 
124 66 37 131 73 39 140 81 42 149 90 45 156 98 46 164 106 49 181 125 61 189 134 65 
192 139 65 198 146 68 202 151 70 203 156 71 200 154 67 198 154 65 198 155 65 197 156 64 
196 155 64 194 151 61 190 135 54 187 130 52 184 127 51 180 124 49 176 121 48 172 119 48 
166 115 47 159 110 45 150 104 42 143 99 42 139 97 44 131 92 44 114 78 35 117 85 46 
125 96 62 133 106 79 139 115 94 146 125 109 155 136 124 167 150 143 179 164 161 189 175 175 
195 183 185 195 186 189 185 183 187 182 181 185 180 179 183 177 176 180 174 173 177 171 170 174 
167 168 171 163 163 166 158 158 161 153 153 155 148 149 151 141 142 145 129 131 134 126 128 131 
123 126 129 119 123 126 115 119 123 111 114 120 106 109 116 99 102 109 92 95 102 84 87 96 
83 86 95 80 85 91 74 84 83 68 76 76 61 66 67 54 55 56 51 46 49 51 41 45 
55 37 43 64 40 47 74 43 50 83 47 54 89 50 56 97 55 61 106 62 67 113 67 71 
113 68 69 107 64 62 89 48 45 73 34 30 57 22 15 51 19 12 46 17 9 44 17 7 
41 16 5 48 14 8 60 13 13 59 12 12 61 13 13 64 15 15 68 20 20 74 24 25 
79 28 30 85 34 36 94 42 44 104 50 53 113 59 62 113 58 61 109 53 56 104 47 51 
101 42 46 97 37 42 96 35 39 93 32 36 89 28 32 85 24 27 83 22 26 83 22 26 
86 24 28 106 25 25 127 26 23 128 27 24 128 27 24 129 28 25 130 28 26 129 28 25 
129 27 24 129 28 26 131 29 26 132 30 27 134 31 29 135 32 30 135 32 30 135 32 30 
134 31 29 133 31 28 133 30 28 132 30 28 132 30 27 131 29 27 131 29 27 131 29 26 
130 29 27 107 24 25 89 21 26 91 22 30 84 18 25 100 34 44 158 90 108 172 106 129 
178 114 141 181 118 150 183 122 158 184 124 163 181 123 165 179 122 166 178 122 168 178 122 170 
177 122 170 176 122 170 176 122 170 174 121 168 173 120 166 173 120 165 171 119 163 170 118 162 
170 117 161 172 115 158 173 114 157 173 115 157 169 112 154 167 110 152 165 108 150 163 107 148 
160 105 146 158 102 144 154 100 141 152 98 139 151 97 138 142 89 130 137 85 125 135 83 123 
132 81 121 129 79 118 127 76 115 122 72 111 117 68 107 112 64 102 107 59 97 102 54 93 
98 50 87 100 49 73 88 37 55 69 20 36 59 12 26 54 10 23 52 13 24 47 13 20 
44 13 18 41 14 17 42 17 18 42 19 17 42 19 15 42 19 15 43 19 15 45 17 14 
50 18 15 56 19 17 63 21 20 70 22 22 77 26 26 87 31 33 100 40 43 112 49 54 
120 55 59 117 51 51 115 50 46 114 50 44 116 52 42 119 55 41 122 59 39 122 61 35 
125 64 33 129 68 33 137 77 36 145 86 39 154 98 45 171 116 59 176 122 61 177 125 61 
178 128 61 178 129 61 178 130 61 176 130 60 175 130 59 174 131 60 175 134 62 178 137 65 
189 154 89 216 199 158 223 208 172 230 216 181 244 231 198 241 229 199 231 220 193 212 202 179 
209 200 181 203 196 181 191 184 173 157 150 143 136 129 125 137 129 128 114 107 106 92 84 84 
71 63 63 52 44 44 38 29 29 28 19 18 60 49 47 75 63 61 69 57 54 168 156 152 
204 189 180 167 149 129 158 139 119 153 132 113 152 128 110 160 133 116 167 137 120 172 138 123 
173 136 122 175 135 122 179 135 123 181 134 124 177 128 118 168 118 109 164 113 104 159 108 99 
154 102 93 138 88 78 123 74 64 108 61 51 98 53 42 88 44 32 78 35 23 74 31 19 
85 53 43 111 96 88 170 154 147 183 168 160 167 154 145 146 132 123 109 95 87 71 58 49 
70 57 49 67 55 46 64 53 44 68 57 48 69 59 49 69 60 49 75 66 56 89 80 70 
105 98 87 122 114 104 132 125 115 140 132 122 141 135 124 142 136 125 143 137 126 146 140 129 
157 150 142 168 159 156 169 160 156 171 161 156 173 162 156 173 161 154 168 155 148 161 147 138 
153 138 127 148 133 120 147 130 116 149 131 114 128 108 90 107 86 67 102 80 60 96 73 51 
91 67 43 89 64 39 91 65 39 95 68 41 100 73 45 105 77 47 108 79 49 109 80 49 
102 82 39 97 84 32 96 83 32 96 83 32 95 82 31 93 79 29 91 77 27 89 76 26 
88 75 25 89 76 26 90 77 27 92 78 28 92 78 28 91 77 27 90 76 26 88 75 25 
87 74 24 86 72 23 86 73 24 88 75 25 91 78 27 96 82 31 99 86 34 103 89 37 
111 88 46 116 88 52 117 89 52 117 89 50 116 88 48 115 87 44 115 88 42 118 91 42 
122 96 44 130 105 50 137 113 55 143 120 60 140 119 58 141 122 60 146 129 66 156 140 77 
166 152 89 176 164 100 186 175 113 194 186 124 202 195 133 204 197 137 203 197 137 200 195 137 
193 187 144 188 182 143 183 177 138 177 171 130 173 166 122 168 160 116 161 153 107 152 142 95 
140 130 81 125 114 63 116 105 52 110 98 44 103 89 36 100 86 33 101 86 31 100 87 31 
101 88 31 102 88 31 102 88 31 101 87 30 100 86 29 97 83 27 95 81 25 93 79 25 
90 81 26 90 81 26 90 81 26 89 80 26 89 79 26 88 78 26 86 77 25 85 75 25 
84 73 24 81 72 24 81 70 23 81 69 23 81 71 24 78 67 21 75 64 19 76 66 20 
77 66 20 77 67 21 77 68 20 94 84 31 112 102 45 128 119 59 135 126 66 135 123 67 
125 105 63 119 96 57 110 86 49 96 70 35 85 56 25 76 44 17 70 36 11 71 33 9 
71 32 9 70 30 8 
68 33 26 75 39 32 100 56 44 111 63 49 112 64 48 113 63 46 114 64 44 116 66 42 
119 68 41 125 74 42 133 81 45 141 90 48 147 95 49 155 102 52 177 127 71 186 138 77 
190 142 77 195 149 81 200 155 84 201 158 84 191 149 74 188 148 71 189 150 72 189 151 72 
187 150 71 184 145 68 184 128 61 181 123 59 179 121 57 175 117 55 172 115 54 170 115 55 
168 113 56 161 109 54 153 104 52 147 99 51 142 96 52 134 91 51 120 80 45 116 80 48 
113 79 52 103 72 50 97 69 52 97 71 59 108 84 76 126 104 100 145 125 124 163 146 147 
175 157 160 174 160 164 154 151 154 150 148 151 147 146 148 145 143 146 141 139 142 136 135 138 
131 131 133 128 128 129 124 124 126 121 121 121 119 119 120 113 113 115 103 104 105 102 103 105 
102 103 105 102 105 106 102 105 108 102 105 108 100 103 107 94 96 101 88 91 95 84 86 91 
79 82 86 75 80 79 70 80 67 64 72 60 58 63 51 51 53 41 49 46 36 50 42 34 
56 42 34 67 48 40 78 54 47 90 60 54 97 64 58 100 64 57 100 62 53 106 67 58 
107 68 57 102 65 53 86 50 36 70 36 21 54 23 6 47 18 4 43 16 3 40 16 3 
38 15 2 45 15 5 56 16 8 55 15 7 56 16 9 59 19 11 64 24 16 69 28 21 
74 31 24 78 35 28 84 40 34 91 46 40 99 53 47 101 54 48 100 51 47 96 47 43 
92 41 37 87 35 31 82 30 26 79 26 22 76 23 19 74 22 18 75 22 18 76 24 20 
77 25 21 97 27 24 117 29 26 117 29 27 117 29 27 117 29 26 117 29 27 118 30 28 
119 30 28 119 30 29 120 31 30 121 32 30 123 33 33 123 34 33 123 34 32 123 34 33 
122 33 31 121 32 30 122 33 32 121 32 30 120 31 29 120 31 30 119 31 29 119 31 29 
121 32 31 100 26 27 85 24 26 88 27 32 84 24 31 100 40 50 149 90 105 163 106 124 
168 113 134 167 113 138 175 122 151 178 127 159 173 123 159 169 119 157 166 117 157 165 117 158 
165 118 158 164 118 159 164 117 160 163 117 158 161 115 155 159 113 151 159 113 151 159 113 150 
159 112 149 158 109 145 157 107 143 157 107 143 155 105 141 154 104 140 155 105 140 154 104 140 
150 100 137 144 95 131 142 95 130 142 95 130 142 95 130 130 84 119 125 79 113 124 79 113 
122 77 111 119 75 108 116 72 106 112 68 102 108 65 98 103 61 94 97 54 88 92 49 83 
87 45 77 80 37 56 70 27 41 60 17 31 55 15 26 51 14 24 48 15 22 42 12 17 
40 13 16 41 17 17 44 22 21 43 23 20 42 23 18 42 23 18 42 22 17 43 20 15 
46 19 14 51 19 16 57 20 18 62 22 20 69 25 23 78 29 29 90 38 39 101 47 49 
109 55 56 109 54 52 109 53 50 109 54 48 111 56 47 114 60 47 117 63 45 116 63 39 
118 65 37 121 69 37 128 77 39 136 85 43 148 99 52 172 125 73 179 132 77 180 135 77 
180 136 77 178 137 75 177 137 74 176 137 73 177 139 74 179 142 77 182 148 81 186 152 86 
202 173 114 241 227 189 245 233 199 246 233 202 251 240 210 249 239 212 240 232 208 223 214 195 
208 202 186 197 192 179 190 184 175 180 174 169 168 162 159 154 147 145 132 126 125 111 105 105 
93 86 86 70 63 63 48 40 40 28 19 18 39 29 28 36 25 23 16 4 1 154 142 139 
207 194 190 164 148 141 160 143 137 157 137 132 154 132 128 158 132 129 166 138 136 180 148 147 
174 138 139 172 133 134 174 132 134 180 135 138 168 122 125 142 94 98 132 84 88 120 72 76 
105 57 61 91 45 48 79 34 37 68 26 27 68 27 28 64 24 25 57 18 18 55 16 17 
74 45 43 113 99 92 180 167 160 194 180 173 171 157 151 124 111 104 93 80 73 73 61 54 
69 57 50 67 56 49 68 58 50 75 65 58 75 66 58 73 65 57 79 71 62 95 88 80 
119 112 103 148 141 132 165 159 150 175 168 159 172 166 157 176 170 161 183 177 168 195 189 180 
191 184 179 184 176 174 184 175 173 183 174 171 181 172 168 178 168 163 171 159 153 162 150 143 
155 141 132 152 138 128 153 138 127 159 142 128 133 115 100 108 89 72 104 84 66 97 77 57 
92 71 50 91 69 47 93 70 47 97 72 49 101 77 52 103 78 53 104 79 53 103 78 52 
99 81 44 95 82 38 94 82 38 94 82 38 94 81 37 93 80 36 90 77 34 88 75 32 
87 74 31 88 75 32 89 76 33 89 77 33 89 77 33 89 76 33 88 76 32 86 73 30 
83 70 28 81 68 25 79 66 24 79 66 24 81 68 26 87 74 31 91 78 35 94 81 38 
109 88 48 118 93 55 120 95 57 123 98 58 124 100 57 125 101 56 126 102 55 128 105 54 
130 108 55 136 114 58 140 120 62 144 124 65 139 121 60 140 124 62 147 133 70 159 146 81 
171 159 95 183 174 109 193 185 121 201 194 131 207 201 138 200 196 134 192 189 127 183 180 119 
176 170 130 168 162 129 159 153 120 151 144 110 148 140 104 147 138 100 147 137 99 145 134 94 
140 128 87 128 117 73 117 106 59 106 93 47 94 81 34 91 77 30 92 77 29 90 77 28 
91 77 28 93 78 29 95 79 31 94 79 30 92 77 29 91 76 27 88 73 25 84 70 23 
82 74 25 82 75 26 83 75 27 83 75 27 83 75 28 84 75 30 83 75 30 83 75 30 
83 74 31 82 73 31 81 72 30 80 71 29 81 73 31 79 71 29 79 69 28 81 73 29 
83 75 31 84 76 31 83 75 29 93 85 37 105 97 47 115 108 56 119 112 59 119 107 59 
114 89 54 111 82 50 106 77 46 100 69 40 89 55 29 79 42 20 73 34 14 72 31 13 
73 29 12 72 27 11 
87 52 48 92 56 52 99 62 50 102 64 49 103 64 48 103 62 45 103 62 43 104 62 40 
106 64 39 110 67 39 114 72 40 121 78 42 125 82 43 128 84 43 128 85 40 129 88 40 
132 92 41 135 97 44 139 101 46 141 104 47 137 102 44 137 102 44 137 104 44 136 104 44 
135 104 44 136 102 43 143 96 45 142 92 43 139 89 41 135 86 38 135 86 39 135 87 41 
136 89 45 133 88 46 128 86 45 121 81 42 116 77 41 112 75 43 111 77 48 107 76 50 
102 72 51 94 67 49 90 66 51 90 67 57 93 74 66 103 86 81 113 96 94 117 102 102 
120 107 108 119 108 110 108 105 107 107 105 106 106 105 106 105 104 104 102 101 101 99 98 98 
95 95 94 96 96 95 95 95 95 93 93 92 93 93 92 90 90 89 84 85 84 83 85 84 
84 85 85 84 87 86 85 88 88 85 88 89 84 87 89 81 84 86 78 81 83 74 77 79 
72 75 77 69 73 69 65 73 56 62 68 52 59 63 47 56 57 42 57 54 40 60 53 40 
65 54 42 73 57 45 80 60 48 88 63 52 92 65 53 96 66 54 99 66 54 105 72 58 
107 74 59 105 72 57 94 63 46 84 54 36 74 46 27 70 44 26 69 44 25 67 45 25 
67 45 25 71 46 30 79 47 37 77 46 36 78 46 36 81 48 38 84 51 42 88 53 44 
90 55 46 91 56 47 93 58 49 97 60 52 103 64 57 103 64 57 102 62 54 100 59 53 
97 55 49 93 50 44 88 44 38 85 40 34 84 39 33 86 41 36 88 43 38 90 45 39 
90 45 40 102 43 40 115 42 40 115 42 41 114 42 40 114 42 40 115 42 41 115 43 41 
116 43 41 117 45 43 117 45 43 118 45 43 117 44 43 117 44 43 117 44 43 117 44 43 
117 44 42 116 44 42 116 43 42 115 43 41 115 42 41 114 42 40 114 42 40 114 42 40 
113 41 39 101 40 39 93 40 40 95 42 44 92 41 45 100 50 56 125 76 84 128 80 92 
128 82 97 131 85 105 132 87 111 130 87 114 125 83 112 125 84 114 125 84 116 124 84 117 
124 85 118 124 85 119 124 85 118 123 84 117 122 83 115 121 83 113 121 82 111 121 81 110 
120 80 110 122 81 109 122 81 109 122 81 109 120 79 107 118 77 105 116 75 103 117 76 104 
117 76 104 116 76 104 115 75 103 113 74 101 111 72 99 109 70 98 107 69 96 106 67 95 
104 67 94 103 66 93 101 65 92 100 64 90 98 62 88 94 59 85 90 55 81 86 51 77 
83 49 73 86 50 64 83 47 56 76 42 51 75 42 50 73 42 49 70 42 47 64 40 42 
64 42 42 66 47 45 69 52 48 67 51 46 64 49 43 66 51 44 66 50 43 66 47 41 
67 46 40 71 46 40 74 46 42 78 46 41 82 47 43 88 49 46 96 55 53 105 62 60 
110 66 64 103 59 55 101 56 52 101 56 50 102 58 49 104 59 47 105 61 45 104 61 41 
105 62 38 107 64 37 113 71 40 119 78 43 124 83 45 126 87 46 127 89 45 128 90 44 
126 91 43 125 91 42 123 91 41 122 92 40 122 92 40 123 95 42 127 100 46 129 103 49 
136 115 65 152 141 106 154 145 112 153 144 113 149 140 112 142 135 108 136 130 106 132 126 106 
130 126 109 128 125 111 125 122 112 121 117 110 116 113 108 113 110 106 102 97 95 91 86 84 
81 76 74 73 67 65 62 55 53 49 41 38 52 43 40 53 44 39 50 41 34 111 101 95 
138 127 122 126 113 112 115 100 100 110 93 93 111 91 93 118 96 98 123 98 102 127 98 103 
122 90 96 120 85 92 122 84 92 125 86 94 124 84 93 120 78 87 114 72 81 108 66 75 
101 59 68 94 53 61 88 49 57 84 47 55 84 48 55 82 47 54 79 46 52 77 44 50 
79 54 55 88 76 69 135 124 116 140 129 121 119 108 100 97 86 78 81 70 62 69 60 52 
69 60 52 69 61 52 70 62 53 76 68 59 75 68 58 71 65 55 74 68 58 82 77 67 
94 90 80 110 106 96 116 112 102 115 111 101 105 101 91 102 99 88 105 102 91 116 113 102 
122 118 110 125 119 114 124 117 112 123 115 110 122 114 108 120 112 105 116 107 99 112 102 94 
109 98 88 109 98 87 112 99 87 118 104 89 109 94 78 98 83 66 94 78 60 89 73 53 
85 69 47 85 67 45 87 68 45 90 70 47 94 73 49 94 74 49 93 73 48 93 72 47 
91 76 45 89 78 44 89 78 44 88 77 42 87 76 41 86 75 40 85 74 39 84 73 38 
83 72 38 84 73 38 84 73 39 86 74 40 86 74 40 86 75 40 86 75 40 88 77 42 
88 77 42 85 74 39 80 69 35 79 68 33 80 69 35 84 73 38 87 76 41 90 79 44 
95 78 46 99 78 47 101 80 49 102 82 49 104 83 49 104 83 48 104 83 45 104 84 43 
104 84 42 106 87 43 109 90 44 110 92 44 105 88 40 104 89 39 107 93 42 111 99 48 
117 107 54 123 114 61 130 123 70 135 130 76 138 134 80 133 130 76 126 124 71 120 117 66 
120 113 82 119 112 87 118 111 85 116 108 81 114 106 78 112 104 74 111 101 70 109 98 65 
106 95 61 105 94 58 102 90 53 97 85 47 90 77 38 87 74 35 88 73 34 87 74 33 
88 74 33 89 75 34 91 76 35 90 75 35 89 74 34 87 72 32 84 69 30 81 67 28 
79 71 30 79 73 31 79 73 32 80 74 33 80 74 35 80 73 36 80 74 37 81 74 38 
81 74 38 80 73 38 79 72 38 79 71 37 78 71 36 78 70 35 78 70 35 79 72 37 
79 72 36 79 72 35 79 72 34 83 77 37 89 83 42 94 88 46 95 89 46 97 86 47 
102 79 49 100 75 47 99 72 46 101 73 48 97 66 44 91 57 38 82 46 29 86 47 32 
92 51 37 99 57 45 
93 61 59 95 63 60 93 64 52 92 63 48 92 62 47 90 60 43 90 58 40 90 57 38 
91 58 36 93 60 35 95 63 35 99 66 36 102 68 37 102 68 35 94 60 25 93 60 23 
95 63 25 96 66 26 98 68 28 100 71 29 101 73 31 101 74 31 101 74 31 99 74 30 
98 73 30 98 72 30 102 68 32 101 65 31 99 63 29 97 61 27 97 62 28 98 64 31 
101 67 35 102 69 38 101 70 39 98 69 39 93 66 37 91 65 39 96 73 49 93 71 50 
88 68 49 80 64 47 77 62 49 76 63 52 76 66 57 80 71 64 83 75 70 81 75 72 
81 76 73 80 76 73 76 74 73 77 75 74 77 76 74 78 76 74 77 75 73 75 73 71 
73 71 69 74 73 70 74 73 71 72 72 69 72 71 69 70 71 68 68 69 66 68 69 66 
68 69 67 69 71 68 70 72 70 70 72 71 70 73 72 69 72 71 68 70 70 65 68 68 
64 66 66 63 66 61 64 69 52 63 67 51 63 64 49 62 62 48 65 62 48 69 63 48 
72 63 50 76 64 51 80 64 52 83 63 51 85 62 51 87 62 50 89 63 50 94 67 53 
96 68 54 95 68 53 90 64 48 86 60 43 81 57 39 81 58 40 81 59 39 80 59 39 
79 59 38 80 59 43 83 59 51 81 58 50 82 58 50 84 59 51 88 62 55 90 64 57 
91 64 57 90 63 56 90 63 56 92 63 56 95 65 60 95 64 58 94 62 56 94 62 57 
93 60 55 90 56 51 85 50 46 83 47 43 83 48 43 87 50 47 90 53 49 91 54 50 
90 53 50 97 52 49 104 51 48 104 51 48 104 50 47 103 50 47 103 50 47 104 50 47 
104 51 48 106 52 49 106 52 49 105 52 49 104 51 48 104 51 48 104 51 48 104 51 48 
105 51 48 105 51 48 104 51 48 104 51 48 104 50 47 103 50 47 103 49 47 102 49 46 
102 48 45 95 49 44 91 49 45 93 51 48 90 49 48 91 51 52 100 61 64 98 60 66 
96 60 70 99 63 77 97 62 80 94 60 80 90 57 78 91 59 81 91 60 83 91 60 85 
92 61 87 93 62 87 93 62 87 93 62 86 92 61 85 92 61 83 92 61 82 91 60 81 
91 59 80 93 60 81 94 61 81 95 61 82 93 60 80 91 57 78 88 54 75 89 56 76 
90 58 78 92 61 80 91 59 79 88 57 77 84 54 73 87 57 77 88 58 77 86 56 76 
85 56 75 84 56 75 84 56 75 85 57 76 86 58 77 85 57 76 83 56 75 81 55 73 
81 54 71 84 57 65 83 56 61 80 54 59 80 56 60 80 57 60 77 56 58 73 54 54 
73 57 55 77 63 58 79 67 60 75 64 57 70 59 51 74 63 55 75 62 55 74 60 52 
75 59 51 77 59 52 80 59 53 81 58 51 83 57 51 86 57 52 91 61 55 96 65 60 
100 68 63 95 63 58 93 60 55 92 58 53 92 59 51 92 59 49 92 59 46 92 59 44 
92 59 41 93 60 40 98 65 41 102 70 43 102 71 41 93 63 32 93 63 30 93 64 29 
91 65 27 89 65 26 88 65 26 87 65 25 86 66 25 87 67 26 89 70 29 91 73 31 
92 77 36 91 84 51 94 88 56 94 88 57 87 81 52 78 74 47 75 71 47 80 77 56 
85 83 64 86 85 69 83 81 69 79 78 68 78 77 69 80 78 71 75 73 67 71 69 63 
71 68 62 72 67 62 70 64 58 64 58 50 64 57 49 65 57 48 66 59 48 82 74 63 
91 82 75 93 82 83 83 70 72 78 64 67 80 65 67 87 69 72 90 69 73 88 64 70 
87 60 67 88 58 66 90 57 66 90 56 65 92 58 67 96 61 70 94 59 68 92 57 67 
90 55 65 88 55 64 87 55 64 86 56 64 86 58 65 86 59 66 86 60 66 85 59 65 
78 59 58 71 62 51 99 90 79 99 91 80 84 75 64 76 68 56 69 62 50 65 58 46 
68 61 49 68 62 50 67 62 49 71 66 54 68 64 51 64 60 47 66 62 49 69 66 53 
74 72 58 81 79 66 82 80 66 78 76 63 69 67 53 65 64 50 65 64 50 71 71 57 
79 76 65 84 79 70 81 76 67 80 74 65 79 73 63 80 74 63 80 73 62 79 72 60 
79 71 57 80 72 58 83 74 59 88 77 61 88 77 59 87 75 56 84 72 52 81 69 48 
79 66 44 79 66 43 80 66 43 82 68 43 85 69 45 84 69 43 82 68 41 82 66 40 
82 69 45 81 72 49 80 71 48 79 69 47 77 68 45 77 67 45 77 67 45 77 67 45 
78 68 46 79 70 47 80 71 48 82 72 50 80 71 48 79 69 47 79 69 46 80 71 48 
81 71 49 79 70 47 76 66 44 74 65 42 75 65 43 76 67 44 77 68 45 78 68 46 
82 67 48 85 68 50 86 69 51 88 70 51 88 71 50 89 70 49 87 70 45 86 69 43 
86 68 41 86 69 40 87 70 40 88 71 39 82 66 33 80 66 31 81 68 33 81 70 34 
82 72 35 83 75 37 86 80 41 89 84 44 91 87 47 87 85 45 83 81 41 78 76 38 
81 74 51 83 74 57 85 77 58 87 78 58 87 77 57 85 76 54 83 73 50 81 70 46 
80 68 43 82 72 44 84 73 44 85 73 44 84 72 42 83 70 40 82 69 39 82 68 38 
82 69 38 83 69 39 85 70 40 84 69 40 83 67 39 79 64 36 76 61 33 73 60 31 
73 66 34 73 68 35 73 68 36 74 69 38 75 69 40 75 70 41 76 70 42 76 71 44 
76 71 44 75 70 43 75 69 44 74 68 44 72 66 40 72 67 40 73 68 41 73 68 41 
73 67 40 72 67 39 72 67 38 75 69 40 77 72 41 78 73 41 78 73 40 79 72 41 
85 68 43 84 65 41 84 64 42 91 69 48 91 67 48 88 61 45 79 50 36 85 53 41 
94 60 50 105 70 61 
86 59 59 86 59 58 81 61 50 79 60 46 78 57 43 76 55 40 74 53 37 73 52 34 
73 51 32 74 51 31 75 52 31 76 53 30 77 53 30 78 53 29 74 51 25 75 51 25 
76 53 26 76 54 26 76 55 27 78 57 29 82 62 35 81 62 35 78 60 32 76 58 30 
75 56 29 71 53 28 62 44 22 59 41 20 58 41 20 59 41 21 59 42 21 60 44 23 
64 48 27 68 53 31 71 58 35 76 63 41 73 61 40 72 60 40 76 67 49 74 67 49 
70 65 47 64 61 46 60 59 45 57 58 46 57 58 48 56 59 50 55 60 52 55 63 55 
55 63 55 56 61 54 58 56 51 59 56 52 60 57 53 62 59 56 62 59 56 62 59 56 
62 59 56 60 59 55 59 58 54 57 56 52 56 55 51 55 55 51 54 55 50 54 55 51 
55 56 51 56 57 52 56 57 54 56 58 55 57 58 56 57 59 56 57 59 56 57 59 56 
54 56 53 57 58 53 65 66 55 66 66 55 67 67 56 69 67 57 73 69 58 75 69 59 
77 69 60 78 67 59 77 65 56 75 61 52 74 57 49 73 54 46 71 52 42 73 52 42 
74 53 42 74 53 42 75 53 41 76 54 42 78 57 44 80 59 46 80 59 46 79 58 45 
76 55 43 73 54 45 69 52 49 67 51 49 68 51 49 71 54 51 75 58 56 77 59 58 
78 59 57 76 57 56 75 55 54 75 54 53 77 54 55 77 53 54 76 52 52 78 54 55 
79 54 54 77 51 52 75 47 50 75 47 48 75 48 48 78 50 52 79 51 53 80 51 52 
78 49 51 82 51 50 86 53 49 86 53 48 85 52 48 84 51 47 83 50 45 84 51 46 
85 52 47 85 52 47 85 52 47 85 51 47 84 51 46 85 52 48 86 53 49 86 53 48 
86 53 48 86 53 48 87 54 50 87 54 49 87 54 49 87 54 49 86 52 48 85 52 47 
86 52 48 82 51 43 80 50 41 83 53 45 77 48 42 73 45 41 74 46 44 72 46 47 
71 46 50 72 47 53 71 46 56 69 45 57 66 43 56 66 44 58 66 44 60 67 45 61 
68 46 63 69 47 64 70 48 64 70 48 64 71 48 63 71 48 61 71 49 62 71 48 61 
70 47 59 71 46 59 72 47 60 73 48 61 72 47 60 71 46 59 68 43 56 68 42 55 
68 44 57 70 48 60 70 47 59 66 44 56 60 39 50 65 44 55 67 46 57 65 45 56 
63 43 54 63 43 55 64 45 56 67 48 59 71 52 64 76 57 68 77 59 69 78 60 71 
79 61 71 75 58 61 72 55 56 70 53 54 72 55 56 72 56 56 70 56 54 67 55 52 
70 58 54 74 64 58 75 66 59 69 61 52 62 54 45 66 58 50 68 58 51 68 57 50 
69 58 50 71 59 51 73 59 51 73 58 49 72 56 48 72 54 46 73 55 45 75 57 47 
79 60 51 85 65 59 85 64 59 82 60 56 80 58 52 80 57 50 80 57 48 80 57 46 
80 57 45 79 57 43 81 58 42 84 61 43 83 61 42 74 52 31 73 53 30 74 55 30 
73 55 29 71 55 28 70 56 27 69 56 26 69 57 26 69 58 27 69 59 27 70 60 28 
67 59 27 57 54 22 63 61 28 66 65 33 62 59 29 55 53 25 54 54 28 64 64 41 
69 70 49 68 70 51 60 61 45 55 55 42 52 52 40 51 51 41 50 50 40 53 53 42 
62 60 49 67 64 53 71 67 56 73 69 56 73 68 54 71 66 51 67 61 45 66 60 42 
65 58 45 64 56 55 63 53 53 62 51 51 61 50 50 64 50 51 65 49 50 63 46 48 
68 48 51 72 49 53 75 50 55 71 45 50 70 42 48 71 42 48 72 44 49 73 45 51 
74 47 53 75 50 55 75 52 56 75 53 57 76 55 59 77 58 61 79 61 63 78 61 63 
70 58 52 61 55 39 70 65 49 69 64 48 62 58 41 59 55 38 58 54 37 59 55 39 
64 60 43 63 60 43 59 57 40 61 58 41 57 55 38 52 50 33 54 52 35 56 54 37 
58 57 39 61 60 42 62 61 43 62 61 44 61 60 42 61 61 43 60 62 43 58 60 41 
59 58 41 58 56 40 53 51 36 51 49 34 51 49 33 56 52 35 59 55 38 62 58 41 
63 58 40 64 59 40 65 60 40 68 61 41 71 65 43 73 67 44 73 65 41 72 64 41 
72 64 40 73 65 40 73 64 39 73 64 38 74 63 38 73 63 36 71 63 35 70 60 33 
70 61 45 70 62 54 68 60 52 66 58 50 65 57 48 65 57 48 65 57 49 67 59 51 
70 62 54 74 66 58 76 68 60 78 70 62 73 65 57 69 61 53 66 58 50 63 55 47 
63 55 46 64 56 48 65 57 49 65 58 49 65 57 49 64 56 48 62 54 46 59 51 43 
70 57 55 76 61 62 76 62 62 77 63 63 77 62 62 77 61 60 76 61 56 75 60 54 
74 59 53 75 59 52 75 59 50 75 59 49 69 54 42 67 53 40 70 57 42 66 55 39 
63 54 36 62 53 35 60 53 33 61 55 35 63 59 37 63 59 36 61 58 35 57 56 33 
58 50 38 59 49 40 60 50 39 63 53 41 64 54 41 64 55 40 62 52 38 61 50 35 
60 49 33 61 51 33 64 53 34 68 56 37 76 64 44 77 65 45 75 63 43 74 61 42 
74 60 42 74 61 43 77 63 45 76 61 45 73 58 43 69 54 38 64 49 34 61 48 31 
63 58 37 64 60 39 64 61 39 65 61 42 66 63 43 68 64 44 68 64 45 68 64 46 
68 64 48 68 64 47 67 63 48 66 62 47 63 59 42 64 60 43 65 61 44 63 59 42 
63 59 42 64 60 41 64 60 40 66 62 43 68 64 44 65 62 40 66 63 41 66 62 40 
65 56 35 62 53 33 63 53 34 68 57 40 71 57 42 70 54 41 65 46 34 71 50 41 
80 57 49 91 67 59 
