P3
8 8
255
120 68 5 180 105 8 225 160 18 255 220 70 225 160 18 180 105 8 120 68 5 80 42 4
180 105 8 245 190 28 255 230 90 255 240 120 255 230 90 245 190 28 180 105 8 120 68 5
225 160 18 255 230 90 255 245 140 255 250 170 255 245 140 255 230 90 225 160 18 180 105 8
255 220 70 255 240 120 255 250 170 235 170 18 255 250 170 255 240 120 255 220 70 225 160 18
225 160 18 255 230 90 255 245 140 255 250 170 255 245 140 255 230 90 225 160 18 180 105 8
180 105 8 245 190 28 255 230 90 255 240 120 255 230 90 245 190 28 180 105 8 120 68 5
120 68 5 180 105 8 225 160 18 255 220 70 225 160 18 180 105 8 120 68 5 80 42 4
80 42 4 120 68 5 180 105 8 225 160 18 180 105 8 120 68 5 80 42 4 55 28 3
