P3
16 16
255
255 255 255 255 255 255 255 255 255 255 255 255 254 255 250 254 253 249 249 253 252 255 245 147 254 220 51 255 244 138 255 250 255 252 253 255 255 252 255 253 255 236 255 255 255 255 255 255 
255 255 255 255 255 255 255 255 255 255 255 255 250 248 207 244 234 87 254 240 92 255 237 103 255 237 101 245 234 108 253 234 82 255 231 74 255 251 191 255 251 255 255 255 255 255 255 255 
255 255 255 255 255 255 254 255 250 254 246 138 253 239 89 252 242 109 255 229 116 140 106 6 139 97 21 148 110 1 254 225 85 255 226 63 255 216 64 225 171 13 255 255 245 255 255 255 
255 255 255 255 255 255 255 245 130 254 241 101 248 241 109 143 108 16 255 253 144 253 255 128 252 250 113 250 241 100 255 232 92 128 94 0 253 222 52 255 217 33 197 158 29 255 255 245 
255 254 245 253 246 200 255 241 93 248 238 107 242 237 133 255 255 139 254 254 140 189 145 12 193 153 3 191 154 11 255 226 73 254 221 56 255 216 66 245 208 32 255 208 6 255 241 221 
254 253 249 253 231 94 253 240 102 140 101 10 255 255 131 254 255 129 255 250 116 195 150 5 221 177 19 215 173 25 253 221 58 254 217 43 249 208 28 176 134 0 253 206 5 254 213 27 
246 255 232 255 231 94 255 224 100 252 253 113 255 248 116 253 245 110 255 238 106 203 158 3 231 188 24 219 180 25 252 215 39 252 205 27 246 200 17 241 197 2 249 201 3 246 200 1 
255 243 107 255 222 112 146 115 1 254 241 101 255 241 96 254 233 92 255 223 79 207 161 4 235 192 25 227 189 29 252 209 32 248 201 23 242 198 3 237 193 0 236 187 0 243 196 2 
234 192 10 255 225 77 156 110 14 254 228 81 254 228 81 255 225 67 255 220 52 210 171 8 236 195 25 226 188 28 244 202 20 241 197 2 236 191 0 234 189 2 254 210 13 240 193 1 
255 230 131 253 221 58 164 121 8 254 223 55 252 218 51 255 216 49 253 210 35 205 166 1 237 196 18 229 191 31 240 196 3 237 189 1 231 185 2 231 185 2 255 221 34 240 191 0 
248 255 237 251 217 50 253 218 54 250 213 39 253 208 29 251 207 23 251 204 13 208 166 6 234 193 3 230 188 18 234 186 0 231 182 0 227 181 0 226 179 3 244 189 0 237 190 0 
252 253 248 255 215 17 254 215 24 198 153 0 244 200 3 243 197 0 243 196 2 205 163 1 232 196 0 228 201 0 228 179 1 223 176 2 223 177 4 237 218 52 236 188 0 242 188 36 
255 251 255 253 242 197 255 203 12 251 204 0 236 191 4 238 191 0 236 189 0 197 165 18 232 193 4 228 194 35 222 172 0 219 173 0 210 173 7 240 182 12 233 188 1 255 250 238 
253 255 236 255 251 255 206 147 0 251 203 5 249 201 7 234 186 2 229 184 0 230 173 0 220 178 4 219 164 2 220 169 2 229 215 67 237 188 0 223 195 0 137 73 1 255 251 255 
255 255 255 255 255 255 253 254 255 163 121 21 243 200 0 245 197 1 243 195 0 255 228 55 255 252 111 255 238 99 238 185 0 233 189 2 234 186 0 135 78 9 255 252 253 255 255 255 
255 255 255 255 255 255 255 255 255 255 254 249 254 238 223 241 193 21 240 193 2 236 189 0 236 188 2 234 189 2 236 188 2 238 184 34 255 249 252 255 251 254 255 255 255 255 255 255 
