P3
32 64
255
0 0 0 0 0 0 0 0 0 0 0 0 0 0 0 0 0 0 0 0 0 0 0 0 0 0 0 0 0 0 0 0 0 0 0 0 0 0 0 0 0 0 0 0 0 1 1 1 1 1 3 0 0 0 0 0 0 0 0 0 0 0 0 0 0 0 0 0 0 0 0 0 0 0 0 0 0 0 0 0 0 0 0 0 0 0 0 0 0 0 0 0 0 0 0 0 
0 0 0 0 0 0 0 0 0 0 0 0 0 0 0 0 0 0 0 0 0 0 0 0 0 0 0 0 0 0 0 0 0 0 0 0 0 0 0 0 0 0 0 0 0 2 2 0 35 57 107 5 1 0 0 0 0 0 0 0 0 0 0 0 0 0 0 0 0 0 0 0 0 0 0 0 0 0 0 0 0 0 0 0 0 0 0 0 0 0 0 0 0 0 0 0 
0 0 0 0 0 0 0 0 0 0 0 0 0 0 0 0 0 0 0 0 0 0 0 0 0 0 0 0 0 0 0 0 0 0 0 0 0 0 0 0 0 0 3 3 11 30 68 151 33 70 150 32 72 144 1 0 0 0 0 0 0 0 0 0 0 0 0 0 0 0 0 0 0 0 0 0 0 0 0 0 0 0 0 0 0 0 0 0 0 0 0 0 0 0 0 0 
0 0 0 0 0 0 0 0 0 0 0 0 0 0 0 0 0 0 0 0 0 0 0 0 0 0 0 0 0 0 0 0 0 0 0 0 0 0 0 8 23 54 28 72 143 1 10 17 32 71 150 32 71 150 2 9 27 0 4 5 0 0 0 0 0 0 0 0 0 0 0 0 0 0 0 0 0 0 0 0 0 0 0 0 0 0 0 0 0 0 0 0 0 0 0 0 
0 0 0 0 0 0 0 0 0 0 0 0 0 0 0 0 0 0 0 0 0 0 0 0 0 0 0 0 0 0 0 0 0 2 4 3 145 179 84 2 11 28 5 16 44 28 70 144 0 1 21 33 55 78 124 197 247 125 195 246 52 83 104 1 1 1 0 0 0 0 0 0 0 0 0 0 0 0 0 0 0 0 0 0 0 0 0 0 0 0 0 0 0 0 0 0 
0 0 0 0 0 0 0 0 0 0 0 0 0 0 0 0 0 0 0 0 0 0 0 0 0 0 0 0 0 0 1 0 8 149 185 61 148 189 59 74 191 77 71 195 73 51 120 53 32 69 149 20 39 55 121 198 242 124 196 246 44 71 90 64 107 141 1 1 3 0 0 0 0 0 0 0 0 0 0 0 0 0 0 0 0 0 0 0 0 0 0 0 0 0 0 0 
0 0 0 0 0 0 0 0 0 0 0 0 0 0 0 0 0 0 0 0 0 0 0 0 0 0 0 3 3 3 239 100 119 146 181 79 8 23 4 126 152 61 0 14 0 34 56 116 4 15 35 67 120 160 74 102 126 130 184 228 66 125 165 77 121 168 66 118 155 2 2 2 0 0 0 0 0 0 0 0 0 0 0 0 0 0 0 0 0 0 0 0 0 0 0 0 
0 0 0 0 0 0 0 0 0 0 0 0 0 0 0 0 0 0 0 0 0 0 0 0 6 6 4 24 0 4 212 105 123 43 4 9 145 188 55 153 190 59 150 190 58 127 155 71 73 123 174 71 124 168 67 120 164 71 101 129 71 122 167 71 124 168 71 122 169 74 122 158 0 0 0 0 0 0 0 0 0 0 0 0 0 0 0 0 0 0 0 0 0 0 0 0 
0 0 0 0 0 0 0 0 0 0 0 0 0 0 0 0 0 0 0 0 0 3 5 0 205 65 84 116 30 43 139 55 73 218 101 122 110 36 51 151 188 56 150 191 63 145 184 55 0 9 37 71 124 168 71 124 168 64 123 165 72 122 159 71 125 171 3 15 29 70 123 165 73 125 165 8 0 0 0 0 0 0 0 0 0 0 0 0 0 0 0 0 0 0 0 0 
0 0 0 0 0 0 0 0 0 0 0 0 0 0 0 0 0 0 6 6 8 18 3 0 200 61 82 76 14 15 154 58 72 231 106 126 196 64 78 89 109 58 102 122 59 6 5 10 67 125 173 70 122 162 71 124 168 2 9 27 128 190 237 66 92 117 73 126 166 71 123 170 71 126 167 0 9 22 4 4 6 0 0 0 0 0 0 0 0 0 0 0 0 0 0 0 
0 0 0 0 0 0 0 0 0 0 0 0 0 0 0 3 2 0 238 104 121 198 94 109 197 60 78 201 65 79 21 0 1 226 106 116 202 63 82 20 40 51 126 194 243 72 62 35 98 134 156 52 79 106 66 103 132 129 199 250 123 196 246 124 182 220 71 124 166 70 124 172 53 69 20 149 189 54 153 189 63 4 2 5 0 0 0 0 0 0 0 0 0 0 0 0 
0 0 0 0 0 0 0 0 0 0 0 0 3 3 5 199 71 94 233 102 122 238 101 119 26 2 0 110 69 77 211 103 119 32 9 17 202 61 83 27 42 11 155 191 68 234 205 111 10 5 1 33 71 154 39 59 120 69 100 128 121 197 246 101 144 176 114 155 183 64 121 166 66 97 125 152 183 64 145 187 59 14 17 0 0 0 0 0 0 0 0 0 0 0 0 0 
0 0 0 0 0 0 0 0 0 0 0 0 35 6 10 89 21 34 73 13 23 169 78 93 236 102 121 150 64 79 201 65 80 80 20 28 201 62 83 150 182 83 183 165 99 226 202 104 242 210 102 36 76 145 31 69 150 40 68 141 86 82 35 15 7 0 29 45 60 9 23 0 4 17 26 127 186 226 7 16 31 175 68 86 56 11 18 0 0 0 0 0 0 0 0 0 
0 0 0 0 0 0 0 0 0 10 1 4 58 7 14 205 64 88 32 0 1 75 20 25 196 68 85 6 4 5 201 70 90 152 58 72 139 48 63 67 18 24 16 6 0 213 191 115 231 204 99 67 55 15 38 30 10 231 200 94 227 202 102 232 204 105 140 167 70 151 191 59 156 192 60 97 37 39 49 9 12 173 63 90 76 24 26 3 1 6 0 0 0 0 0 0 
0 0 0 0 0 0 0 0 0 17 1 1 228 103 123 226 112 128 199 71 88 83 184 82 55 4 9 202 64 80 183 71 86 148 49 70 97 173 99 206 68 84 68 55 23 32 20 4 41 32 0 232 204 103 164 150 87 195 175 122 11 6 2 229 203 106 0 1 10 144 188 49 59 82 28 201 62 83 234 106 121 189 72 89 38 8 10 34 1 8 0 0 0 0 0 0 
0 0 0 0 0 0 60 18 30 109 57 62 62 17 20 229 101 116 159 83 96 76 195 75 84 166 90 233 231 95 253 247 47 255 248 44 255 246 55 222 217 89 12 5 0 231 204 99 229 204 102 226 205 100 231 207 107 41 76 80 156 140 79 223 199 111 14 37 53 131 193 232 49 5 6 188 68 82 236 105 121 195 60 82 195 64 80 94 49 52 4 2 3 0 0 0 
0 0 0 1 1 1 220 107 125 235 102 124 223 110 130 238 99 120 120 40 49 49 94 53 249 251 43 254 248 51 243 243 69 19 14 0 53 55 5 252 245 43 248 241 62 197 182 115 63 48 17 26 16 6 1 5 8 119 203 214 3 4 0 166 154 96 3 12 17 130 180 217 41 9 14 169 71 86 199 106 124 102 43 47 188 69 89 23 2 0 187 66 84 0 0 0 
0 0 0 6 5 3 158 54 71 28 3 7 12 0 0 240 106 123 198 61 81 201 202 64 255 247 44 5 4 2 253 251 45 253 247 49 253 248 58 27 27 0 78 72 20 251 247 52 248 246 63 58 55 10 254 248 50 151 148 45 196 184 112 152 135 81 230 207 103 229 204 101 232 205 98 235 204 98 13 1 3 145 63 78 28 0 0 202 65 83 199 65 80 1 0 0 
0 0 0 93 48 55 132 56 69 148 56 69 27 1 2 79 36 45 187 70 89 255 251 48 58 56 8 249 247 49 254 248 50 139 134 52 143 139 42 251 248 49 36 32 0 244 208 36 254 243 63 242 241 39 233 234 79 255 248 51 246 247 48 46 41 12 222 201 120 228 207 100 201 181 120 15 9 11 201 62 83 203 64 85 195 63 79 200 61 84 187 73 89 8 3 0 
0 0 2 0 16 0 237 101 116 232 105 125 240 103 123 239 102 120 2 0 3 255 255 42 246 249 48 253 250 51 252 249 72 237 210 7 252 245 51 255 248 52 253 245 49 224 198 39 189 170 49 255 250 50 29 23 0 254 248 50 255 247 50 250 249 47 142 137 82 9 5 0 216 199 121 14 0 2 194 66 81 198 66 82 59 17 21 238 105 118 236 101 124 115 55 65 
2 2 0 2 16 0 140 174 79 13 15 0 26 37 5 149 186 72 19 19 0 225 224 84 255 248 48 255 247 51 176 166 42 205 185 52 219 214 71 255 248 51 255 249 49 17 9 0 248 213 8 217 211 61 247 245 64 251 247 52 255 248 51 255 248 51 241 242 50 24 24 0 210 55 79 160 69 87 193 62 80 203 62 86 194 65 88 23 3 4 67 26 32 109 137 78 
0 4 0 151 192 52 151 191 59 150 185 55 31 43 3 150 189 60 29 30 0 22 16 0 254 248 50 105 108 5 247 209 4 65 51 2 12 6 0 254 248 50 255 248 51 248 240 70 246 207 6 11 8 0 254 246 50 250 249 63 255 248 51 255 248 51 254 246 50 27 2 8 128 46 58 32 71 150 3 2 18 6 51 12 74 191 85 1 26 0 93 177 100 148 197 56 
3 1 4 149 190 52 151 192 64 33 80 36 83 194 89 153 194 66 12 14 0 4 0 0 254 245 52 198 178 57 248 210 5 7 5 6 213 212 86 254 245 54 255 248 51 252 249 60 240 208 11 57 49 3 255 248 44 35 26 0 255 249 49 255 248 51 255 248 51 255 250 34 40 71 151 30 68 149 1 2 30 70 193 77 230 109 127 130 56 71 239 108 116 8 9 1 
0 4 0 29 55 113 29 67 142 72 192 76 72 192 77 6 17 21 5 6 10 5 0 0 240 241 77 239 213 4 17 11 0 130 117 109 254 249 46 250 250 76 255 248 52 255 248 51 57 61 26 228 205 49 248 251 50 235 234 84 253 245 48 255 248 51 255 248 51 255 249 49 243 242 56 39 75 153 45 107 42 72 192 77 58 12 15 115 52 61 205 100 120 164 56 70 
1 1 9 32 71 148 0 8 30 84 169 88 79 187 84 75 128 172 27 53 101 60 60 24 8 5 0 38 22 0 244 226 204 246 229 211 254 248 48 97 93 22 255 247 50 255 248 51 250 247 44 169 148 41 255 244 54 255 250 47 13 9 0 244 240 47 253 245 48 167 169 62 255 249 51 252 248 63 1 30 12 84 186 87 43 1 5 201 65 80 196 66 79 203 63 79 
1 1 9 0 3 19 83 122 153 84 114 150 66 102 134 78 122 169 26 67 149 10 15 47 2 0 11 251 224 203 249 226 208 245 223 202 235 228 76 255 247 42 41 37 0 255 248 51 255 248 54 255 254 52 7 3 0 255 247 56 255 247 42 247 243 48 254 250 53 151 141 52 255 250 53 255 248 51 255 246 55 254 251 48 104 38 48 202 65 85 205 66 85 143 53 63 
0 1 3 150 190 58 150 188 65 21 33 59 61 91 115 47 67 92 32 62 146 30 71 153 0 7 17 251 226 208 249 226 208 247 226 205 156 142 141 254 249 46 254 249 46 31 19 3 254 247 47 255 249 51 250 241 58 22 20 0 254 246 50 251 249 53 37 35 0 232 229 56 255 248 51 255 248 51 255 247 50 1 7 0 0 8 21 34 5 7 62 76 23 148 187 58 
1 1 0 150 191 53 151 191 59 145 176 72 123 195 241 123 196 249 124 193 250 127 197 249 147 133 124 251 224 207 249 226 208 249 226 208 247 226 205 14 8 0 253 249 52 252 246 46 170 172 65 89 85 12 252 247 59 255 246 53 246 244 82 9 9 9 197 193 58 252 249 46 255 247 51 255 250 63 16 3 0 235 210 32 77 123 157 6 23 41 150 183 66 155 185 73 
2 5 0 63 82 27 153 191 70 155 185 69 127 180 222 125 197 247 126 196 247 17 34 54 124 111 105 246 230 217 245 225 214 243 223 199 248 225 207 28 19 14 13 19 0 217 216 64 123 120 17 253 248 58 252 250 54 253 248 45 255 245 55 251 249 51 53 44 5 233 213 31 239 211 42 238 210 15 241 215 7 72 64 0 78 122 167 145 187 53 151 190 63 150 186 63 
1 3 2 126 192 244 92 124 149 115 161 195 129 193 238 128 194 246 110 163 194 254 229 209 247 227 202 243 227 204 246 223 205 243 225 203 247 224 208 218 214 81 255 250 52 223 206 196 174 159 152 249 244 54 255 248 51 255 249 49 254 246 49 218 215 76 235 208 5 244 212 3 244 212 5 239 210 8 158 135 31 105 145 178 0 8 18 151 188 56 148 191 58 56 68 22 
3 2 0 119 195 244 38 67 124 32 68 154 4 20 46 132 195 240 128 198 250 237 215 204 249 227 206 248 225 207 248 227 206 248 230 210 15 4 10 250 246 51 20 22 0 11 7 6 62 52 43 32 35 8 10 5 0 11 9 0 86 87 7 236 236 60 7 6 1 86 73 3 25 17 0 95 93 19 218 215 74 124 194 243 66 103 132 8 27 43 28 45 65 72 119 161 
0 0 5 3 10 39 28 72 143 32 71 150 32 70 151 3 14 44 1 10 25 4 2 7 249 227 206 248 225 207 239 222 204 30 26 0 251 248 45 39 40 0 89 74 5 21 18 11 225 212 194 53 53 3 255 247 44 255 245 50 251 249 42 255 249 49 254 249 46 22 23 7 255 247 48 255 249 52 254 246 49 134 192 237 126 194 241 126 196 247 0 2 16 74 119 160 
2 2 4 40 74 138 30 69 144 32 71 150 32 69 149 21 36 57 69 122 162 2 0 6 245 224 205 248 225 207 245 228 208 136 134 119 230 209 34 224 199 47 53 45 34 250 227 211 216 200 27 237 207 23 252 248 35 254 245 52 255 248 51 255 248 51 255 248 51 167 172 46 255 245 59 255 248 51 251 247 50 123 192 249 111 165 201 134 196 247 0 4 16 72 114 152 
0 1 3 33 74 162 6 6 18 30 71 153 29 70 149 71 123 160 69 122 166 2 1 7 246 228 206 249 226 208 228 213 192 10 5 0 149 145 142 105 200 206 114 202 214 119 199 208 243 215 10 245 213 14 252 245 53 250 247 48 253 245 56 255 248 51 255 248 51 253 247 47 254 245 52 255 248 51 244 241 74 88 145 188 59 109 144 27 85 122 23 44 63 73 113 146 
0 0 2 28 69 151 33 70 150 130 188 226 31 50 92 71 124 168 70 122 169 71 122 169 244 226 206 248 227 208 247 226 205 247 225 202 39 39 31 110 205 209 112 205 212 113 205 216 222 191 25 246 207 8 255 248 48 125 124 32 130 134 40 255 247 50 255 248 51 255 248 44 154 149 55 252 249 50 8 10 7 0 3 19 0 7 20 16 33 51 29 38 53 48 66 88 
0 0 2 27 72 155 14 28 55 125 196 248 125 195 246 3 18 37 69 122 166 75 122 164 81 78 69 219 207 191 42 38 37 4 10 10 204 186 172 112 205 213 111 205 213 109 206 215 61 46 0 243 211 14 251 245 47 203 178 34 178 153 35 250 248 50 255 248 51 255 247 50 230 221 80 254 246 57 0 5 19 69 121 168 25 56 103 30 71 150 32 71 150 30 56 105 
2 0 3 32 70 151 43 64 83 126 196 247 126 196 247 121 197 246 0 1 22 20 41 60 126 195 250 126 196 247 125 195 246 135 195 231 250 225 203 26 22 19 45 89 88 23 0 12 29 27 28 218 103 160 39 9 19 241 213 26 221 206 27 88 85 18 255 247 50 255 248 51 253 247 49 24 16 0 174 176 67 69 120 167 38 68 130 34 69 151 26 73 151 26 50 96 
1 1 1 0 8 28 133 191 229 128 195 247 126 196 247 131 194 237 31 69 150 28 71 150 10 24 61 128 192 238 18 1 17 89 26 55 40 30 28 251 97 173 52 7 30 35 1 18 44 23 30 6 1 5 53 48 27 35 21 0 113 96 16 242 213 15 238 236 73 251 248 49 255 249 51 255 249 52 121 114 42 4 6 5 36 66 128 118 66 71 10 0 10 1 8 28 
0 0 0 129 200 246 123 200 254 12 33 60 131 185 229 20 38 84 8 5 14 23 36 80 28 70 152 32 69 147 4 12 22 243 93 170 51 6 29 112 53 75 248 150 209 26 2 16 253 178 221 255 178 222 255 178 222 246 182 217 220 200 43 18 5 0 244 212 16 191 187 78 253 246 44 254 248 48 255 248 51 255 248 51 5 6 0 21 2 4 18 4 3 96 123 144 
0 0 2 130 196 248 126 196 247 126 196 247 125 201 248 76 76 76 254 254 254 2 2 2 96 97 102 31 72 151 32 71 150 32 16 26 201 157 180 248 145 202 38 5 26 255 177 222 255 178 222 255 178 222 255 178 222 254 179 222 135 93 115 234 208 25 60 47 0 190 164 17 112 95 17 101 98 31 250 243 73 91 87 26 23 1 4 202 65 83 203 64 83 1 6 12 
0 0 0 128 196 243 126 196 247 125 195 244 4 4 6 242 242 244 252 252 252 0 0 0 219 217 220 31 69 150 6 4 9 32 21 1 208 132 171 249 146 203 248 182 220 255 178 222 255 178 222 255 178 222 255 178 222 255 178 222 251 178 221 151 97 125 243 211 14 5 1 16 248 246 50 254 246 57 248 246 84 36 62 123 16 35 78 202 64 80 207 62 85 59 76 86 
0 0 0 128 197 236 123 194 246 12 36 62 0 0 0 254 254 254 255 255 255 151 151 151 201 205 208 1 4 19 0 14 16 28 22 0 252 142 203 53 16 34 255 179 223 255 178 222 255 178 222 255 178 222 255 178 222 255 178 222 255 179 225 255 142 198 240 212 17 236 213 14 247 241 67 249 251 46 255 248 51 252 250 44 30 41 73 28 7 2 118 44 61 10 18 3 
0 0 0 75 98 129 85 107 131 4 14 23 255 255 255 255 255 255 255 255 255 255 255 255 220 220 218 119 208 224 91 82 41 5 3 6 253 145 205 85 54 72 255 178 222 255 178 222 255 178 222 255 178 222 255 178 222 255 178 222 250 177 220 252 147 206 122 108 22 242 212 2 255 246 53 163 157 37 254 248 50 255 248 48 0 6 17 71 123 170 4 10 6 1 3 0 
0 0 0 72 120 156 43 65 86 64 101 128 254 254 254 255 255 255 255 255 255 255 255 255 177 182 175 106 203 212 235 201 101 64 32 47 254 146 206 215 161 189 255 178 222 255 178 222 255 178 222 255 178 222 255 178 222 255 178 222 241 181 217 253 146 202 26 13 0 245 210 5 252 250 52 254 246 49 239 240 85 254 246 49 125 123 36 9 13 0 9 19 0 31 41 53 
0 0 0 0 4 7 0 3 9 71 126 164 252 254 253 255 255 255 255 255 255 255 255 255 0 1 0 67 59 49 30 16 0 216 170 198 254 145 204 51 28 46 255 178 222 255 178 222 255 178 222 255 178 222 255 178 222 255 178 220 18 1 7 254 146 206 79 62 10 246 215 29 255 246 55 255 249 52 36 26 1 33 28 0 16 19 0 8 23 0 152 190 51 18 28 4 
0 0 0 145 176 72 150 190 58 0 6 16 76 70 80 255 255 255 255 255 255 250 250 252 55 43 19 229 201 102 253 177 223 245 174 218 226 146 185 235 148 193 252 180 220 255 178 222 255 178 222 255 178 222 255 178 222 234 175 207 248 141 193 251 146 202 223 199 29 18 10 0 255 249 51 250 247 48 28 26 1 121 148 71 149 191 57 9 22 0 8 15 31 2 2 10 
0 0 0 140 163 81 144 191 51 148 176 76 37 65 128 251 251 251 255 255 255 115 115 117 37 67 137 241 185 224 253 178 221 3 1 4 229 181 205 139 131 118 201 195 179 144 106 131 248 175 218 245 174 216 134 98 124 248 150 201 252 145 199 172 89 97 23 1 4 249 245 74 251 245 47 251 248 49 202 199 70 148 188 63 150 190 58 151 191 58 36 56 109 1 4 19 
0 0 0 125 176 207 118 165 211 32 73 129 29 72 151 152 150 151 255 255 255 255 255 251 30 66 126 0 13 42 255 180 223 32 10 23 253 251 252 246 227 211 249 227 206 249 227 204 28 0 13 253 145 205 251 145 209 255 146 205 42 9 26 124 39 60 10 5 0 153 74 95 236 233 66 85 23 38 96 33 52 154 186 75 150 191 59 147 190 57 10 20 0 1 6 25 
1 1 1 125 170 209 70 188 76 10 28 66 29 72 150 3 14 36 254 254 254 255 255 255 251 251 251 29 67 152 125 87 104 31 7 20 254 254 254 8 4 1 250 225 205 248 226 205 252 229 213 51 17 34 27 1 12 24 6 6 117 41 53 130 48 60 196 103 114 232 105 122 203 62 84 22 1 0 236 105 123 236 104 120 206 114 119 7 7 0 8 4 0 0 8 19 
0 0 0 125 154 172 74 191 74 80 164 76 34 63 120 33 71 136 254 254 254 255 255 255 255 255 253 45 37 35 27 69 141 251 255 250 255 255 255 5 5 5 10 7 0 245 226 212 236 143 197 254 146 205 235 147 197 246 214 17 180 63 82 203 63 82 194 66 83 156 58 75 38 4 5 85 46 53 110 55 63 123 60 77 27 0 0 165 89 102 195 63 76 12 2 3 
0 0 0 84 100 113 67 194 77 1 17 6 148 189 59 45 71 86 23 21 22 254 254 254 255 255 255 252 252 252 3 5 4 255 255 253 255 255 255 254 254 254 254 254 254 255 254 255 242 149 204 206 140 178 26 10 21 221 204 37 116 40 52 198 64 81 85 28 35 19 1 1 198 64 81 222 105 126 193 68 88 203 105 118 38 0 0 234 107 124 46 14 19 12 1 0 
0 0 0 98 118 57 0 11 0 149 191 63 149 188 59 42 66 94 72 122 159 254 254 254 255 255 255 255 255 255 8 8 8 255 255 255 255 255 255 251 251 251 243 243 243 163 163 163 19 0 10 252 100 175 6 8 0 2 15 0 20 5 10 201 64 82 197 64 83 123 41 56 199 65 82 219 111 135 216 107 126 79 22 31 198 64 81 236 102 121 233 102 120 11 1 0 
0 0 0 86 103 48 10 1 4 6 6 0 75 90 33 2 20 30 72 123 168 0 5 9 253 253 253 255 255 255 254 254 254 255 255 255 254 254 254 191 193 192 253 96 177 252 99 173 254 94 174 255 99 174 5 9 0 68 191 75 67 195 74 185 60 80 186 68 85 77 21 32 200 63 83 151 53 68 233 104 125 219 101 118 27 0 0 234 100 119 116 45 55 5 1 0 
0 0 0 73 20 28 76 12 26 34 3 8 198 65 84 200 62 78 190 73 90 59 86 113 251 249 250 254 254 254 255 255 255 255 255 255 206 210 211 246 98 168 255 99 174 255 99 174 255 99 174 255 99 174 251 101 165 73 186 80 76 163 82 1 20 0 45 5 8 112 39 58 207 60 81 204 61 79 188 65 83 119 54 58 187 95 108 227 109 125 199 70 90 3 2 0 
0 0 2 66 16 19 232 104 121 24 3 2 177 94 102 12 2 0 48 6 7 237 73 134 235 70 131 255 251 250 254 254 254 122 123 118 251 98 172 253 99 175 255 99 174 255 99 174 255 99 174 255 99 174 235 99 165 167 69 86 199 65 80 203 63 82 55 10 15 175 74 94 195 68 87 98 31 38 145 59 70 159 62 81 23 0 0 193 69 87 198 59 78 2 7 3 
0 0 2 43 7 11 232 104 117 200 65 87 49 8 14 172 70 84 235 104 122 250 64 137 252 65 136 210 70 123 122 48 81 248 94 170 132 51 84 255 97 173 253 100 174 255 99 174 255 99 174 251 97 173 193 68 88 196 61 84 20 0 0 21 3 3 218 110 133 200 65 87 198 66 88 142 61 78 203 64 85 75 15 23 200 66 85 160 63 80 235 103 127 0 4 0 
1 0 0 35 3 6 229 107 122 191 71 85 200 63 83 29 0 0 65 14 21 249 66 136 248 70 138 53 8 28 46 6 30 250 98 172 250 98 173 8 0 2 92 32 60 240 111 170 246 104 170 37 1 15 204 64 80 48 12 14 106 32 47 237 105 121 198 59 80 94 28 32 190 66 80 190 73 92 46 10 12 204 61 79 19 3 4 236 104 120 237 104 123 0 3 2 
0 0 0 26 3 0 60 8 12 132 69 80 35 4 1 242 105 125 11 1 0 239 75 138 155 73 113 255 98 174 251 98 180 26 0 11 250 101 174 245 67 135 255 66 138 253 66 137 248 68 134 164 57 73 204 65 84 47 9 9 10 2 2 44 5 12 21 0 1 9 0 0 197 66 82 200 62 78 230 103 122 171 63 76 207 64 84 67 21 31 4 30 1 5 0 4 
0 0 0 27 1 4 192 64 79 204 67 87 51 15 15 198 97 113 248 176 216 36 12 26 248 99 173 253 100 174 251 98 172 252 65 134 193 61 110 137 31 67 250 68 135 251 66 136 255 64 134 199 70 91 201 64 84 239 108 126 234 107 118 188 64 80 204 65 84 11 2 5 204 64 83 194 70 88 233 101 123 21 0 0 199 61 84 151 193 65 77 158 81 1 2 6 
0 0 0 3 17 0 187 68 88 201 64 82 193 65 82 248 180 221 252 175 219 247 175 223 178 72 120 252 95 176 120 44 82 249 67 134 255 67 136 253 68 138 247 96 163 88 60 74 65 18 36 40 0 7 197 63 82 236 103 124 190 94 108 231 114 133 61 12 18 135 49 60 201 64 84 32 2 4 236 102 119 40 9 7 5 4 0 75 190 73 0 35 0 1 2 4 
0 0 0 0 10 0 113 143 57 4 8 0 71 38 59 252 177 220 254 178 224 83 38 61 255 148 204 196 102 136 95 21 48 252 65 136 253 66 135 111 37 60 149 189 57 151 191 59 155 192 61 18 3 6 208 60 87 57 12 17 235 102 123 42 6 10 46 6 9 210 97 119 23 1 3 162 61 67 236 103 122 11 2 0 203 65 81 69 194 76 73 194 75 2 3 5 
0 0 2 3 6 0 153 189 63 123 152 68 253 181 221 252 179 224 68 40 55 254 144 205 255 146 205 250 150 204 51 4 20 253 64 136 252 65 134 73 20 48 123 155 70 151 190 61 150 191 51 172 64 78 202 63 82 200 63 81 28 0 0 119 57 70 21 1 2 160 63 80 200 60 79 97 46 53 236 103 122 150 58 73 193 71 84 74 191 84 79 193 82 3 1 6 
0 0 0 5 3 8 8 12 0 186 142 167 255 180 221 252 179 224 244 144 198 255 147 206 255 147 206 255 147 206 251 147 206 197 125 163 112 25 59 250 97 171 246 101 172 110 138 54 0 16 3 108 35 52 201 64 84 201 64 82 204 61 79 201 64 84 201 62 81 202 63 84 113 35 49 235 103 117 182 90 105 206 59 78 9 1 0 149 188 63 150 190 55 2 2 4 
0 0 0 3 3 1 149 183 63 248 177 221 254 177 221 39 16 34 253 145 207 255 146 207 255 147 206 255 147 206 255 147 206 246 146 202 255 179 226 252 179 224 185 137 161 45 94 49 72 194 81 82 179 98 194 66 89 203 65 80 33 0 0 203 65 81 202 63 84 195 65 78 237 103 128 224 117 125 194 66 83 193 65 82 155 191 55 39 58 3 152 189 57 2 2 2 
