P3
8 8
255
255 190 20 255 205 35 255 220 60 255 205 35 255 220 60 255 205 35 255 190 20 220 130 8
255 205 35 120 62 8 120 62 8 255 205 35 255 205 35 120 62 8 120 62 8 255 205 35
255 220 60 120 62 8 255 205 35 255 205 35 255 205 35 120 62 8 120 62 8 255 220 60
255 205 35 255 205 35 120 62 8 120 62 8 120 62 8 255 205 35 255 205 35 255 205 35
255 220 60 255 205 35 255 205 35 120 62 8 255 205 35 255 205 35 255 205 35 255 220 60
255 205 35 255 205 35 255 205 35 255 205 35 255 205 35 120 62 8 120 62 8 255 205 35
255 190 20 255 205 35 255 205 35 120 62 8 120 62 8 255 205 35 255 205 35 255 190 20
220 130 8 255 190 20 255 205 35 255 220 60 255 205 35 255 220 60 255 205 35 220 130 8
